;FLAVOR:Marlin
;TIME:5748
;Filament used: 3.31656m
;Layer height: 0.2
;MINX:95.917
;MINY:92.976
;MINZ:0.2
;MAXX:139.083
;MAXY:137.563
;MAXZ:96
;Generated with Cura_SteamEngine main
M140 S50
M105
M190 S50
M104 S200
M105
M109 S200
M82 ;absolute extrusion mode
; Ender 3 Custom Start G-code
G92 E0 ; Reset Extruder
G28 ; Home all axes
G1 Z2.0 F3000 ; Move Z Axis up little to prevent scratching of Heat Bed
G1 X0.1 Y20 Z0.3 F5000.0 ; Move to start position
G1 X0.1 Y200.0 Z0.3 F1500.0 E15 ; Draw the first line
G1 X0.4 Y200.0 Z0.3 F5000.0 ; Move to side a little
G1 X0.4 Y20 Z0.3 F1500.0 E30 ; Draw the second line
G92 E0 ; Reset Extruder
G1 Z2.0 F3000 ; Move Z Axis up little to prevent scratching of Heat Bed
G1 X5 Y20 Z0.3 F5000.0 ; Move over to prevent blob squish
G92 E0
G92 E0
G1 F2700 E-5
;LAYER_COUNT:480
;LAYER:0
M107
G0 F6000 X108.795 Y96.492 Z0.2
G0 X106.515 Y100.166
;TYPE:SKIRT
G1 F2700 E0
G1 F1200 X106.752 Y99.618 E0.01986
G1 X107.161 Y98.774 E0.05105
G1 X107.64 Y97.968 E0.08224
G1 X108.186 Y97.205 E0.11344
G1 X108.795 Y96.492 E0.14463
G1 X109.463 Y95.834 E0.17582
G1 X110.184 Y95.234 E0.20701
G1 X110.954 Y94.699 E0.2382
G1 X111.767 Y94.23 E0.26942
G1 X112.616 Y93.833 E0.30059
G1 X113.497 Y93.51 E0.3318
G1 X114.401 Y93.262 E0.36298
G1 X115.324 Y93.093 E0.39419
G1 X116.666 Y92.988 E0.43896
G1 X117.397 Y92.976 E0.46327
G1 X118.202 Y92.983 E0.49005
G1 X119.138 Y93.038 E0.52123
G1 X120.066 Y93.172 E0.55242
G1 X120.98 Y93.384 E0.58363
G1 X121.872 Y93.674 E0.61482
G1 X122.736 Y94.038 E0.64601
G1 X123.566 Y94.475 E0.6772
G1 X124.355 Y94.981 E0.70838
G1 X125.099 Y95.553 E0.73959
G1 X125.791 Y96.185 E0.77076
G1 X126.427 Y96.874 E0.80195
G1 X126.821 Y97.368 E0.82297
G1 X127.04 Y97.659 E0.83508
G1 X127.572 Y98.431 E0.86626
G1 X128.035 Y99.246 E0.89744
G1 X128.329 Y99.865 E0.92023
G1 X128.657 Y100.615 E0.94746
G1 X129.732 Y102.98 E1.03386
G1 X130.84 Y105.245 E1.11773
G1 X132.001 Y107.456 E1.20079
G1 X133.255 Y109.689 E1.28597
G1 X134.531 Y111.818 E1.36852
G1 X135.908 Y113.975 E1.45364
G1 X137.053 Y115.673 E1.52175
G1 X137.533 Y116.452 E1.55219
G1 X137.674 Y116.704 E1.56179
G1 X138.096 Y117.541 E1.59297
G1 X138.446 Y118.411 E1.62416
G1 X138.72 Y119.308 E1.65535
G1 X138.917 Y120.225 E1.68655
G1 X139.035 Y121.155 E1.71773
G1 X139.072 Y121.889 E1.74217
G1 X139.083 Y122.541 E1.76386
G1 X139.079 Y123.277 E1.78834
G1 X139.028 Y124.213 E1.81952
G1 X138.897 Y125.142 E1.85072
G1 X138.688 Y126.056 E1.88191
G1 X138.401 Y126.949 E1.91311
G1 X138.04 Y127.814 E1.94428
G1 X137.606 Y128.646 E1.97549
G1 X137.103 Y129.437 E2.00667
G1 X136.534 Y130.183 E2.03787
G1 X135.904 Y130.877 E2.06905
G1 X135.216 Y131.516 E2.10028
G1 X134.477 Y132.093 E2.13146
G1 X133.692 Y132.606 E2.16265
G1 X132.869 Y133.048 E2.19372
G1 X132.441 Y133.255 E2.20954
G1 X131.58 Y133.627 E2.24073
G1 X130.895 Y133.863 E2.26483
G1 X129.88 Y134.175 E2.30015
G1 X129.203 Y134.372 E2.3236
G1 X126.812 Y135.144 E2.40717
G1 X124.448 Y135.982 E2.49059
G1 X123.736 Y136.257 E2.51597
G1 X122.822 Y136.596 E2.5484
G1 X122.114 Y136.831 E2.57321
G1 X121.422 Y137.035 E2.5972
G1 X120.512 Y137.262 E2.6284
G1 X119.56 Y137.413 E2.66046
G1 X118.833 Y137.496 E2.6848
G1 X117.897 Y137.563 E2.71601
G1 X116.798 Y137.539 E2.75257
G1 X116.017 Y137.483 E2.77861
G1 X115.086 Y137.376 E2.80978
G1 X114.198 Y137.198 E2.8399
G1 X113.496 Y137.016 E2.86402
G1 X113.048 Y136.886 E2.87954
G1 X112.281 Y136.632 E2.90641
G1 X109.48 Y135.59 E3.00581
G1 X107.097 Y134.784 E3.08948
G1 X103.967 Y133.83 E3.19831
G1 X103.082 Y133.519 E3.22951
G1 X102.227 Y133.133 E3.26071
G1 X101.408 Y132.676 E3.29191
G1 X100.727 Y132.222 E3.31913
G1 X100.485 Y132.047 E3.32906
G1 X99.749 Y131.465 E3.36027
G1 X99.066 Y130.823 E3.39145
G1 X98.439 Y130.125 E3.42265
G1 X97.874 Y129.376 E3.45386
G1 X97.376 Y128.582 E3.48503
G1 X96.946 Y127.748 E3.51624
G1 X96.589 Y126.881 E3.54743
G1 X96.308 Y125.987 E3.5786
G1 X96.103 Y125.071 E3.60981
G1 X95.977 Y124.142 E3.641
G1 X95.933 Y123.353 E3.66728
G1 X95.917 Y122.554 E3.69386
G1 X95.922 Y121.781 E3.71957
G1 X95.977 Y120.845 E3.75076
G1 X96.112 Y119.917 E3.78195
G1 X96.325 Y119.004 E3.81313
G1 X96.615 Y118.112 E3.84432
G1 X96.98 Y117.248 E3.87552
G1 X97.417 Y116.418 E3.90672
G1 X97.799 Y115.809 E3.93063
G1 X99.324 Y113.546 E4.02139
G1 X100.654 Y111.446 E4.10407
G1 X101.956 Y109.254 E4.18887
G1 X103.174 Y107.065 E4.27218
G1 X104.34 Y104.824 E4.35621
G1 X105.432 Y102.572 E4.43945
G1 X106.515 Y100.166 E4.52721
G1 F2700 E-0.47279
G0 F6000 X104.69 Y105.019
G1 F2700 E4.52721
G1 F1200 X105.799 Y102.731 E4.61177
G1 X106.876 Y100.339 E4.69902
G1 X107.119 Y99.777 E4.71939
G1 X107.521 Y98.949 E4.75
G1 X107.993 Y98.159 E4.78061
G1 X108.532 Y97.412 E4.81125
G1 X109.134 Y96.716 E4.84185
G1 X109.794 Y96.074 E4.87248
G1 X110.508 Y95.492 E4.90312
G1 X111.269 Y94.974 E4.93373
G1 X112.072 Y94.524 E4.96435
G1 X112.911 Y94.145 E4.99497
G1 X113.78 Y93.84 E5.0256
G1 X114.672 Y93.613 E5.05622
G1 X115.58 Y93.463 E5.08682
G1 X116.673 Y93.388 E5.12326
G1 X117.404 Y93.376 E5.14758
G1 X118.195 Y93.383 E5.17389
G1 X119.114 Y93.437 E5.20451
G1 X120.025 Y93.571 E5.23513
G1 X120.921 Y93.783 E5.26576
G1 X121.795 Y94.073 E5.29639
G1 X122.641 Y94.436 E5.32701
G1 X123.452 Y94.872 E5.35763
G1 X124.222 Y95.377 E5.38826
G1 X124.945 Y95.947 E5.41888
G1 X125.616 Y96.577 E5.44949
G1 X126.502 Y97.608 E5.49471
G1 X126.721 Y97.899 E5.50682
G1 X127.242 Y98.658 E5.53744
G1 X127.695 Y99.459 E5.56804
G1 X127.963 Y100.026 E5.5889
G1 X128.298 Y100.792 E5.61671
G1 X129.367 Y103.142 E5.70258
G1 X130.485 Y105.428 E5.78722
G1 X131.656 Y107.659 E5.87102
G1 X132.906 Y109.885 E5.95593
G1 X134.199 Y112.043 E6.03961
G1 X135.571 Y114.192 E6.12441
G1 X136.721 Y115.897 E6.19281
G1 X137.183 Y116.647 E6.22211
G1 X137.324 Y116.899 E6.23171
G1 X137.739 Y117.721 E6.26234
G1 X138.08 Y118.576 E6.29295
G1 X138.346 Y119.458 E6.32359
G1 X138.534 Y120.359 E6.35421
G1 X138.644 Y121.273 E6.38483
G1 X138.672 Y121.896 E6.40557
G1 X138.683 Y122.548 E6.42726
G1 X138.679 Y123.272 E6.45134
G1 X138.628 Y124.191 E6.48195
G1 X138.498 Y125.102 E6.51256
G1 X138.289 Y125.999 E6.54319
G1 X138.002 Y126.874 E6.57382
G1 X137.641 Y127.721 E6.60444
G1 X137.208 Y128.533 E6.63505
G1 X136.706 Y129.305 E6.66568
G1 X136.139 Y130.03 E6.69629
G1 X135.511 Y130.704 E6.72693
G1 X134.827 Y131.32 E6.75755
G1 X134.093 Y131.875 E6.78815
G1 X133.312 Y132.364 E6.8188
G1 X132.695 Y132.688 E6.84198
G1 X132.267 Y132.895 E6.85779
G1 X131.422 Y133.259 E6.88839
G1 X130.777 Y133.481 E6.91108
G1 X129.768 Y133.791 E6.94619
G1 X129.074 Y133.993 E6.97023
G1 X126.692 Y134.762 E7.05348
G1 X124.318 Y135.604 E7.13726
G1 X123.592 Y135.884 E7.16314
G1 X122.683 Y136.221 E7.19538
G1 X122.001 Y136.447 E7.21928
G1 X121.309 Y136.651 E7.24328
G1 X120.416 Y136.873 E7.27388
G1 X119.514 Y137.016 E7.30426
G1 X118.787 Y137.099 E7.32859
G1 X117.869 Y137.163 E7.3592
G1 X116.827 Y137.14 E7.39387
G1 X116.046 Y137.084 E7.41991
G1 X115.131 Y136.978 E7.45055
G1 X114.293 Y136.809 E7.47898
G1 X113.608 Y136.632 E7.50251
G1 X113.16 Y136.502 E7.51803
G1 X112.42 Y136.258 E7.54394
G1 X109.58 Y135.202 E7.64472
G1 X107.245 Y134.411 E7.72672
G1 X104.083 Y133.448 E7.83665
G1 X103.215 Y133.141 E7.86728
G1 X102.377 Y132.761 E7.89788
G1 X101.574 Y132.309 E7.92853
G1 X100.962 Y131.897 E7.95307
G1 X100.72 Y131.722 E7.963
G1 X99.998 Y131.151 E7.99362
G1 X99.328 Y130.519 E8.02425
G1 X98.716 Y129.832 E8.05485
G1 X98.166 Y129.094 E8.08546
G1 X97.681 Y128.31 E8.11613
G1 X97.267 Y127.488 E8.14674
G1 X96.926 Y126.633 E8.17735
G1 X96.66 Y125.752 E8.20796
G1 X96.471 Y124.851 E8.23858
G1 X96.362 Y123.937 E8.2692
G1 X96.333 Y123.345 E8.28891
G1 X96.317 Y122.546 E8.31549
G1 X96.322 Y121.788 E8.3407
G1 X96.377 Y120.869 E8.37132
G1 X96.511 Y119.958 E8.40195
G1 X96.724 Y119.062 E8.43258
G1 X97.013 Y118.188 E8.4632
G1 X97.378 Y117.343 E8.49381
G1 X97.814 Y116.532 E8.52444
G1 X98.13 Y116.033 E8.54408
G1 X99.666 Y113.754 E8.63549
G1 X101.002 Y111.643 E8.71858
G1 X102.291 Y109.474 E8.8025
G1 X103.544 Y107.222 E8.88822
G1 X104.69 Y105.019 E8.97081
G1 F2700 E3.97081
G0 F6000 X102.642 Y109.667
G1 F2700 E8.97081
G1 F1200 X103.882 Y107.437 E9.05568
G1 X105.054 Y105.184 E9.14014
G1 X106.16 Y102.905 E9.2244
G1 X107.236 Y100.513 E9.31164
G1 X107.486 Y99.936 E9.33255
G1 X107.881 Y99.124 E9.36258
G1 X108.346 Y98.35 E9.39262
G1 X108.878 Y97.62 E9.42266
G1 X109.473 Y96.94 E9.45271
G1 X110.125 Y96.315 E9.48275
G1 X110.83 Y95.751 E9.51278
G1 X111.582 Y95.251 E9.54282
G1 X112.375 Y94.819 E9.57285
G1 X113.204 Y94.46 E9.6029
G1 X114.061 Y94.175 E9.63294
G1 X114.94 Y93.967 E9.66298
G1 X115.833 Y93.837 E9.69299
G1 X116.68 Y93.788 E9.72121
G1 X117.411 Y93.776 E9.74553
G1 X118.189 Y93.783 E9.77141
G1 X119.091 Y93.837 E9.80146
G1 X119.984 Y93.971 E9.83149
G1 X120.862 Y94.182 E9.86153
G1 X121.718 Y94.471 E9.89158
G1 X122.544 Y94.834 E9.92159
G1 X123.336 Y95.269 E9.95164
G1 X124.086 Y95.773 E9.98169
G1 X124.788 Y96.34 E10.01171
G1 X125.438 Y96.968 E10.04177
G1 X126.182 Y97.849 E10.08012
G1 X126.401 Y98.14 E10.09224
G1 X126.911 Y98.884 E10.12224
G1 X127.354 Y99.672 E10.1523
G1 X127.596 Y100.186 E10.1712
G1 X127.924 Y100.936 E10.19843
G1 X129.015 Y103.334 E10.28605
G1 X130.128 Y105.611 E10.37035
G1 X131.296 Y107.834 E10.45387
G1 X132.548 Y110.065 E10.53896
G1 X133.862 Y112.258 E10.62399
G1 X135.223 Y114.39 E10.70811
G1 X136.39 Y116.12 E10.77752
G1 X136.834 Y116.842 E10.80571
G1 X136.975 Y117.094 E10.81532
G1 X137.381 Y117.901 E10.84536
G1 X137.714 Y118.741 E10.87542
G1 X137.971 Y119.607 E10.90546
G1 X138.15 Y120.492 E10.93549
G1 X138.251 Y121.389 E10.96552
G1 X138.273 Y121.903 E10.98263
G1 X138.284 Y122.555 E11.00432
G1 X138.279 Y123.267 E11.028
G1 X138.229 Y124.169 E11.05805
G1 X138.098 Y125.062 E11.08806
G1 X137.889 Y125.941 E11.11812
G1 X137.604 Y126.798 E11.14815
G1 X137.243 Y127.626 E11.1782
G1 X136.811 Y128.419 E11.20823
G1 X136.31 Y129.17 E11.23826
G1 X135.745 Y129.875 E11.26831
G1 X135.12 Y130.526 E11.29832
G1 X134.439 Y131.12 E11.32838
G1 X133.709 Y131.651 E11.3584
G1 X132.934 Y132.116 E11.38846
G1 X132.521 Y132.327 E11.40389
G1 X132.093 Y132.534 E11.4197
G1 X131.263 Y132.891 E11.44975
G1 X130.659 Y133.099 E11.471
G1 X129.657 Y133.407 E11.50587
G1 X128.935 Y133.617 E11.53087
G1 X126.583 Y134.377 E11.61309
G1 X124.146 Y135.241 E11.69908
G1 X123.315 Y135.561 E11.7287
G1 X122.545 Y135.846 E11.75601
G1 X121.888 Y136.064 E11.77903
G1 X121.196 Y136.268 E11.80303
G1 X120.32 Y136.484 E11.83304
G1 X119.469 Y136.618 E11.86169
G1 X118.742 Y136.701 E11.88603
G1 X117.841 Y136.764 E11.91607
G1 X116.856 Y136.741 E11.94884
G1 X116.075 Y136.685 E11.97488
G1 X115.177 Y136.58 E12.00495
G1 X114.388 Y136.421 E12.03172
G1 X113.719 Y136.248 E12.0547
G1 X113.271 Y136.118 E12.07022
G1 X112.559 Y135.883 E12.09516
G1 X109.711 Y134.824 E12.19622
G1 X107.353 Y134.026 E12.27902
G1 X104.2 Y133.065 E12.38865
G1 X103.348 Y132.764 E12.4187
G1 X102.527 Y132.388 E12.44874
G1 X101.742 Y131.942 E12.47876
G1 X101.196 Y131.573 E12.50068
G1 X100.954 Y131.398 E12.51062
G1 X100.246 Y130.837 E12.54066
G1 X99.591 Y130.216 E12.57068
G1 X98.993 Y129.539 E12.60072
G1 X98.458 Y128.812 E12.63075
G1 X97.989 Y128.04 E12.66079
G1 X97.59 Y127.23 E12.69082
G1 X97.264 Y126.387 E12.72088
G1 X97.014 Y125.519 E12.75093
G1 X96.842 Y124.633 E12.78095
G1 X96.733 Y123.337 E12.8242
G1 X96.717 Y122.538 E12.85078
G1 X96.722 Y121.794 E12.87553
G1 X96.777 Y120.893 E12.90555
G1 X96.91 Y120 E12.93558
G1 X97.123 Y119.122 E12.96563
G1 X97.412 Y118.266 E12.99568
G1 X97.775 Y117.439 E13.02572
G1 X98.211 Y116.648 E13.05576
G1 X98.462 Y116.256 E13.07124
G1 X100.003 Y113.969 E13.16296
G1 X101.341 Y111.856 E13.24615
G1 X102.642 Y109.667 E13.33084
G1 F2700 E8.33084
;MESH:jet_p2.stl
G0 F6000 X106.972 Y121.197
G0 X117.516 Y125.979
;TYPE:WALL-INNER
G1 F2700 E13.33084
G1 F1200 X118.128 Y125.92 E13.35129
G1 X118.727 Y125.75 E13.372
G1 X119.256 Y125.492 E13.39158
G1 X119.766 Y125.121 E13.41255
G1 X120.191 Y124.669 E13.43319
G1 X120.528 Y124.151 E13.45374
G1 X120.76 Y123.584 E13.47412
G1 X120.893 Y123.101 E13.49078
G1 X121.035 Y122.917 E13.49851
G1 X121.389 Y122.76 E13.51139
G1 X122.61 Y122.76 E13.552
G1 F1203 X123.831 Y122.76 E13.59251
G1 F1206 X125.052 Y122.759 E13.63292
G1 F1212.1 X126.273 Y122.759 E13.67312
G1 F1215.2 X127.494 Y122.758 E13.71323
G1 X127.492 Y122.367 E13.72607
G1 X126.271 Y122.366 E13.76617
G1 F1212.1 X125.05 Y122.365 E13.80638
G1 F1206 X123.829 Y122.364 E13.84678
G1 F1203 X122.608 Y122.363 E13.88729
G1 F1200 X121.387 Y122.361 E13.9279
G1 X121.033 Y122.206 E13.94076
G1 X120.889 Y122.02 E13.94858
G1 X120.777 Y121.585 E13.96352
G1 X120.566 Y121.047 E13.98274
G1 X120.276 Y120.563 E14.00151
G1 X119.907 Y120.131 E14.02041
G1 X119.485 Y119.777 E14.03873
G1 X118.999 Y119.487 E14.05755
G1 X118.47 Y119.284 E14.07639
G1 X118.048 Y119.173 E14.09091
G1 X117.865 Y119.037 E14.09849
G1 F1203 X117.699 Y118.671 E14.11182
G1 F1206 X117.699 Y116.908 E14.17017
G1 X117.698 Y115.145 E14.22851
G1 F1209.1 X117.697 Y113.382 E14.28671
G1 X117.696 Y111.619 E14.34491
G1 F1212.1 X117.695 Y109.856 E14.40296
G1 X117.694 Y108.093 E14.46101
G1 F1215.2 X117.693 Y106.33 E14.51892
G1 X117.692 Y104.567 E14.57682
G1 F1212.1 X117.303 Y104.569 E14.58963
G1 F1209.1 X117.303 Y108.095 E14.70603
G1 X117.302 Y111.621 E14.82242
G1 F1206 X117.302 Y115.147 E14.93911
G1 X117.301 Y118.673 E15.0558
G1 F1203 X117.135 Y119.038 E15.0691
G1 F1200 X116.949 Y119.175 E15.07679
G1 X116.535 Y119.281 E15.091
G1 X115.983 Y119.496 E15.1107
G1 X115.499 Y119.788 E15.1295
G1 X115.078 Y120.147 E15.14791
G1 X114.712 Y120.58 E15.16676
G1 X114.424 Y121.069 E15.18564
G1 X114.222 Y121.593 E15.20432
G1 X114.115 Y122.009 E15.2186
G1 X113.979 Y122.192 E15.22619
G1 F1203 X113.561 Y122.363 E15.24117
G1 F1209.1 X112.048 Y122.363 E15.29111
G1 F1212.1 X110.535 Y122.363 E15.34093
G1 F1215.2 X109.022 Y122.363 E15.39063
G1 F1218.3 X107.509 Y122.363 E15.4402
G1 X107.51 Y122.754 E15.45301
G1 X109.023 Y122.755 E15.50257
G1 F1215.2 X110.536 Y122.757 E15.55227
G1 F1212.1 X112.049 Y122.758 E15.60209
G1 F1209.1 X113.562 Y122.76 E15.65203
G1 F1203 X113.98 Y122.929 E15.66699
G1 F1200 X114.114 Y123.111 E15.67451
G1 X114.236 Y123.577 E15.69053
G1 X114.482 Y124.166 E15.71176
G1 X114.821 Y124.682 E15.73229
G1 X115.248 Y125.133 E15.75295
G1 X115.748 Y125.494 E15.77346
G1 X116.29 Y125.757 E15.7935
G1 X116.904 Y125.926 E15.81468
G1 X117.516 Y125.979 E15.83511
G0 F6000 X117.518 Y126.381
;TYPE:WALL-OUTER
G1 F1200 X118.202 Y126.315 E15.85797
G1 X118.871 Y126.125 E15.8811
G1 X119.463 Y125.836 E15.90301
G1 X120.032 Y125.423 E15.92639
G1 X120.507 Y124.917 E15.94948
G1 X120.884 Y124.337 E15.97248
G1 X121.14 Y123.712 E15.99495
G1 X121.254 Y123.29 E16.00949
G1 X121.307 Y123.211 E16.01265
G1 X121.425 Y123.158 E16.01695
G1 X127.63 Y123.155 E16.22333
G1 X127.889 Y123.038 E16.23279
G1 X127.889 Y122.139 E16.26269
G1 X127.864 Y122.065 E16.26528
G1 X127.783 Y122.004 E16.26866
G1 X127.486 Y121.967 E16.27861
G1 X121.423 Y121.963 E16.48027
G1 X121.304 Y121.911 E16.48459
G1 X121.253 Y121.845 E16.48736
G1 X121.159 Y121.463 E16.50045
G1 X120.926 Y120.87 E16.52164
G1 X120.602 Y120.329 E16.54261
G1 X120.189 Y119.846 E16.56375
G1 X119.717 Y119.45 E16.58424
G1 X119.175 Y119.126 E16.60524
G1 X118.592 Y118.902 E16.62601
G1 X118.169 Y118.793 E16.64054
G1 X118.097 Y118.637 E16.64626
G1 X118.094 Y104.574 E17.114
G1 X118.057 Y104.325 E17.12237
G1 X117.949 Y104.173 E17.12857
G1 X117.029 Y104.172 E17.15917
G1 X116.971 Y104.202 E17.16134
G1 X116.906 Y104.581 E17.17413
G1 X116.903 Y118.638 E17.64167
G1 X116.831 Y118.794 E17.64738
G1 X116.414 Y118.899 E17.66169
G1 X115.806 Y119.136 E17.68339
G1 X115.265 Y119.462 E17.7044
G1 X114.794 Y119.863 E17.72497
