;FLAVOR:Marlin
;TIME:6260
;Filament used: 4.42527m
;Layer height: 0.2
;MINX:90.826
;MINY:29.306
;MINZ:0.2
;MAXX:144.174
;MAXY:205.82
;MAXZ:7.2
;Generated with Cura_SteamEngine main
M140 S50
M105
M190 S50
M104 S200
M105
M109 S200
M82 ;absolute extrusion mode
; Ender 3 Custom Start G-code
G92 E0 ; Reset Extruder
G28 ; Home all axes
G1 Z2.0 F3000 ; Move Z Axis up little to prevent scratching of Heat Bed
G1 X0.1 Y20 Z0.3 F5000.0 ; Move to start position
G1 X0.1 Y200.0 Z0.3 F1500.0 E15 ; Draw the first line
G1 X0.4 Y200.0 Z0.3 F5000.0 ; Move to side a little
G1 X0.4 Y20 Z0.3 F1500.0 E30 ; Draw the second line
G92 E0 ; Reset Extruder
G1 Z2.0 F3000 ; Move Z Axis up little to prevent scratching of Heat Bed
G1 X5 Y20 Z0.3 F5000.0 ; Move over to prevent blob squish
G92 E0
G92 E0
G1 F2700 E-5
;LAYER_COUNT:36
;LAYER:0
M107
G0 F6000 X92.06 Y39.432 Z0.2
G0 X90.826 Y45.31
;TYPE:SKIRT
G1 F2700 E0
G1 F1200 X90.829 Y44.618 E0.02302
G1 X90.873 Y43.681 E0.05422
G1 X90.997 Y42.752 E0.08539
G1 X91.199 Y41.836 E0.11659
G1 X91.422 Y41.102 E0.1421
G1 X91.622 Y40.518 E0.16263
G1 X92.06 Y39.432 E0.20158
G1 X92.22 Y39.089 E0.21417
G1 X92.65 Y38.261 E0.2452
G1 X92.994 Y37.662 E0.26817
G1 X93.765 Y36.498 E0.31461
G1 X94.093 Y36.065 E0.33268
G1 X94.895 Y35.121 E0.37388
G1 X95.294 Y34.702 E0.39312
G1 X96.171 Y33.877 E0.43317
G1 X96.68 Y33.448 E0.45531
G1 X97.736 Y32.661 E0.49911
G1 X98.169 Y32.377 E0.51634
G1 X98.728 Y32.034 E0.53815
G1 X99.333 Y31.699 E0.56115
G1 X99.627 Y31.547 E0.57216
G1 X100.232 Y31.257 E0.59447
G1 X100.766 Y31.021 E0.61389
G1 X101.538 Y30.708 E0.6416
G1 X102.199 Y30.473 E0.66493
G1 X102.593 Y30.347 E0.67869
G1 X103.204 Y30.167 E0.69988
G1 X103.958 Y29.982 E0.7257
G1 X105.065 Y29.751 E0.76331
G1 X105.672 Y29.642 E0.78382
G1 X106.196 Y29.563 E0.80145
G1 X106.707 Y29.498 E0.81858
G1 X107.463 Y29.42 E0.84386
G1 X107.941 Y29.381 E0.85981
G1 X108.717 Y29.335 E0.88566
G1 X109.285 Y29.316 E0.90457
G1 X110.61 Y29.306 E0.94864
G1 X110.985 Y29.31 E0.96111
G1 X112.104 Y29.345 E0.99835
G1 X113.563 Y29.431 E1.04696
G1 X114.517 Y29.512 E1.0788
G1 X115.693 Y29.636 E1.11813
G1 X117.408 Y29.864 E1.17568
G1 X118.582 Y30.041 E1.21516
G1 X120.393 Y30.346 E1.27625
G1 X121.44 Y30.539 E1.31166
G1 X122.92 Y30.831 E1.36183
G1 X124.67 Y31.203 E1.42134
G1 X125.881 Y31.476 E1.46263
G1 X127.765 Y31.921 E1.52701
G1 X128.802 Y32.178 E1.56255
G1 X130.914 Y32.72 E1.63507
G1 X131.873 Y32.976 E1.66808
G1 X134.423 Y33.682 E1.75608
G1 X135.067 Y33.876 E1.77845
G1 X135.95 Y34.192 E1.80965
G1 X136.803 Y34.582 E1.84084
G1 X137.62 Y35.043 E1.87204
G1 X138.394 Y35.573 E1.90324
G1 X139.121 Y36.166 E1.93445
G1 X139.794 Y36.819 E1.96564
G1 X140.409 Y37.526 E1.9968
G1 X140.962 Y38.284 E2.02801
G1 X141.448 Y39.086 E2.0592
G1 X141.864 Y39.927 E2.09041
G1 X142.207 Y40.8 E2.12161
G1 X142.475 Y41.699 E2.15281
G1 X142.664 Y42.617 E2.18398
G1 X142.775 Y43.548 E2.21516
G1 X142.804 Y44.125 E2.23438
G1 X142.823 Y44.963 E2.26226
G1 X144.174 Y189.687 E7.07601
G1 X144.171 Y190.384 E7.09919
G1 X144.127 Y191.321 E7.13039
G1 X144.003 Y192.251 E7.1616
G1 X143.801 Y193.167 E7.19279
G1 X143.521 Y194.062 E7.22398
G1 X143.166 Y194.93 E7.25518
G1 X142.739 Y195.765 E7.28637
G1 X142.242 Y196.56 E7.31755
G1 X141.678 Y197.31 E7.34876
G1 X141.054 Y198.009 E7.37993
G1 X140.371 Y198.653 E7.41115
G1 X139.637 Y199.236 E7.44233
G1 X138.855 Y199.754 E7.47353
G1 X138.032 Y200.204 E7.50472
G1 X137.174 Y200.583 E7.53592
G1 X136.659 Y200.769 E7.55413
G1 X135.997 Y200.984 E7.57728
G1 X133.465 Y201.737 E7.66514
G1 X130.523 Y202.562 E7.76677
G1 X129.532 Y202.827 E7.80089
G1 X127.367 Y203.382 E7.87522
G1 X126.278 Y203.649 E7.91252
G1 X124.708 Y204.012 E7.96611
G1 X123.234 Y204.336 E8.01631
G1 X121.965 Y204.595 E8.05939
G1 X120.174 Y204.93 E8.11999
G1 X119.15 Y205.105 E8.15454
G1 X117.475 Y205.363 E8.21091
G1 X116.246 Y205.519 E8.25211
G1 X114.873 Y205.657 E8.29801
G1 X113.818 Y205.737 E8.3332
G1 X112.488 Y205.8 E8.37748
G1 X112.089 Y205.811 E8.39076
G1 X110.902 Y205.82 E8.43024
G1 X110.003 Y205.802 E8.46015
G1 X109.546 Y205.78 E8.47537
G1 X108.861 Y205.733 E8.4982
G1 X108.28 Y205.682 E8.5176
G1 X107.433 Y205.581 E8.54597
G1 X106.593 Y205.452 E8.57424
G1 X106.027 Y205.346 E8.59339
G1 X105.311 Y205.192 E8.61775
G1 X104.482 Y204.987 E8.64615
G1 X103.744 Y204.769 E8.67175
G1 X103.143 Y204.568 E8.69282
G1 X102.352 Y204.269 E8.72095
G1 X102.03 Y204.133 E8.73258
G1 X101.488 Y203.887 E8.75237
G1 X100.961 Y203.63 E8.77187
G1 X99.992 Y203.095 E8.80869
G1 X99.275 Y202.651 E8.83674
G1 X98.499 Y202.124 E8.86794
G1 X98.03 Y201.755 E8.88779
G1 X97.643 Y201.433 E8.90453
G1 X96.863 Y200.717 E8.93975
G1 X96.456 Y200.306 E8.95898
G1 X95.616 Y199.354 E9.00121
G1 X95.22 Y198.849 E9.02256
G1 X94.474 Y197.771 E9.06616
G1 X94.211 Y197.338 E9.08301
G1 X93.685 Y196.365 E9.1198
G1 X93.466 Y195.906 E9.13671
G1 X93.075 Y194.978 E9.17021
G1 X92.879 Y194.447 E9.18903
G1 X92.592 Y193.554 E9.22023
G1 X92.382 Y192.64 E9.25142
G1 X92.251 Y191.711 E9.28263
G1 X92.202 Y190.927 E9.30875
G1 X92.175 Y189.867 E9.34402
G1 X90.826 Y45.31 E14.15221
G0 F6000 X91.226 Y45.312
G1 F1200 X91.229 Y44.62 E14.17523
G1 X91.273 Y43.7 E14.20586
G1 X91.397 Y42.788 E14.23648
G1 X91.599 Y41.89 E14.26709
G1 X91.801 Y41.232 E14.28998
G1 X92.001 Y40.648 E14.31052
G1 X92.423 Y39.601 E14.34806
G1 X92.583 Y39.258 E14.36065
G1 X92.997 Y38.46 E14.39055
G1 X93.341 Y37.861 E14.41352
G1 X94.084 Y36.739 E14.45828
G1 X94.412 Y36.306 E14.47635
G1 X95.185 Y35.397 E14.51604
G1 X95.584 Y34.978 E14.53528
G1 X96.429 Y34.183 E14.57387
G1 X96.938 Y33.754 E14.59601
G1 X97.955 Y32.995 E14.63822
G1 X98.388 Y32.711 E14.65544
G1 X98.927 Y32.381 E14.67646
G1 X99.517 Y32.054 E14.6989
G1 X99.811 Y31.902 E14.7099
G1 X100.394 Y31.623 E14.7314
G1 X100.928 Y31.387 E14.75082
G1 X101.684 Y31.08 E14.77796
G1 X102.321 Y30.854 E14.80044
G1 X102.715 Y30.728 E14.8142
G1 X103.314 Y30.552 E14.83496
G1 X104.04 Y30.374 E14.85982
G1 X105.147 Y30.143 E14.89744
G1 X105.732 Y30.037 E14.91721
G1 X106.256 Y29.958 E14.93484
G1 X106.748 Y29.896 E14.95133
G1 X107.504 Y29.818 E14.97661
G1 X107.965 Y29.781 E14.99199
G1 X108.741 Y29.735 E15.01784
G1 X109.288 Y29.716 E15.03605
G1 X110.613 Y29.706 E15.08012
G1 X110.975 Y29.71 E15.09216
G1 X112.082 Y29.744 E15.129
G1 X113.529 Y29.83 E15.17721
G1 X114.722 Y29.934 E15.21704
G1 X115.65 Y30.034 E15.24808
G1 X117.354 Y30.261 E15.30526
G1 X118.516 Y30.436 E15.34434
G1 X120.321 Y30.74 E15.40522
G1 X121.502 Y30.958 E15.44517
G1 X122.842 Y31.223 E15.4906
G1 X124.582 Y31.593 E15.54977
G1 X125.789 Y31.866 E15.59092
G1 X127.669 Y32.31 E15.65517
G1 X128.702 Y32.565 E15.69056
G1 X130.718 Y33.082 E15.75978
G1 X131.766 Y33.361 E15.79586
G1 X134.316 Y34.067 E15.88386
G1 X134.949 Y34.258 E15.90585
G1 X135.815 Y34.569 E15.93645
G1 X136.652 Y34.954 E15.9671
G1 X137.452 Y35.41 E15.99772
G1 X138.209 Y35.934 E16.02835
G1 X138.918 Y36.521 E16.05896
G1 X139.573 Y37.168 E16.08958
G1 X140.17 Y37.869 E16.12021
G1 X140.703 Y38.619 E16.15081
G1 X141.17 Y39.413 E16.18145
G1 X141.566 Y40.244 E16.21206
G1 X141.888 Y41.106 E16.24267
G1 X142.134 Y41.993 E16.27329
G1 X142.303 Y42.898 E16.30391
G1 X142.404 Y44.134 E16.34515
G1 X142.423 Y44.967 E16.37287
G1 X143.774 Y189.686 E21.18645
G1 X143.771 Y190.383 E21.20963
G1 X143.727 Y191.302 E21.24023
G1 X143.603 Y192.215 E21.27088
G1 X143.401 Y193.113 E21.30149
G1 X143.122 Y193.99 E21.3321
G1 X142.767 Y194.84 E21.36274
G1 X142.34 Y195.655 E21.39334
G1 X141.844 Y196.431 E21.42397
G1 X141.283 Y197.16 E21.45457
G1 X140.66 Y197.839 E21.48522
G1 X139.981 Y198.46 E21.51582
G1 X139.25 Y199.02 E21.54645
G1 X138.474 Y199.515 E21.57706
G1 X137.658 Y199.941 E21.60768
G1 X136.533 Y200.39 E21.64797
G1 X135.882 Y200.601 E21.67073
G1 X133.357 Y201.352 E21.75835
G1 X130.545 Y202.141 E21.85548
G1 X129.323 Y202.468 E21.89756
G1 X127.272 Y202.993 E21.96797
G1 X126.051 Y203.292 E22.00979
G1 X124.622 Y203.622 E22.05856
G1 X123.301 Y203.913 E22.10355
G1 X121.892 Y204.202 E22.15139
G1 X120.107 Y204.536 E22.21179
G1 X119.088 Y204.71 E22.24618
G1 X117.701 Y204.927 E22.29287
G1 X116.205 Y205.121 E22.34304
G1 X115.133 Y205.232 E22.37889
G1 X113.787 Y205.338 E22.4238
G1 X112.471 Y205.401 E22.46762
G1 X112.086 Y205.411 E22.48043
G1 X110.899 Y205.42 E22.51991
G1 X110.014 Y205.402 E22.54935
G1 X109.573 Y205.381 E22.56403
G1 X108.612 Y205.312 E22.59608
G1 X108.002 Y205.249 E22.61647
G1 X107.483 Y205.184 E22.63387
G1 X106.656 Y205.057 E22.6617
G1 X106.111 Y204.955 E22.68014
G1 X105.395 Y204.801 E22.7045
G1 X104.582 Y204.6 E22.73235
G1 X103.871 Y204.39 E22.75701
G1 X103.27 Y204.189 E22.77809
G1 X102.508 Y203.901 E22.80518
G1 X102.186 Y203.765 E22.81681
G1 X101.664 Y203.527 E22.83589
G1 X101.137 Y203.27 E22.85539
G1 X100.202 Y202.755 E22.8909
G1 X99.485 Y202.311 E22.91895
G1 X98.724 Y201.793 E22.94956
G1 X98.286 Y201.447 E22.96813
G1 X97.899 Y201.125 E22.98487
G1 X97.147 Y200.436 E23.0188
G1 X96.74 Y200.025 E23.03803
G1 X95.931 Y199.107 E23.07873
G1 X95.535 Y198.602 E23.10008
G1 X94.816 Y197.564 E23.14207
G1 X94.553 Y197.131 E23.15892
G1 X94.046 Y196.193 E23.19439
G1 X93.827 Y195.734 E23.2113
G1 X93.45 Y194.84 E23.24357
G1 X93.254 Y194.309 E23.2624
G1 X92.973 Y193.432 E23.29303
G1 X92.769 Y192.534 E23.32366
G1 X92.644 Y191.622 E23.35427
G1 X92.602 Y190.917 E23.37776
G1 X92.575 Y189.863 E23.41283
G1 X91.226 Y45.312 E28.22083
G0 F6000 X91.626 Y45.314
G1 F1200 X91.629 Y44.622 E28.24384
G1 X91.673 Y43.72 E28.27388
G1 X91.796 Y42.825 E28.30393
G1 X91.999 Y41.945 E28.33396
G1 X92.179 Y41.361 E28.35429
G1 X92.379 Y40.777 E28.37482
G1 X92.785 Y39.77 E28.41093
G1 X92.945 Y39.427 E28.42352
G1 X93.344 Y38.659 E28.45231
G1 X93.688 Y38.06 E28.47528
G1 X94.402 Y36.981 E28.51832
G1 X94.73 Y36.548 E28.53638
G1 X95.474 Y35.673 E28.57458
G1 X95.873 Y35.254 E28.59383
G1 X96.687 Y34.489 E28.63098
G1 X97.196 Y34.06 E28.65312
G1 X98.175 Y33.33 E28.69374
G1 X98.608 Y33.046 E28.71096
G1 X99.126 Y32.728 E28.73118
G1 X99.701 Y32.409 E28.75305
G1 X99.995 Y32.257 E28.76406
G1 X100.556 Y31.988 E28.78475
G1 X101.09 Y31.752 E28.80417
G1 X101.83 Y31.453 E28.83071
G1 X102.443 Y31.235 E28.85235
G1 X102.837 Y31.109 E28.86611
G1 X103.423 Y30.937 E28.88642
G1 X104.121 Y30.765 E28.91033
G1 X105.228 Y30.534 E28.94795
G1 X105.791 Y30.433 E28.96697
G1 X106.315 Y30.354 E28.9846
G1 X106.789 Y30.294 E29.00049
G1 X107.545 Y30.216 E29.02576
G1 X107.988 Y30.18 E29.04055
G1 X108.764 Y30.134 E29.0664
G1 X109.291 Y30.116 E29.08394
G1 X110.616 Y30.106 E29.12801
G1 X112.059 Y30.143 E29.17602
G1 X113.208 Y30.208 E29.2143
G1 X114.679 Y30.332 E29.2634
G1 X115.883 Y30.465 E29.30369
G1 X117.301 Y30.657 E29.35128
G1 X118.45 Y30.83 E29.38993
G1 X120.085 Y31.104 E29.44507
G1 X121.295 Y31.326 E29.48598
G1 X122.908 Y31.645 E29.54067
G1 X124.494 Y31.983 E29.5946
G1 X125.697 Y32.255 E29.63563
G1 X127.573 Y32.698 E29.69974
G1 X128.603 Y32.953 E29.73503
G1 X130.708 Y33.493 E29.80731
G1 X131.66 Y33.747 E29.84008
G1 X134.21 Y34.453 E29.92809
G1 X134.83 Y34.64 E29.94962
G1 X135.68 Y34.946 E29.97967
G1 X136.5 Y35.326 E30.00973
G1 X137.282 Y35.776 E30.03974
G1 X138.022 Y36.294 E30.06978
G1 X138.713 Y36.876 E30.09983
G1 X139.35 Y37.516 E30.12986
G1 X139.928 Y38.21 E30.1599
G1 X140.442 Y38.952 E30.18993
G1 X140.888 Y39.738 E30.21998
G1 X141.263 Y40.559 E30.25
G1 X141.565 Y41.41 E30.28004
G1 X141.789 Y42.285 E30.31008
G1 X141.935 Y43.176 E30.34011
G1 X142.004 Y44.143 E30.37235
G1 X142.023 Y44.971 E30.3999
G1 X143.374 Y189.684 E35.21328
G1 X143.371 Y190.381 E35.23647
G1 X143.327 Y191.283 E35.2665
G1 X143.204 Y192.178 E35.29655
G1 X143.001 Y193.058 E35.32659
G1 X142.722 Y193.917 E35.35663
G1 X142.368 Y194.747 E35.38664
G1 X141.942 Y195.544 E35.4167
G1 X141.447 Y196.299 E35.44672
G1 X140.887 Y197.008 E35.47677
G1 X140.267 Y197.664 E35.5068
G1 X139.591 Y198.263 E35.53684
G1 X138.865 Y198.8 E35.56687
G1 X138.094 Y199.27 E35.5969
G1 X137.284 Y199.671 E35.62697
G1 X136.406 Y200.01 E35.65827
G1 X135.768 Y200.218 E35.68059
G1 X133.249 Y200.967 E35.768
G1 X130.316 Y201.789 E35.86931
G1 X129.224 Y202.08 E35.90689
G1 X127.177 Y202.605 E35.97718
G1 X126.088 Y202.872 E36.01447
G1 X124.536 Y203.231 E36.06746
G1 X123.073 Y203.553 E36.11728
G1 X121.987 Y203.776 E36.15415
G1 X120.039 Y204.142 E36.22008
G1 X119.178 Y204.29 E36.24914
G1 X117.373 Y204.57 E36.30989
G1 X116.423 Y204.693 E36.34175
G1 X115.092 Y204.834 E36.38627
G1 X113.757 Y204.939 E36.43081
G1 X112.453 Y205.001 E36.47423
G1 X112.083 Y205.011 E36.48654
G1 X110.896 Y205.02 E36.52602
G1 X110.024 Y205.002 E36.55503
G1 X109.601 Y204.982 E36.56911
G1 X108.916 Y204.935 E36.59195
G1 X108.355 Y204.885 E36.61068
G1 X107.532 Y204.787 E36.63825
G1 X106.72 Y204.663 E36.66557
G1 X106.195 Y204.564 E36.68334
G1 X105.479 Y204.41 E36.7077
G1 X104.682 Y204.213 E36.735
G1 X103.998 Y204.01 E36.75873
G1 X103.397 Y203.809 E36.77981
G1 X102.663 Y203.532 E36.8059
G1 X102.341 Y203.396 E36.81753
G1 X101.839 Y203.168 E36.83587
G1 X101.312 Y202.911 E36.85537
G1 X100.413 Y202.415 E36.88952
G1 X99.696 Y201.971 E36.91757
G1 X98.95 Y201.462 E36.94761
G1 X98.542 Y201.14 E36.96489
G1 X98.155 Y200.818 E36.98164
G1 X97.431 Y200.154 E37.01431
G1 X97.024 Y199.743 E37.03355
G1 X96.245 Y198.86 E37.07271
G1 X95.849 Y198.355 E37.09406
G1 X95.158 Y197.356 E37.13446
G1 X94.895 Y196.923 E37.15131
G1 X94.407 Y196.02 E37.18545
G1 X94.188 Y195.561 E37.20236
G1 X93.825 Y194.701 E37.23341
G1 X93.629 Y194.17 E37.25224
G1 X93.354 Y193.31 E37.28227
G1 X93.156 Y192.429 E37.3123
G1 X93.037 Y191.533 E37.34236
G1 X93.002 Y190.906 E37.36325
G1 X92.975 Y189.859 E37.39809
G1 X91.626 Y45.314 E42.20588
G1 F2700 E37.20588
;MESH:jet_p1.stl
G0 F6000 X111.992 Y115.839
G0 X112.509 Y119.152
;TYPE:WALL-INNER
G1 F2700 E42.20588
G1 F1200 X112.125 Y119.103 E42.21876
G1 X112.073 Y119.09 E42.22054
G1 X111.696 Y118.934 E42.23411
G1 X111.358 Y118.673 E42.24831
G1 X111.121 Y118.362 E42.26132
G1 X110.954 Y117.985 E42.27503
G1 X110.893 Y117.562 E42.28925
G1 X110.954 Y117.118 E42.30415
G1 X111.106 Y116.762 E42.31703
G1 X111.34 Y116.438 E42.33032
G1 X111.66 Y116.179 E42.34401
G1 X112.07 Y116.001 E42.35888
G1 X112.473 Y115.942 E42.37243
G1 X112.905 Y115.993 E42.38689
G1 X113.286 Y116.147 E42.40056
G1 X113.622 Y116.397 E42.41449
G1 X113.881 Y116.728 E42.42847
G1 X114.042 Y117.113 E42.44235
G1 X114.106 Y117.529 E42.45635
G1 X114.05 Y117.952 E42.47054
G1 X113.898 Y118.337 E42.48431
G1 X113.645 Y118.673 E42.4983
G1 X113.318 Y118.928 E42.51209
G1 X112.933 Y119.092 E42.52601
G1 X112.509 Y119.152 E42.54025
G0 F6000 X112.189 Y118.707
;TYPE:WALL-OUTER
G1 F1200 X111.912 Y118.596 E42.55018
G1 X111.657 Y118.402 E42.56083
G1 X111.465 Y118.158 E42.57116
G1 X111.342 Y117.872 E42.58151
G1 X111.297 Y117.562 E42.59193
G1 X111.338 Y117.243 E42.60263
G1 X111.451 Y116.96 E42.61277
G1 X111.646 Y116.702 E42.62352
G1 X111.887 Y116.513 E42.63371
G1 X112.169 Y116.392 E42.64392
G1 X112.484 Y116.345 E42.65451
G1 X112.791 Y116.381 E42.66479
G1 X113.076 Y116.493 E42.67497
G1 X113.352 Y116.699 E42.68643
G1 X113.526 Y116.922 E42.69584
G1 X113.657 Y117.222 E42.70672
G1 X113.7 Y117.515 E42.71657
G1 X113.665 Y117.85 E42.72778
G1 X113.547 Y118.136 E42.73807
G1 X113.359 Y118.387 E42.7485
G1 X113.113 Y118.58 E42.7589
G1 X112.835 Y118.7 E42.76897
G1 X112.525 Y118.747 E42.7794
G1 X112.189 Y118.707 E42.79065
G1 F2700 E37.79065
G0 F6000 X111.994 Y119.168
G0 X112.717 Y118.981
G0 X114.074 Y118.381
G0 X125.994 Y118.36
G0 X127.113 Y118.964
;TYPE:WALL-INNER
G1 F2700 E42.79065
G1 F1200 X126.708 Y118.802 E42.80516
G1 X126.378 Y118.556 E42.81885
G1 X126.163 Y118.285 E42.83035
G1 X126.103 Y118.191 E42.83406
G1 X125.959 Y117.841 E42.84665
G1 X125.894 Y117.428 E42.86056
G1 X125.95 Y117.002 E42.87485
