;FLAVOR:Marlin
;TIME:1273
;Filament used: 0.662103m
;Layer height: 0.2
;MINX:91.5
;MINY:98.544
;MINZ:0.2
;MAXX:143.5
;MAXY:140.544
;MAXZ:11
;Generated with Cura_SteamEngine main
M140 S50
M105
M190 S50
M104 S200
M105
M109 S200
M82 ;absolute extrusion mode
; Ender 3 Custom Start G-code
G92 E0 ; Reset Extruder
G28 ; Home all axes
G1 Z2.0 F3000 ; Move Z Axis up little to prevent scratching of Heat Bed
G1 X0.1 Y20 Z0.3 F5000.0 ; Move to start position
G1 X0.1 Y200.0 Z0.3 F1500.0 E15 ; Draw the first line
G1 X0.4 Y200.0 Z0.3 F5000.0 ; Move to side a little
G1 X0.4 Y20 Z0.3 F1500.0 E30 ; Draw the second line
G92 E0 ; Reset Extruder
G1 Z2.0 F3000 ; Move Z Axis up little to prevent scratching of Heat Bed
G1 X5 Y20 Z0.3 F5000.0 ; Move over to prevent blob squish
G92 E0
G92 E0
G1 F2700 E-5
;LAYER_COUNT:55
;LAYER:0
M107
G0 F6000 X95.343 Y101.76 Z0.2
G0 X91.501 Y110.971
;TYPE:SKIRT
G1 F2700 E0
G1 F1200 X91.51 Y110.301 E0.02229
G1 X91.563 Y109.365 E0.05347
G1 X91.695 Y108.436 E0.08468
G1 X91.931 Y107.433 E0.11895
G1 X92.004 Y107.177 E0.1278
G1 X92.299 Y106.286 E0.15902
G1 X92.669 Y105.425 E0.19019
G1 X93.315 Y104.267 E0.23429
G1 X93.542 Y103.912 E0.24831
G1 X94.08 Y103.144 E0.27949
G1 X94.682 Y102.425 E0.31068
G1 X95.343 Y101.76 E0.34187
G1 X96.058 Y101.153 E0.37306
G1 X96.707 Y100.685 E0.39968
G1 X96.983 Y100.501 E0.41071
G1 X97.785 Y100.015 E0.4419
G1 X98.625 Y99.599 E0.47308
G1 X99.652 Y99.203 E0.50969
G1 X99.929 Y99.112 E0.51938
G1 X100.831 Y98.858 E0.55055
G1 X101.753 Y98.681 E0.58178
G1 X103.147 Y98.565 E0.6283
G1 X104.334 Y98.544 E0.66779
G1 X130.925 Y98.544 E1.55221
G1 X131.743 Y98.554 E1.57942
G1 X132.679 Y98.607 E1.6106
G1 X133.608 Y98.739 E1.64181
G1 X134.611 Y98.975 E1.67608
G1 X134.867 Y99.048 E1.68493
G1 X135.758 Y99.343 E1.71615
G1 X136.619 Y99.713 E1.74732
G1 X137.758 Y100.347 E1.79067
G1 X138.113 Y100.573 E1.80467
G1 X138.882 Y101.11 E1.83587
G1 X139.603 Y101.71 E1.86707
G1 X140.269 Y102.37 E1.89825
G1 X140.877 Y103.084 E1.92944
G1 X141.364 Y103.758 E1.9571
G1 X141.549 Y104.036 E1.96821
G1 X142.034 Y104.838 E1.99938
G1 X142.45 Y105.679 E2.03059
G1 X142.849 Y106.72 E2.06767
G1 X142.939 Y106.996 E2.07732
G1 X143.192 Y107.899 E2.10851
G1 X143.366 Y108.82 E2.13969
G1 X143.479 Y110.188 E2.18534
G1 X143.5 Y111.365 E2.22449
G1 X143.499 Y128.083 E2.78054
G1 X143.49 Y128.778 E2.80365
G1 X143.438 Y129.715 E2.83487
G1 X143.306 Y130.643 E2.86604
G1 X143.079 Y131.619 E2.89937
G1 X142.968 Y132.013 E2.91299
G1 X142.675 Y132.904 E2.94418
G1 X142.308 Y133.767 E2.97537
G1 X141.868 Y134.595 E3.00656
G1 X141.36 Y135.383 E3.03774
G1 X140.786 Y136.125 E3.06894
G1 X140.242 Y136.724 E3.09586
G1 X139.875 Y137.099 E3.11331
G1 X139.191 Y137.741 E3.14451
G1 X138.454 Y138.322 E3.17572
G1 X137.672 Y138.838 E3.20689
G1 X136.847 Y139.286 E3.23811
G1 X135.988 Y139.662 E3.2693
G1 X135.431 Y139.86 E3.28896
G1 X135.067 Y139.979 E3.3017
G1 X134.164 Y140.233 E3.3329
G1 X133.243 Y140.408 E3.36408
G1 X131.865 Y140.522 E3.41006
G1 X130.631 Y140.544 E3.45111
G1 X103.927 Y140.543 E4.33929
G1 X103.256 Y140.534 E4.36161
G1 X102.32 Y140.481 E4.39279
G1 X101.392 Y140.349 E4.42397
G1 X100.427 Y140.124 E4.45693
G1 X100.05 Y140.018 E4.46995
G1 X99.158 Y139.726 E4.50117
G1 X98.295 Y139.359 E4.53236
G1 X97.467 Y138.92 E4.56353
G1 X96.678 Y138.412 E4.59474
G1 X95.936 Y137.839 E4.62592
G1 X95.379 Y137.335 E4.65091
G1 X94.981 Y136.95 E4.66933
G1 X94.335 Y136.27 E4.70052
G1 X93.75 Y135.537 E4.73171
G1 X93.229 Y134.757 E4.76291
G1 X92.777 Y133.936 E4.79408
G1 X92.396 Y133.079 E4.82528
G1 X92.166 Y132.438 E4.84793
G1 X92.058 Y132.105 E4.85957
G1 X91.807 Y131.201 E4.89078
G1 X91.633 Y130.279 E4.92198
G1 X91.523 Y128.931 E4.96697
G1 X91.5 Y127.663 E5.00915
G1 X91.501 Y110.971 E5.56433
G0 F6000 X91.901 Y110.977
G1 F1200 X91.91 Y110.307 E5.58661
G1 X91.962 Y109.387 E5.61726
G1 X92.094 Y108.476 E5.64788
G1 X92.315 Y107.542 E5.6798
G1 X92.388 Y107.286 E5.68865
G1 X92.679 Y106.413 E5.71926
G1 X93.044 Y105.568 E5.74987
G1 X93.652 Y104.483 E5.79124
G1 X93.879 Y104.128 E5.80526
G1 X94.408 Y103.374 E5.83589
G1 X95 Y102.67 E5.86648
G1 X95.652 Y102.019 E5.89713
G1 X96.357 Y101.428 E5.92773
G1 X96.929 Y101.018 E5.95113
G1 X97.205 Y100.834 E5.96217
G1 X97.993 Y100.357 E5.9928
G1 X98.819 Y99.951 E6.02342
G1 X99.777 Y99.584 E6.05754
G1 X100.054 Y99.493 E6.06723
G1 X100.94 Y99.243 E6.09785
G1 X101.845 Y99.072 E6.12849
G1 X103.155 Y98.965 E6.1722
G1 X104.334 Y98.944 E6.21142
G1 X130.925 Y98.944 E7.09584
G1 X131.737 Y98.954 E7.12285
G1 X132.657 Y99.006 E7.1535
G1 X133.568 Y99.138 E7.18412
G1 X134.502 Y99.359 E7.21604
G1 X134.758 Y99.432 E7.22489
G1 X135.631 Y99.723 E7.2555
G1 X136.476 Y100.088 E7.28611
G1 X137.544 Y100.684 E7.32679
G1 X137.899 Y100.91 E7.34079
G1 X138.653 Y101.438 E7.37141
G1 X139.359 Y102.029 E7.40203
G1 X140.011 Y102.679 E7.43265
G1 X140.604 Y103.383 E7.46326
G1 X141.031 Y103.98 E7.48768
G1 X141.216 Y104.258 E7.49878
G1 X141.692 Y105.045 E7.52937
G1 X142.098 Y105.872 E7.56002
G1 X142.469 Y106.844 E7.59462
G1 X142.559 Y107.12 E7.60428
G1 X142.806 Y108.007 E7.6349
G1 X142.975 Y108.912 E7.66552
G1 X143.079 Y110.196 E7.70837
G1 X143.1 Y111.365 E7.74725
G1 X143.099 Y128.078 E8.30313
G1 X143.09 Y128.773 E8.32625
G1 X143.038 Y129.692 E8.35686
G1 X142.907 Y130.604 E8.38751
G1 X142.694 Y131.51 E8.41846
G1 X142.583 Y131.904 E8.43208
G1 X142.295 Y132.779 E8.46272
G1 X141.932 Y133.625 E8.49334
G1 X141.497 Y134.437 E8.52397
G1 X140.994 Y135.207 E8.55456
G1 X140.425 Y135.932 E8.58522
G1 X139.956 Y136.444 E8.60831
G1 X139.589 Y136.819 E8.62576
G1 X138.917 Y137.448 E8.65638
G1 X138.193 Y138.017 E8.687
G1 X137.422 Y138.521 E8.71764
G1 X136.611 Y138.956 E8.74825
G1 X135.765 Y139.319 E8.77887
G1 X134.943 Y139.599 E8.80775
G1 X134.056 Y139.847 E8.83838
G1 X133.151 Y140.017 E8.86901
G1 X131.857 Y140.122 E8.91219
G1 X130.631 Y140.144 E8.95298
G1 X103.933 Y140.143 E9.84095
G1 X103.262 Y140.134 E9.86327
G1 X102.343 Y140.082 E9.89389
G1 X101.432 Y139.95 E9.92451
G1 X100.535 Y139.739 E9.95515
G1 X100.158 Y139.633 E9.96818
G1 X99.283 Y139.346 E9.99881
G1 X98.437 Y138.984 E10.02941
G1 X97.625 Y138.549 E10.06005
G1 X96.854 Y138.046 E10.09067
G1 X96.13 Y137.478 E10.12128
G1 X95.657 Y137.048 E10.14254
G1 X95.259 Y136.663 E10.16096
G1 X94.626 Y135.994 E10.19159
G1 X94.053 Y135.274 E10.22219
G1 X93.545 Y134.506 E10.25282
G1 X93.105 Y133.697 E10.28345
G1 X92.737 Y132.853 E10.31407
G1 X92.546 Y132.314 E10.33309
G1 X92.438 Y131.981 E10.34474
G1 X92.192 Y131.094 E10.37535
G1 X92.025 Y130.189 E10.40596
G1 X91.923 Y128.923 E10.4482
G1 X91.9 Y127.663 E10.49012
G1 X91.901 Y110.977 E11.0451
G0 F6000 X92.301 Y110.982
G1 F1200 X92.31 Y110.312 E11.06738
G1 X92.362 Y109.41 E11.09743
G1 X92.494 Y108.517 E11.12746
G1 X92.7 Y107.652 E11.15703
G1 X92.773 Y107.396 E11.16589
G1 X93.059 Y106.539 E11.19594
G1 X93.419 Y105.711 E11.22597
G1 X93.989 Y104.698 E11.26463
G1 X94.216 Y104.343 E11.27864
G1 X94.735 Y103.605 E11.30865
G1 X95.318 Y102.915 E11.33869
G1 X95.96 Y102.279 E11.36875
G1 X96.656 Y101.703 E11.3988
G1 X97.151 Y101.351 E11.419
G1 X97.427 Y101.167 E11.43003
G1 X98.2 Y100.7 E11.46007
G1 X99.011 Y100.303 E11.4901
G1 X99.901 Y99.964 E11.52178
G1 X100.178 Y99.873 E11.53148
G1 X101.048 Y99.629 E11.56153
G1 X101.936 Y99.463 E11.59158
G1 X103.163 Y99.365 E11.63252
G1 X104.334 Y99.344 E11.67147
G1 X130.925 Y99.344 E12.55589
G1 X131.732 Y99.354 E12.58273
G1 X132.634 Y99.406 E12.61278
G1 X133.527 Y99.538 E12.64281
G1 X134.392 Y99.744 E12.67238
G1 X134.648 Y99.817 E12.68124
G1 X135.505 Y100.103 E12.71129
G1 X136.333 Y100.463 E12.74132
G1 X137.329 Y101.022 E12.7793
G1 X137.684 Y101.248 E12.7933
G1 X138.423 Y101.766 E12.82332
G1 X139.114 Y102.348 E12.85337
G1 X139.751 Y102.988 E12.8834
G1 X140.328 Y103.682 E12.91342
G1 X140.698 Y104.201 E12.93462
G1 X140.883 Y104.479 E12.94572
G1 X141.349 Y105.252 E12.97574
G1 X141.745 Y106.064 E13.00579
G1 X142.088 Y106.968 E13.03795
G1 X142.178 Y107.244 E13.04761
G1 X142.42 Y108.114 E13.07764
G1 X142.584 Y109.002 E13.10768
G1 X142.679 Y110.204 E13.14778
G1 X142.7 Y111.365 E13.1864
G1 X142.699 Y128.073 E13.74211
G1 X142.69 Y128.768 E13.76523
G1 X142.638 Y129.67 E13.79528
G1 X142.507 Y130.563 E13.8253
G1 X142.309 Y131.402 E13.85397
G1 X142.198 Y131.796 E13.86758
G1 X141.915 Y132.654 E13.89763
G1 X141.557 Y133.483 E13.92767
G1 X141.127 Y134.277 E13.9577
G1 X140.629 Y135.03 E13.98773
G1 X140.066 Y135.736 E14.01776
G1 X139.67 Y136.164 E14.03715
G1 X139.303 Y136.539 E14.05461
G1 X138.643 Y137.156 E14.08466
G1 X137.932 Y137.712 E14.11468
G1 X137.174 Y138.203 E14.14471
G1 X136.375 Y138.625 E14.17477
G1 X135.183 Y139.1 E14.21745
G1 X134.819 Y139.219 E14.23018
G1 X133.949 Y139.461 E14.26022
G1 X133.061 Y139.626 E14.29026
G1 X131.849 Y139.722 E14.3307
G1 X130.631 Y139.744 E14.37121
G1 X103.938 Y139.743 E15.25903
G1 X103.267 Y139.734 E15.28135
G1 X102.366 Y139.682 E15.31136
G1 X101.472 Y139.55 E15.34142
G1 X100.643 Y139.354 E15.36975
G1 X100.266 Y139.248 E15.38278
G1 X99.408 Y138.966 E15.41282
G1 X98.579 Y138.608 E15.44285
G1 X97.785 Y138.179 E15.47287
G1 X97.031 Y137.681 E15.50292
G1 X96.325 Y137.118 E15.53296
G1 X95.935 Y136.76 E15.55056
G1 X95.537 Y136.375 E15.56898
G1 X94.917 Y135.719 E15.599
G1 X94.356 Y135.011 E15.62905
G1 X93.861 Y134.256 E15.65907
G1 X93.434 Y133.46 E15.68912
G1 X93.08 Y132.629 E15.71916
G1 X92.819 Y131.858 E15.74623
G1 X92.578 Y130.987 E15.77629
G1 X92.416 Y130.099 E15.80631
G1 X92.323 Y128.915 E15.84582
G1 X92.3 Y127.663 E15.88746
G1 X92.301 Y110.982 E16.44228
G1 F2700 E11.44228
;MESH:jet_p4.stl
G0 F6000 X105.789 Y119.058
G0 X107.953 Y121.093
;TYPE:WALL-INNER
G1 F2700 E16.44228
G1 F1200 X107.32 Y121.134 E16.46337
G1 X107.171 Y121.112 E16.46838
G1 X106.595 Y120.88 E16.48904
G1 X106.13 Y120.392 E16.51146
G1 X105.96 Y119.967 E16.52668
G1 X105.906 Y119.434 E16.5445
G1 X105.982 Y119.008 E16.55889
G1 X106.259 Y118.547 E16.57678
G1 X106.607 Y118.2 E16.59313
G1 X107.224 Y117.955 E16.61521
G1 X107.931 Y117.987 E16.63875
G1 X108.531 Y118.304 E16.66132
G1 X108.94 Y118.825 E16.68335
G1 X109.065 Y119.208 E16.69675
G1 X109.075 Y119.267 E16.69874
G1 X109.076 Y119.851 E16.71816
G1 X108.945 Y120.251 E16.73216
G1 X108.545 Y120.775 E16.75408
G1 X107.953 Y121.093 E16.77644
G0 F6000 X107.834 Y120.703
;TYPE:WALL-OUTER
G1 F1200 X107.304 Y120.732 E16.79409
G1 X106.829 Y120.539 E16.81114
G1 X106.474 Y120.173 E16.8281
G1 X106.354 Y119.898 E16.83808
G1 X106.306 Y119.434 E16.8536
G1 X106.362 Y119.152 E16.86316
G1 X106.602 Y118.753 E16.87865
G1 X106.831 Y118.542 E16.889
G1 X107.306 Y118.356 E16.90597
G1 X107.824 Y118.388 E16.92323
G1 X108.279 Y118.626 E16.94031
G1 X108.58 Y119.019 E16.95677
G1 X108.673 Y119.288 E16.96624
G1 X108.676 Y119.784 E16.98274
G1 X108.583 Y120.063 E16.99252
G1 X108.285 Y120.458 E17.00898
G1 X107.834 Y120.703 E17.02605
G1 F2700 E12.02605
G0 F6000 X107.974 Y120.966
G0 X107.167 Y121.294
G0 X103.3 Y123.801
G0 X103.32 Y128.901
;TYPE:WALL-INNER
G1 F2700 E17.02605
G1 F1200 X103.46 Y128.944 E17.03092
G1 X131.54 Y128.943 E17.96486
G1 X131.68 Y128.901 E17.96972
G1 X131.857 Y128.723 E17.97807
G1 X131.9 Y128.583 E17.98294
G1 X131.9 Y110.549 E18.58276
G1 X131.873 Y110.417 E18.58724
G1 X131.774 Y110.27 E18.59313
G1 X131.54 Y110.144 E18.60197
G1 X103.46 Y110.144 E19.53592
G1 X103.226 Y110.27 E19.54476
G1 X103.1 Y110.504 E19.5536
G1 X103.1 Y128.583 E20.15491
G1 X103.143 Y128.723 E20.15978
G1 X103.32 Y128.901 E20.16813
G0 F6000 X103.108 Y129.255
;TYPE:WALL-OUTER
G1 F1200 X103.401 Y129.344 E20.17831
G1 X131.599 Y129.343 E21.11618
G1 X131.892 Y129.255 E21.12636
G1 X132.211 Y128.935 E21.14138
G1 X132.3 Y128.643 E21.15154
G1 X132.3 Y110.549 E21.75335
G1 X132.239 Y110.244 E21.76369
G1 X132.062 Y109.982 E21.77421
G1 X131.8 Y109.805 E21.78472
G1 X131.599 Y109.744 E21.79171
G1 X103.401 Y109.744 E22.72958
G1 X103.2 Y109.805 E22.73657
G1 X102.938 Y109.982 E22.74708
G1 X102.761 Y110.244 E22.7576
G1 X102.7 Y110.445 E22.76459
G1 X102.7 Y128.643 E23.36985
G1 X102.789 Y128.935 E23.38001
G1 X103.108 Y129.255 E23.39503
G1 F2700 E18.39503
G0 F6000 X103.419 Y128.827
G0 X123.177 Y129.124
G0 X122.733 Y121.31
G0 X122.952 Y121.094
;TYPE:WALL-INNER
G1 F2700 E23.39503
G1 F1200 X122.23 Y121.137 E23.41909
G1 X121.598 Y120.874 E23.44186
G1 X121.159 Y120.424 E23.46277
G1 X120.971 Y120.039 E23.47702
G1 X120.9 Y119.41 E23.49807
G1 X120.988 Y118.997 E23.51212
G1 X121.311 Y118.46 E23.53296
G1 X121.648 Y118.184 E23.54745
G1 X122.238 Y117.95 E23.56856
G1 X122.934 Y117.988 E23.59174
G1 X123.533 Y118.305 E23.61428
G1 X123.943 Y118.83 E23.63644
G1 X124.078 Y119.258 E23.65136
G1 X124.078 Y119.759 E23.66803
G1 X124.069 Y119.863 E23.6715
G1 X123.948 Y120.248 E23.68492
G1 X123.534 Y120.782 E23.7074
G1 X122.952 Y121.094 E23.72936
G0 F6000 X122.833 Y120.703
;TYPE:WALL-OUTER
G1 F1200 X122.301 Y120.729 E23.74707
G1 X121.82 Y120.538 E23.76429
G1 X121.476 Y120.171 E23.78102
G1 X121.361 Y119.925 E23.79005
G1 X121.307 Y119.41 E23.80727
G1 X121.363 Y119.157 E23.81589
G1 X121.62 Y118.728 E23.83252
G1 X121.835 Y118.543 E23.84196
G1 X122.303 Y118.359 E23.85868
G1 X122.824 Y118.388 E23.87604
G1 X123.281 Y118.628 E23.89321
G1 X123.58 Y119.02 E23.90961
G1 X123.675 Y119.295 E23.91928
G1 X123.675 Y119.794 E23.93588
G1 X123.584 Y120.061 E23.94526
G1 X123.277 Y120.465 E23.96214
G1 X122.833 Y120.703 E23.97889
G0 F6000 X122.973 Y120.966
G0 X122.008 Y121.156
G0 X122.17 Y121.496
;TYPE:SKIN
G1 F1200 X121.477 Y121.218 E24.00373
G1 X121.29 Y121.085 E24.01136
G1 X120.834 Y120.605 E24.03338
G1 X120.617 Y120.114 E24.05124
G1 X120.535 Y119.397 E24.07524
G1 X120.644 Y118.872 E24.09307
G1 X121.008 Y118.266 E24.11658
G1 X121.411 Y117.892 E24.13487
G1 X122.174 Y117.592 E24.16214
G1 X123.037 Y117.638 E24.19088
G1 X123.771 Y118.026 E24.2185
G1 X124.237 Y118.625 E24.24374
G1 X124.435 Y119.153 E24.2625
G1 X124.436 Y119.888 E24.28694
G1 X124.274 Y120.416 E24.30531
G1 X123.783 Y121.052 E24.33203
G1 X123.161 Y121.39 E24.35558
G1 X122.93 Y121.459 E24.3636
G1 X122.17 Y121.496 E24.38891
G1 F2700 E19.38891
G0 F6000 X122.008 Y121.156
G0 X121.077 Y120.597
G0 X108.769 Y120.781
G0 X107.163 Y121.495
G1 F2700 E24.38891
G1 F1200 X106.388 Y121.187 E24.41664
G1 X105.945 Y120.721 E24.43803
G1 X105.763 Y120.448 E24.44894
G1 X105.604 Y120.027 E24.46391
G1 X105.543 Y119.435 E24.4837
G1 X105.621 Y118.988 E24.4988
G1 X105.729 Y118.728 E24.50816
G1 X105.946 Y118.368 E24.52214
G1 X106.215 Y118.042 E24.5362
G1 X106.56 Y117.833 E24.54961
G1 X107.05 Y117.636 E24.56718
G1 X107.27 Y117.598 E24.5746
G1 X108.032 Y117.637 E24.59998
G1 X108.764 Y118.024 E24.62752
G1 X109.255 Y118.643 E24.6538
G1 X109.429 Y119.141 E24.67135
G1 X109.439 Y119.903 E24.69669
G1 X109.263 Y120.428 E24.71511
G1 X108.787 Y121.048 E24.74111
G1 X108.166 Y121.387 E24.76464
G1 X107.93 Y121.459 E24.77284
G1 X107.163 Y121.495 E24.79838
G1 F2700 E19.79838
G0 F6000 X107.009 Y121.156
G0 X106.649 Y121.097
G0 X103.3 Y123.801
G0 X103.513 Y128.583
G1 F2700 E24.79838
G1 F1200 X131.486 Y128.583 E25.72877
G1 X131.54 Y128.53 E25.73129
G1 X131.54 Y110.607 E26.32741
G1 X131.464 Y110.504 E26.33166
G1 X103.536 Y110.504 E27.26055
G1 X103.46 Y110.579 E27.2641
G1 X103.46 Y128.526 E27.86102
G1 X103.513 Y128.583 E27.86361
G0 F6000 X104.057 Y128.382
G1 F1200 X103.66 Y127.984 E27.88231
G0 F6000 X103.66 Y127.419
G1 F1200 X104.623 Y128.382 E27.92761
G0 F6000 X105.189 Y128.382
G1 F1200 X103.66 Y126.853 E27.99953
G0 F6000 X103.66 Y126.287
G1 F1200 X105.754 Y128.382 E28.09805
G0 F6000 X106.32 Y128.382
G1 F1200 X103.66 Y125.722 E28.22316
G0 F6000 X103.66 Y125.156
G1 F1200 X106.886 Y128.382 E28.3749
G0 F6000 X107.451 Y128.382
G1 F1200 X103.66 Y124.59 E28.55325
G0 F6000 X103.66 Y124.025
