;FLAVOR:Marlin
;TIME:830
;Filament used: 0.416954m
;Layer height: 0.2
;MINX:90.535
;MINY:87.124
;MINZ:0.2
;MAXX:147.759
;MAXY:144.343
;MAXZ:7
;Generated with Cura_SteamEngine main
M140 S50
M105
M190 S50
M104 S200
M105
M109 S200
M82 ;absolute extrusion mode
; Ender 3 Custom Start G-code
G92 E0 ; Reset Extruder
G28 ; Home all axes
G1 Z2.0 F3000 ; Move Z Axis up little to prevent scratching of Heat Bed
G1 X0.1 Y20 Z0.3 F5000.0 ; Move to start position
G1 X0.1 Y200.0 Z0.3 F1500.0 E15 ; Draw the first line
G1 X0.4 Y200.0 Z0.3 F5000.0 ; Move to side a little
G1 X0.4 Y20 Z0.3 F1500.0 E30 ; Draw the second line
G92 E0 ; Reset Extruder
G1 Z2.0 F3000 ; Move Z Axis up little to prevent scratching of Heat Bed
G1 X5 Y20 Z0.3 F5000.0 ; Move over to prevent blob squish
G92 E0
G92 E0
G1 F2700 E-5
;LAYER_COUNT:35
;LAYER:0
M107
G0 F6000 X94.64 Y92.198 Z0.2
G0 X90.535 Y101.864
;TYPE:SKIRT
G1 F2700 E0
G1 F1200 X90.597 Y100.85 E0.03379
G1 X90.651 Y100.346 E0.05065
G1 X90.79 Y99.419 E0.08182
G1 X90.997 Y98.546 E0.11167
G1 X91.116 Y98.122 E0.12631
G1 X91.408 Y97.23 E0.15753
G1 X91.653 Y96.631 E0.17906
G1 X91.847 Y96.194 E0.19496
G1 X92.264 Y95.354 E0.22615
G1 X92.736 Y94.574 E0.25647
G1 X93.044 Y94.11 E0.275
G1 X93.596 Y93.351 E0.30621
G1 X94.323 Y92.524 E0.34283
G1 X94.64 Y92.198 E0.35796
G1 X95.322 Y91.555 E0.38913
G1 X95.824 Y91.145 E0.41069
G1 X96.204 Y90.853 E0.42663
G1 X96.971 Y90.313 E0.45783
G1 X97.756 Y89.855 E0.48806
G1 X98.243 Y89.597 E0.50639
G1 X99.09 Y89.193 E0.5376
G1 X100.116 Y88.816 E0.57395
G1 X100.539 Y88.684 E0.58869
G1 X101.773 Y88.376 E0.631
G1 X102.493 Y88.253 E0.65529
G1 X102.779 Y88.213 E0.66489
G1 X103.713 Y88.123 E0.6961
G1 X104.389 Y88.107 E0.71859
G1 X104.902 Y88.111 E0.73566
G1 X105.809 Y88.156 E0.76586
G1 X108.339 Y88.385 E0.85035
G1 X110.809 Y88.54 E0.93267
G1 X113.366 Y88.628 E1.01776
G1 X115.89 Y88.643 E1.10171
G1 X118.37 Y88.588 E1.18422
G1 X120.915 Y88.458 E1.26898
G1 X123.398 Y88.263 E1.35182
G1 X125.937 Y87.989 E1.43675
G1 X128.412 Y87.652 E1.51983
G1 X130.561 Y87.303 E1.59224
G1 X131.491 Y87.193 E1.62339
G1 X131.992 Y87.155 E1.6401
G1 X132.929 Y87.124 E1.67128
G1 X133.837 Y87.17 E1.70152
G1 X134.356 Y87.218 E1.71886
G1 X135.285 Y87.344 E1.75004
G1 X136.258 Y87.564 E1.78322
G1 X136.702 Y87.686 E1.79853
G1 X137.594 Y87.973 E1.8297
G1 X138.292 Y88.258 E1.85478
G1 X138.742 Y88.46 E1.87118
G1 X139.58 Y88.88 E1.90236
G1 X140.325 Y89.333 E1.93136
G1 X140.775 Y89.632 E1.94933
G1 X141.533 Y90.184 E1.98052
G1 X142.356 Y90.908 E2.01697
G1 X142.682 Y91.225 E2.0321
G1 X143.325 Y91.907 E2.06327
G1 X143.735 Y92.408 E2.08481
G1 X144.057 Y92.827 E2.10238
G1 X144.596 Y93.595 E2.13359
G1 X145.124 Y94.512 E2.16878
G1 X145.326 Y94.906 E2.18351
G1 X145.717 Y95.758 E2.21469
G1 X145.952 Y96.384 E2.23693
G1 X146.124 Y96.89 E2.2547
G1 X146.387 Y97.79 E2.28589
G1 X146.593 Y98.834 E2.32128
G1 X146.659 Y99.284 E2.33641
G1 X146.773 Y100.675 E2.38283
G1 X146.776 Y101.364 E2.40575
G1 X146.769 Y101.65 E2.41526
G1 X146.726 Y102.386 E2.43978
G1 X146.518 Y104.649 E2.51537
G1 X146.351 Y107.212 E2.60079
G1 X146.26 Y109.673 E2.6827
G1 X146.237 Y112.227 E2.76765
G1 X146.287 Y114.757 E2.85182
G1 X146.406 Y117.24 E2.9345
G1 X146.598 Y119.754 E3.01836
G1 X146.86 Y122.253 E3.10193
G1 X147.195 Y124.755 E3.18589
G1 X147.583 Y127.172 E3.26731
G1 X147.69 Y128.074 E3.29752
G1 X147.727 Y128.555 E3.31356
G1 X147.759 Y129.493 E3.34478
G1 X147.715 Y130.38 E3.37432
G1 X147.667 Y130.916 E3.39222
G1 X147.544 Y131.846 E3.42342
G1 X147.309 Y132.88 E3.45869
G1 X147.187 Y133.319 E3.47384
G1 X146.898 Y134.211 E3.50503
G1 X146.633 Y134.86 E3.52834
G1 X146.432 Y135.31 E3.54473
G1 X146.013 Y136.149 E3.57593
G1 X145.558 Y136.9 E3.60513
G1 X145.289 Y137.306 E3.62133
G1 X144.738 Y138.065 E3.65253
G1 X144.323 Y138.557 E3.67393
G1 X143.865 Y139.055 E3.69644
G1 X143.658 Y139.268 E3.70632
G1 X142.977 Y139.912 E3.73749
G1 X142.468 Y140.328 E3.75935
G1 X142.085 Y140.622 E3.77541
G1 X141.317 Y141.16 E3.8066
G1 X140.507 Y141.632 E3.83778
G1 X140.062 Y141.866 E3.8545
G1 X139.214 Y142.267 E3.8857
G1 X138.427 Y142.563 E3.91367
G1 X137.957 Y142.72 E3.93015
G1 X137.056 Y142.979 E3.96133
G1 X136.174 Y143.155 E3.99124
G1 X135.695 Y143.23 E4.00737
G1 X134.763 Y143.335 E4.03857
G1 X133.907 Y143.362 E4.06705
G1 X133.393 Y143.358 E4.08415
G1 X132.483 Y143.313 E4.11445
G1 X129.963 Y143.084 E4.19861
G1 X127.505 Y142.93 E4.28052
G1 X124.946 Y142.842 E4.36569
G1 X122.42 Y142.826 E4.4497
G1 X119.927 Y142.881 E4.53264
G1 X117.42 Y143.007 E4.61613
G1 X114.889 Y143.208 E4.70058
G1 X112.393 Y143.476 E4.78407
G1 X109.894 Y143.816 E4.86795
G1 X107.658 Y144.178 E4.94329
G1 X106.596 Y144.297 E4.97884
G1 X106.169 Y144.324 E4.99307
G1 X105.231 Y144.343 E5.02427
G1 X104.485 Y144.301 E5.04912
G1 X103.965 Y144.254 E5.06649
G1 X103.035 Y144.13 E5.09769
G1 X102.026 Y143.902 E5.1321
G1 X101.541 Y143.768 E5.14883
G1 X100.648 Y143.48 E5.18004
G1 X99.833 Y143.14 E5.20941
G1 X99.42 Y142.948 E5.22456
G1 X98.587 Y142.517 E5.25576
G1 X97.965 Y142.132 E5.28009
G1 X97.517 Y141.834 E5.29798
G1 X96.759 Y141.282 E5.32917
G1 X95.951 Y140.571 E5.36497
G1 X95.619 Y140.249 E5.38035
G1 X94.974 Y139.568 E5.41155
G1 X94.548 Y139.047 E5.43393
G1 X94.229 Y138.631 E5.45137
G1 X93.691 Y137.863 E5.48255
G1 X93.137 Y136.892 E5.51974
G1 X92.914 Y136.45 E5.5362
G1 X92.528 Y135.595 E5.5674
G1 X92.27 Y134.885 E5.59253
G1 X92.132 Y134.459 E5.60742
G1 X91.882 Y133.555 E5.63862
G1 X91.732 Y132.787 E5.66465
G1 X91.655 Y132.3 E5.68104
G1 X91.548 Y131.368 E5.71225
G1 X91.52 Y130.515 E5.74063
G1 X91.523 Y130.02 E5.7571
G1 X91.568 Y129.097 E5.78783
G1 X91.796 Y126.573 E5.87212
G1 X91.954 Y124.04 E5.95653
G1 X92.041 Y121.507 E6.04083
G1 X92.056 Y118.988 E6.12462
G1 X92 Y116.493 E6.20762
G1 X91.872 Y113.975 E6.29148
G1 X91.674 Y111.465 E6.37522
G1 X91.401 Y108.935 E6.45986
G1 X91.064 Y106.458 E6.543
G1 X90.712 Y104.291 E6.61602
G1 X90.598 Y103.308 E6.64893
G1 X90.562 Y102.801 E6.66584
G1 X90.535 Y101.864 E6.69702
G0 F6000 X90.935 Y101.852
G1 F1200 X90.994 Y100.893 E6.72897
G1 X91.048 Y100.389 E6.74583
G1 X91.186 Y99.478 E6.77648
G1 X91.382 Y98.654 E6.80465
G1 X91.501 Y98.23 E6.8193
G1 X91.788 Y97.355 E6.84993
G1 X92.019 Y96.793 E6.87013
G1 X92.213 Y96.356 E6.88604
G1 X92.623 Y95.532 E6.91665
G1 X93.07 Y94.795 E6.94532
G1 X93.378 Y94.331 E6.96384
G1 X93.92 Y93.587 E6.99446
G1 X94.61 Y92.803 E7.02919
G1 X94.927 Y92.477 E7.04432
G1 X95.596 Y91.846 E7.0749
G1 X96.067 Y91.462 E7.09512
G1 X96.447 Y91.17 E7.11106
G1 X97.201 Y90.641 E7.14169
G1 X97.944 Y90.208 E7.17029
G1 X98.431 Y89.95 E7.18862
G1 X99.262 Y89.555 E7.21923
G1 X100.235 Y89.198 E7.2537
G1 X100.658 Y89.066 E7.26844
G1 X101.847 Y88.769 E7.3092
G1 X102.549 Y88.649 E7.33288
G1 X102.835 Y88.609 E7.34249
G1 X103.751 Y88.521 E7.3731
G1 X104.386 Y88.507 E7.39422
G1 X104.899 Y88.511 E7.41128
G1 X105.773 Y88.554 E7.44039
G1 X108.314 Y88.784 E7.52525
G1 X110.805 Y88.941 E7.60826
G1 X113.351 Y89.028 E7.69299
G1 X115.897 Y89.043 E7.77768
G1 X118.398 Y88.987 E7.86088
G1 X120.93 Y88.858 E7.9452
G1 X123.439 Y88.661 E8.02891
G1 X125.962 Y88.389 E8.11331
G1 X128.49 Y88.044 E8.19817
G1 X130.625 Y87.698 E8.27011
G1 X131.521 Y87.591 E8.30012
G1 X132.022 Y87.553 E8.31683
G1 X132.942 Y87.524 E8.34745
G1 X133.8 Y87.568 E8.37602
G1 X134.319 Y87.616 E8.39336
G1 X135.231 Y87.741 E8.42398
G1 X136.152 Y87.95 E8.45539
G1 X136.596 Y88.072 E8.4707
G1 X137.472 Y88.354 E8.50131
G1 X138.128 Y88.623 E8.52489
G1 X138.578 Y88.825 E8.5413
G1 X139.401 Y89.238 E8.57192
G1 X140.103 Y89.666 E8.59927
G1 X140.553 Y89.965 E8.61724
G1 X141.297 Y90.508 E8.64787
G1 X142.077 Y91.195 E8.68245
G1 X142.403 Y91.512 E8.69757
G1 X143.034 Y92.181 E8.72816
G1 X143.418 Y92.652 E8.74837
G1 X143.74 Y93.071 E8.76594
G1 X144.269 Y93.825 E8.79658
G1 X144.768 Y94.694 E8.82991
G1 X144.97 Y95.088 E8.84463
G1 X145.354 Y95.925 E8.87526
G1 X145.573 Y96.513 E8.89613
G1 X145.745 Y97.019 E8.91391
G1 X146.003 Y97.902 E8.9445
G1 X146.197 Y98.892 E8.97806
G1 X146.263 Y99.342 E8.99319
G1 X146.373 Y100.683 E9.03794
G1 X146.376 Y101.354 E9.06026
G1 X146.369 Y101.64 E9.06977
G1 X146.328 Y102.349 E9.09339
G1 X146.119 Y104.623 E9.16934
G1 X145.953 Y107.171 E9.25427
G1 X145.86 Y109.69 E9.33811
G1 X145.837 Y112.232 E9.42266
G1 X145.887 Y114.748 E9.50636
G1 X146.008 Y117.289 E9.59097
G1 X146.199 Y119.789 E9.67436
G1 X146.464 Y122.315 E9.75884
G1 X146.796 Y124.799 E9.84219
G1 X147.188 Y127.236 E9.92429
G1 X147.291 Y128.105 E9.95339
G1 X147.328 Y128.586 E9.96944
G1 X147.358 Y129.506 E10.00005
G1 X147.317 Y130.344 E10.02796
G1 X147.269 Y130.88 E10.04586
G1 X147.147 Y131.793 E10.07649
G1 X146.924 Y132.773 E10.10992
G1 X146.802 Y133.212 E10.12508
G1 X146.517 Y134.088 E10.15572
G1 X146.267 Y134.697 E10.17761
G1 X146.066 Y135.147 E10.194
G1 X145.655 Y135.971 E10.22463
G1 X145.224 Y136.679 E10.2522
G1 X144.955 Y137.085 E10.2684
G1 X144.414 Y137.829 E10.29899
G1 X144.025 Y138.291 E10.31908
G1 X143.579 Y138.777 E10.34102
G1 X143.372 Y138.99 E10.3509
G1 X142.702 Y139.621 E10.38151
G1 X142.224 Y140.01 E10.40201
G1 X141.841 Y140.304 E10.41807
G1 X141.087 Y140.833 E10.4487
G1 X140.32 Y141.278 E10.4782
G1 X139.875 Y141.512 E10.49492
G1 X139.043 Y141.905 E10.52552
G1 X138.3 Y142.184 E10.55192
G1 X137.83 Y142.341 E10.5684
G1 X136.945 Y142.594 E10.59901
G1 X136.112 Y142.759 E10.62726
G1 X135.633 Y142.834 E10.64338
G1 X134.718 Y142.937 E10.67401
G1 X133.911 Y142.962 E10.70086
G1 X133.397 Y142.958 E10.71796
G1 X132.519 Y142.914 E10.7472
G1 X130.023 Y142.687 E10.83056
G1 X127.508 Y142.529 E10.91437
G1 X124.962 Y142.442 E10.9991
G1 X122.414 Y142.426 E11.08385
G1 X119.934 Y142.481 E11.16636
G1 X117.37 Y142.61 E11.25174
G1 X114.848 Y142.809 E11.33589
G1 X112.367 Y143.076 E11.41888
G1 X109.816 Y143.424 E11.50451
G1 X107.594 Y143.783 E11.57938
G1 X106.571 Y143.898 E11.61362
G1 X106.144 Y143.925 E11.62785
G1 X105.223 Y143.943 E11.65848
G1 X104.521 Y143.903 E11.68187
G1 X104.001 Y143.856 E11.69924
G1 X103.088 Y143.733 E11.72988
G1 X102.132 Y143.516 E11.76248
G1 X101.647 Y143.382 E11.77922
G1 X100.771 Y143.099 E11.80984
G1 X100.001 Y142.777 E11.8376
G1 X99.588 Y142.585 E11.85274
G1 X98.771 Y142.161 E11.88336
G1 X98.186 Y141.799 E11.90624
G1 X97.738 Y141.501 E11.92414
G1 X96.995 Y140.958 E11.95474
G1 X96.229 Y140.284 E11.98868
G1 X95.897 Y139.962 E12.00406
G1 X95.265 Y139.293 E12.03467
G1 X94.865 Y138.803 E12.05571
G1 X94.546 Y138.387 E12.07315
G1 X94.018 Y137.633 E12.10376
G1 X93.494 Y136.712 E12.13901
G1 X93.271 Y136.27 E12.15547
G1 X92.893 Y135.43 E12.18611
G1 X92.651 Y134.762 E12.20974
G1 X92.513 Y134.336 E12.22463
G1 X92.267 Y133.448 E12.25528
G1 X92.127 Y132.724 E12.27981
G1 X92.05 Y132.237 E12.29621
G1 X91.946 Y131.323 E12.3268
G1 X91.92 Y130.518 E12.35359
G1 X91.923 Y130.023 E12.37005
G1 X91.966 Y129.133 E12.39969
G1 X92.198 Y126.565 E12.48545
G1 X92.353 Y124.077 E12.56836
G1 X92.441 Y121.523 E12.65336
G1 X92.456 Y118.981 E12.73791
G1 X92.399 Y116.464 E12.82165
G1 X92.272 Y113.957 E12.90514
G1 X92.072 Y111.427 E12.98955
G1 X91.801 Y108.909 E13.07378
G1 X91.456 Y106.374 E13.15887
G1 X91.107 Y104.226 E13.23125
G1 X90.997 Y103.28 E13.26293
G1 X90.961 Y102.773 E13.27983
G1 X90.935 Y101.852 E13.31048
G0 F6000 X91.336 Y101.842
G1 F1200 X91.392 Y100.935 E13.3407
G1 X91.446 Y100.431 E13.35756
G1 X91.582 Y99.539 E13.38757
G1 X91.767 Y98.762 E13.41414
G1 X91.886 Y98.338 E13.42878
G1 X92.169 Y97.48 E13.45883
G1 X92.384 Y96.955 E13.4777
G1 X92.578 Y96.518 E13.4936
G1 X92.981 Y95.71 E13.52364
G1 X93.403 Y95.016 E13.55065
G1 X93.711 Y94.552 E13.56917
G1 X94.243 Y93.822 E13.59922
G1 X94.896 Y93.082 E13.63204
G1 X95.213 Y92.756 E13.64717
G1 X95.871 Y92.137 E13.67721
G1 X96.311 Y91.779 E13.69608
G1 X96.691 Y91.487 E13.71202
G1 X97.431 Y90.969 E13.74206
G1 X98.131 Y90.562 E13.76899
G1 X98.618 Y90.304 E13.78732
G1 X99.434 Y89.917 E13.81736
G1 X100.355 Y89.58 E13.84998
G1 X100.778 Y89.448 E13.86472
G1 X101.921 Y89.163 E13.9039
G1 X102.604 Y89.045 E13.92695
G1 X102.89 Y89.005 E13.93656
G1 X103.789 Y88.92 E13.96659
G1 X104.383 Y88.907 E13.98635
G1 X104.896 Y88.911 E14.00342
G1 X105.737 Y88.953 E14.03142
G1 X108.254 Y89.181 E14.11548
G1 X110.802 Y89.341 E14.2004
G1 X113.334 Y89.428 E14.28466
G1 X115.903 Y89.443 E14.37011
G1 X118.392 Y89.388 E14.45291
G1 X120.948 Y89.257 E14.53804
G1 X123.512 Y89.056 E14.62358
G1 X125.988 Y88.789 E14.70641
G1 X128.568 Y88.437 E14.79301
G1 X130.689 Y88.093 E14.86448
G1 X131.552 Y87.99 E14.89339
G1 X132.053 Y87.952 E14.9101
G1 X132.955 Y87.924 E14.94011
G1 X133.763 Y87.966 E14.96702
G1 X134.282 Y88.014 E14.98436
G1 X135.177 Y88.137 E15.01441
G1 X136.046 Y88.336 E15.04406
G1 X136.49 Y88.458 E15.05937
G1 X137.349 Y88.735 E15.08939
G1 X137.964 Y88.988 E15.11151
G1 X138.414 Y89.19 E15.12791
G1 X139.221 Y89.595 E15.15795
G1 X139.882 Y89.999 E15.18371
G1 X140.332 Y90.298 E15.20168
G1 X141.061 Y90.831 E15.23172
G1 X141.798 Y91.481 E15.2644
G1 X142.124 Y91.798 E15.27953
G1 X142.743 Y92.456 E15.30957
G1 X143.101 Y92.896 E15.32844
G1 X143.423 Y93.315 E15.34602
G1 X143.941 Y94.054 E15.37603
G1 X144.412 Y94.877 E15.40757
G1 X144.614 Y95.271 E15.4223
G1 X144.99 Y96.092 E15.45233
G1 X145.194 Y96.641 E15.47181
G1 X145.366 Y97.147 E15.48959
G1 X145.619 Y98.014 E15.51963
G1 X145.801 Y98.95 E15.55134
G1 X145.867 Y99.4 E15.56647
G1 X145.973 Y100.69 E15.60952
G1 X145.976 Y101.345 E15.6313
G1 X145.969 Y101.631 E15.64082
G1 X145.929 Y102.313 E15.66354
G1 X145.719 Y104.6 E15.73993
G1 X145.554 Y107.131 E15.82429
G1 X145.46 Y109.672 E15.90886
G1 X145.437 Y112.236 E15.99414
G1 X145.487 Y114.775 E16.0786
G1 X145.608 Y117.305 E16.16285
G1 X145.801 Y119.826 E16.24694
G1 X146.064 Y122.339 E16.33098
G1 X146.403 Y124.875 E16.41608
G1 X146.793 Y127.299 E16.49774
G1 X146.892 Y128.136 E16.52577
G1 X146.929 Y128.617 E16.54182
G1 X146.958 Y129.519 E16.57183
G1 X146.918 Y130.309 E16.59814
G1 X146.87 Y130.845 E16.61604
G1 X146.75 Y131.74 E16.64608
G1 X146.539 Y132.666 E16.67766
G1 X146.417 Y133.105 E16.69282
G1 X146.136 Y133.964 E16.72288
G1 X145.902 Y134.534 E16.74337
G1 X145.701 Y134.984 E16.75977
G1 X145.297 Y135.791 E16.78978
G1 X144.891 Y136.458 E16.81575
G1 X144.622 Y136.864 E16.83195
G1 X144.09 Y137.594 E16.86199
G1 X143.727 Y138.024 E16.88071
G1 X143.292 Y138.498 E16.90211
G1 X143.085 Y138.711 E16.91199
G1 X142.427 Y139.33 E16.94204
G1 X141.981 Y139.693 E16.96116
G1 X141.598 Y139.987 E16.97722
G1 X140.858 Y140.505 E17.00726
G1 X140.134 Y140.924 E17.03509
G1 X139.689 Y141.158 E17.05181
G1 X138.872 Y141.542 E17.08183
G1 X138.174 Y141.805 E17.10664
G1 X137.704 Y141.962 E17.12312
G1 X136.835 Y142.209 E17.15317
G1 X136.05 Y142.364 E17.17979
G1 X135.571 Y142.439 E17.19591
G1 X134.673 Y142.539 E17.22596
G1 X133.914 Y142.562 E17.25122
G1 X133.4 Y142.558 E17.26832
G1 X132.556 Y142.516 E17.29642
G1 X130.051 Y142.288 E17.38008
G1 X127.512 Y142.129 E17.4647
G1 X124.978 Y142.042 E17.54903
G1 X122.407 Y142.026 E17.63454
G1 X119.906 Y142.082 E17.71774
G1 X117.352 Y142.21 E17.8028
G1 X114.845 Y142.408 E17.88644
G1 X112.307 Y142.681 E17.97134
G1 X109.738 Y143.031 E18.05758
G1 X107.53 Y143.388 E18.13197
G1 X106.546 Y143.499 E18.1649
G1 X106.119 Y143.526 E18.17913
G1 X105.216 Y143.543 E18.20917
G1 X104.557 Y143.505 E18.23113
G1 X104.037 Y143.458 E18.24849
G1 X103.142 Y143.337 E18.27853
G1 X102.239 Y143.131 E18.30934
G1 X101.754 Y142.997 E18.32607
G1 X100.895 Y142.718 E18.35611
G1 X100.17 Y142.414 E18.38226
G1 X99.757 Y142.222 E18.39741
G1 X98.956 Y141.806 E18.42743
G1 X98.408 Y141.466 E18.44888
G1 X97.96 Y141.168 E18.46677
G1 X97.231 Y140.635 E18.49681
G1 X96.508 Y139.997 E18.52888
G1 X96.176 Y139.675 E18.54426
G1 X95.556 Y139.018 E18.57431
G1 X95.183 Y138.56 E18.59396
