;FLAVOR:Marlin
;TIME:412
;Filament used: 0.202626m
;Layer height: 0.2
;MINX:100.086
;MINY:100.084
;MINZ:0.2
;MAXX:134.916
;MAXY:134.914
;MAXZ:5.6
;Generated with Cura_SteamEngine main
M140 S50
M105
M190 S50
M104 S200
M105
M109 S200
M82 ;absolute extrusion mode
; Ender 3 Custom Start G-code
G92 E0 ; Reset Extruder
G28 ; Home all axes
G1 Z2.0 F3000 ; Move Z Axis up little to prevent scratching of Heat Bed
G1 X0.1 Y20 Z0.3 F5000.0 ; Move to start position
G1 X0.1 Y200.0 Z0.3 F1500.0 E15 ; Draw the first line
G1 X0.4 Y200.0 Z0.3 F5000.0 ; Move to side a little
G1 X0.4 Y20 Z0.3 F1500.0 E30 ; Draw the second line
G92 E0 ; Reset Extruder
G1 Z2.0 F3000 ; Move Z Axis up little to prevent scratching of Heat Bed
G1 X5 Y20 Z0.3 F5000.0 ; Move over to prevent blob squish
G92 E0
G92 E0
G1 F2700 E-5
;LAYER_COUNT:28
;LAYER:0
M107
G0 F6000 X105.252 Y105.12 Z0.2
G0 X100.086 Y117.481
;TYPE:SKIRT
G1 F2700 E0
G1 F1200 X100.092 Y117.029 E0.01503
G1 X100.135 Y116.164 E0.04384
G1 X100.201 Y115.504 E0.0659
G1 X100.267 Y115 E0.08281
G1 X100.376 Y114.328 E0.10545
G1 X100.446 Y113.968 E0.11765
G1 X100.606 Y113.269 E0.1415
G1 X100.711 Y112.87 E0.15522
G1 X100.89 Y112.26 E0.17637
G1 X100.978 Y111.99 E0.18581
G1 X101.198 Y111.38 E0.20738
G1 X101.397 Y110.873 E0.22549
G1 X101.657 Y110.264 E0.24752
G1 X101.766 Y110.029 E0.25613
G1 X102.066 Y109.43 E0.27842
G1 X102.275 Y109.043 E0.29304
G1 X102.6 Y108.482 E0.31461
G1 X102.785 Y108.183 E0.3263
G1 X103.201 Y107.559 E0.35125
G1 X103.503 Y107.138 E0.36848
G1 X103.935 Y106.575 E0.39208
G1 X104.131 Y106.336 E0.40236
G1 X104.513 Y105.895 E0.42177
G1 X104.754 Y105.631 E0.43366
G1 X105.252 Y105.12 E0.45739
G1 X105.7 Y104.689 E0.47807
G1 X106.698 Y103.837 E0.52171
G1 X107.204 Y103.455 E0.5428
G1 X107.766 Y103.058 E0.56568
G1 X108.061 Y102.863 E0.57744
G1 X108.614 Y102.52 E0.59909
G1 X108.93 Y102.337 E0.61123
G1 X109.512 Y102.023 E0.63323
G1 X109.863 Y101.847 E0.64629
G1 X110.467 Y101.567 E0.66843
G1 X110.869 Y101.395 E0.68297
G1 X111.506 Y101.145 E0.70573
G1 X111.784 Y101.046 E0.71555
G1 X112.447 Y100.834 E0.7387
G1 X112.95 Y100.69 E0.7561
G1 X113.548 Y100.537 E0.77663
G1 X113.813 Y100.477 E0.78567
G1 X114.473 Y100.348 E0.80804
G1 X114.921 Y100.275 E0.82313
G1 X115.62 Y100.184 E0.84658
G1 X115.978 Y100.149 E0.85854
G1 X116.646 Y100.104 E0.88081
G1 X117.084 Y100.088 E0.89539
G1 X117.762 Y100.084 E0.91794
G1 X118.121 Y100.093 E0.92988
G1 X118.72 Y100.125 E0.94983
G1 X119.046 Y100.151 E0.96071
G1 X119.698 Y100.223 E0.98253
G1 X120.126 Y100.283 E0.9969
G1 X120.845 Y100.408 E1.02118
G1 X121.286 Y100.5 E1.03616
G1 X121.969 Y100.665 E1.05953
G1 X122.302 Y100.757 E1.07102
G1 X122.92 Y100.948 E1.09253
G1 X123.331 Y101.088 E1.10698
G1 X123.942 Y101.316 E1.12867
G1 X124.209 Y101.425 E1.13826
G1 X124.822 Y101.697 E1.16056
G1 X125.304 Y101.929 E1.17836
G1 X125.956 Y102.271 E1.20284
G1 X126.697 Y102.71 E1.23149
G1 X127.132 Y102.99 E1.2487
G1 X127.684 Y103.371 E1.271
G1 X127.958 Y103.572 E1.28231
G1 X128.455 Y103.958 E1.30324
G1 X128.713 Y104.171 E1.31436
G1 X129.226 Y104.622 E1.33708
G1 X129.584 Y104.957 E1.35339
G1 X130.099 Y105.472 E1.37761
G1 X130.333 Y105.722 E1.389
G1 X130.766 Y106.214 E1.4108
G1 X131.015 Y106.514 E1.42377
G1 X131.43 Y107.046 E1.44621
G1 X131.694 Y107.407 E1.46109
G1 X132.055 Y107.932 E1.48228
G1 X132.221 Y108.189 E1.49245
G1 X132.547 Y108.726 E1.51335
G1 X132.748 Y109.08 E1.52689
G1 X133.096 Y109.746 E1.55188
G1 X133.294 Y110.158 E1.56708
G1 X133.551 Y110.733 E1.58803
G1 X133.675 Y111.034 E1.59886
G1 X133.918 Y111.683 E1.62191
G1 X134.053 Y112.08 E1.63586
G1 X134.262 Y112.767 E1.65974
G1 X134.363 Y113.143 E1.67269
G1 X134.498 Y113.704 E1.69188
G1 X134.576 Y114.07 E1.70433
G1 X134.702 Y114.767 E1.72788
G1 X134.763 Y115.183 E1.74187
G1 X134.841 Y115.863 E1.76463
G1 X134.872 Y116.234 E1.77702
G1 X134.907 Y116.903 E1.7993
G1 X134.916 Y117.303 E1.81261
G1 X134.91 Y117.989 E1.83542
G1 X134.894 Y118.39 E1.84877
G1 X134.853 Y118.995 E1.86894
G1 X134.82 Y119.341 E1.8805
G1 X134.728 Y120.057 E1.90451
G1 X134.663 Y120.458 E1.91802
G1 X134.533 Y121.131 E1.94082
G1 X134.428 Y121.594 E1.95661
G1 X134.205 Y122.434 E1.98552
G1 X133.986 Y123.112 E2.00921
G1 X133.763 Y123.733 E2.03116
G1 X133.272 Y124.888 E2.0729
G1 X132.977 Y125.485 E2.09505
G1 X132.601 Y126.182 E2.12139
G1 X132.473 Y126.4 E2.1298
G1 X132.14 Y126.932 E2.15067
G1 X131.844 Y127.376 E2.16842
G1 X131.452 Y127.925 E2.19086
G1 X131.266 Y128.17 E2.20109
G1 X130.855 Y128.68 E2.22287
G1 X130.608 Y128.968 E2.23549
G1 X130.138 Y129.482 E2.25866
G1 X129.801 Y129.828 E2.27472
G1 X129.245 Y130.367 E2.30048
G1 X128.655 Y130.873 E2.32633
G1 X128.243 Y131.206 E2.34395
G1 X127.682 Y131.63 E2.36734
G1 X127.422 Y131.814 E2.37793
G1 X126.868 Y132.182 E2.40005
G1 X126.536 Y132.388 E2.41305
G1 X125.96 Y132.721 E2.43518
G1 X125.569 Y132.932 E2.44996
G1 X124.95 Y133.242 E2.47298
G1 X124.655 Y133.378 E2.48379
G1 X124.084 Y133.622 E2.50444
G1 X123.673 Y133.784 E2.51913
G1 X123.002 Y134.023 E2.54282
G1 X122.647 Y134.137 E2.55522
G1 X122.069 Y134.306 E2.57525
G1 X121.771 Y134.384 E2.5855
G1 X121.066 Y134.543 E2.60954
G1 X120.526 Y134.647 E2.62783
G1 X119.867 Y134.754 E2.65003
G1 X119.606 Y134.788 E2.65879
G1 X118.976 Y134.852 E2.67985
G1 X118.532 Y134.884 E2.69465
G1 X117.792 Y134.912 E2.71928
G1 X117.363 Y134.914 E2.73355
G1 X116.732 Y134.899 E2.75455
G1 X116.41 Y134.882 E2.76527
G1 X115.746 Y134.826 E2.78743
G1 X115.333 Y134.779 E2.80126
G1 X114.661 Y134.682 E2.82384
G1 X114.271 Y134.613 E2.83701
G1 X113.573 Y134.466 E2.86074
G1 X113.152 Y134.363 E2.87515
G1 X112.546 Y134.196 E2.89606
G1 X112.239 Y134.102 E2.90674
G1 X111.581 Y133.878 E2.92986
G1 X111.143 Y133.713 E2.94543
G1 X110.513 Y133.453 E2.96809
G1 X110.237 Y133.329 E2.97816
G1 X109.656 Y133.047 E2.99964
G1 X109.244 Y132.832 E3.0151
G1 X108.624 Y132.482 E3.03878
G1 X108.265 Y132.264 E3.05274
G1 X107.721 Y131.912 E3.0743
G1 X107.488 Y131.751 E3.08372
G1 X106.956 Y131.359 E3.10569
G1 X106.6 Y131.08 E3.12074
G1 X106.101 Y130.665 E3.14232
G1 X105.8 Y130.399 E3.15568
G1 X105.291 Y129.919 E3.17895
G1 X105.029 Y129.656 E3.1913
G1 X104.577 Y129.175 E3.21326
G1 X104.32 Y128.884 E3.22617
G1 X103.877 Y128.349 E3.24927
G1 X103.644 Y128.049 E3.2619
G1 X103.253 Y127.513 E3.28397
G1 X102.978 Y127.111 E3.30017
G1 X102.507 Y126.363 E3.32957
G1 X102.175 Y125.771 E3.35215
G1 X101.94 Y125.319 E3.36909
G1 X101.654 Y124.725 E3.39102
G1 X101.522 Y124.429 E3.4018
G1 X101.258 Y123.783 E3.42501
G1 X101.11 Y123.385 E3.43913
G1 X100.907 Y122.788 E3.4601
G1 X100.81 Y122.473 E3.47107
G1 X100.632 Y121.825 E3.49342
G1 X100.516 Y121.346 E3.50981
G1 X100.371 Y120.649 E3.53349
G1 X100.316 Y120.334 E3.54412
G1 X100.224 Y119.702 E3.56537
G1 X100.178 Y119.303 E3.57872
G1 X100.12 Y118.598 E3.60225
G1 X100.099 Y118.182 E3.61611
G1 X100.086 Y117.481 E3.63942
G0 F6000 X100.486 Y117.486
G1 F1200 X100.492 Y117.034 E3.65446
G1 X100.534 Y116.192 E3.6825
G1 X100.598 Y115.556 E3.70376
G1 X100.664 Y115.052 E3.72067
G1 X100.769 Y114.405 E3.74247
G1 X100.839 Y114.045 E3.75466
G1 X100.993 Y113.37 E3.77769
G1 X101.098 Y112.971 E3.79141
G1 X101.271 Y112.384 E3.81177
G1 X101.359 Y112.114 E3.82121
G1 X101.57 Y111.526 E3.84199
G1 X101.769 Y111.019 E3.86011
G1 X102.02 Y110.432 E3.88134
G1 X102.129 Y110.197 E3.88996
G1 X102.418 Y109.62 E3.91142
G1 X102.627 Y109.233 E3.92605
G1 X102.94 Y108.693 E3.94681
G1 X103.125 Y108.394 E3.9585
G1 X103.526 Y107.792 E3.98256
G1 X103.828 Y107.371 E3.99979
G1 X104.245 Y106.828 E4.02257
G1 X104.441 Y106.589 E4.03285
G1 X104.808 Y106.164 E4.05152
G1 X105.049 Y105.9 E4.06341
G1 X105.529 Y105.408 E4.08627
G1 X105.977 Y104.977 E4.10695
G1 X106.939 Y104.156 E4.14901
G1 X107.445 Y103.774 E4.1701
G1 X107.987 Y103.391 E4.19217
G1 X108.282 Y103.196 E4.20394
G1 X108.815 Y102.866 E4.22479
G1 X109.131 Y102.683 E4.23693
G1 X109.692 Y102.38 E4.25814
G1 X110.043 Y102.204 E4.2712
G1 X110.624 Y101.935 E4.29249
G1 X111.026 Y101.763 E4.30704
G1 X111.64 Y101.522 E4.32897
G1 X111.918 Y101.423 E4.33879
G1 X112.557 Y101.218 E4.36111
G1 X113.06 Y101.074 E4.37851
G1 X113.636 Y100.927 E4.39828
G1 X113.901 Y100.867 E4.40732
G1 X114.537 Y100.743 E4.42887
G1 X114.985 Y100.67 E4.44397
G1 X115.659 Y100.582 E4.46658
G1 X116.017 Y100.547 E4.47854
G1 X116.661 Y100.504 E4.50001
G1 X117.099 Y100.488 E4.51459
G1 X117.752 Y100.484 E4.53631
G1 X118.111 Y100.493 E4.54825
G1 X118.688 Y100.524 E4.56747
G1 X119.014 Y100.55 E4.57835
G1 X119.643 Y100.619 E4.59939
G1 X120.071 Y100.679 E4.61377
G1 X120.764 Y100.799 E4.63716
G1 X121.205 Y100.891 E4.65214
G1 X121.863 Y101.051 E4.67466
G1 X122.196 Y101.143 E4.68616
G1 X122.791 Y101.326 E4.70686
G1 X123.202 Y101.466 E4.7213
G1 X123.79 Y101.686 E4.74218
G1 X124.057 Y101.795 E4.75177
G1 X124.648 Y102.058 E4.77329
G1 X125.13 Y102.29 E4.79108
G1 X125.759 Y102.619 E4.81469
G1 X126.48 Y103.047 E4.84258
G1 X126.915 Y103.327 E4.85978
G1 X127.448 Y103.693 E4.88129
G1 X127.722 Y103.894 E4.89259
G1 X128.2 Y104.267 E4.91276
G1 X128.458 Y104.48 E4.92389
G1 X128.953 Y104.914 E4.94578
G1 X129.311 Y105.249 E4.96209
G1 X129.807 Y105.745 E4.98542
G1 X130.041 Y105.995 E4.99681
G1 X130.459 Y106.469 E5.01783
G1 X130.708 Y106.769 E5.03079
G1 X131.107 Y107.282 E5.05241
G1 X131.371 Y107.643 E5.06729
G1 X131.719 Y108.149 E5.08771
G1 X131.885 Y108.406 E5.09789
G1 X132.199 Y108.923 E5.11801
G1 X132.4 Y109.277 E5.13155
G1 X132.736 Y109.92 E5.15568
G1 X132.934 Y110.332 E5.17088
G1 X133.181 Y110.885 E5.19102
G1 X133.305 Y111.186 E5.20185
G1 X133.54 Y111.811 E5.22406
G1 X133.675 Y112.208 E5.23801
G1 X133.876 Y112.871 E5.26105
G1 X133.977 Y113.247 E5.274
G1 X134.107 Y113.788 E5.2925
G1 X134.185 Y114.154 E5.30495
G1 X134.306 Y114.825 E5.32763
G1 X134.367 Y115.241 E5.34161
G1 X134.442 Y115.896 E5.36354
G1 X134.473 Y116.267 E5.37592
G1 X134.507 Y116.912 E5.3974
G1 X134.516 Y117.312 E5.41071
G1 X134.511 Y117.973 E5.4327
G1 X134.495 Y118.374 E5.44605
G1 X134.455 Y118.957 E5.46548
G1 X134.422 Y119.303 E5.47704
G1 X134.333 Y119.993 E5.50018
G1 X134.268 Y120.394 E5.51369
G1 X134.143 Y121.042 E5.53564
G1 X134.038 Y121.505 E5.55143
G1 X133.82 Y122.323 E5.57959
G1 X133.609 Y122.976 E5.60241
G1 X133.386 Y123.597 E5.62436
G1 X132.913 Y124.711 E5.66461
G1 X132.618 Y125.308 E5.68676
G1 X132.256 Y125.979 E5.71212
G1 X132.128 Y126.197 E5.72053
G1 X131.807 Y126.71 E5.74066
G1 X131.511 Y127.154 E5.7584
G1 X131.134 Y127.684 E5.78004
G1 X130.948 Y127.929 E5.79027
G1 X130.551 Y128.42 E5.81127
G1 X130.304 Y128.708 E5.82389
G1 X129.851 Y129.203 E5.84621
G1 X129.514 Y129.549 E5.86227
G1 X128.974 Y130.072 E5.88727
G1 X128.403 Y130.562 E5.9123
G1 X127.991 Y130.895 E5.92992
G1 X127.451 Y131.303 E5.95243
G1 X127.191 Y131.487 E5.96302
G1 X126.657 Y131.842 E5.98435
G1 X126.325 Y132.048 E5.99735
G1 X125.77 Y132.369 E6.01867
G1 X125.379 Y132.58 E6.03345
G1 X124.783 Y132.878 E6.05561
G1 X124.488 Y133.014 E6.06642
G1 X123.937 Y133.25 E6.08635
G1 X123.526 Y133.412 E6.10105
G1 X122.88 Y133.642 E6.12385
G1 X122.525 Y133.756 E6.13625
G1 X121.968 Y133.919 E6.15556
G1 X121.67 Y133.997 E6.1658
G1 X120.991 Y134.151 E6.18896
G1 X120.451 Y134.255 E6.20725
G1 X119.815 Y134.357 E6.22867
G1 X119.554 Y134.391 E6.23743
G1 X118.947 Y134.453 E6.25772
G1 X118.503 Y134.485 E6.27253
G1 X117.79 Y134.512 E6.29626
G1 X117.361 Y134.514 E6.31053
G1 X116.753 Y134.499 E6.33076
G1 X116.431 Y134.482 E6.34148
G1 X115.791 Y134.429 E6.36284
G1 X115.378 Y134.382 E6.37667
G1 X114.73 Y134.288 E6.39844
G1 X114.34 Y134.219 E6.41162
G1 X113.668 Y134.077 E6.43446
G1 X113.247 Y133.974 E6.44888
G1 X112.663 Y133.814 E6.46902
G1 X112.356 Y133.72 E6.47969
G1 X111.722 Y133.503 E6.50198
G1 X111.284 Y133.338 E6.51755
G1 X110.677 Y133.088 E6.53938
G1 X110.401 Y132.964 E6.54945
G1 X109.841 Y132.692 E6.57015
G1 X109.429 Y132.477 E6.58561
G1 X108.831 Y132.14 E6.60844
G1 X108.472 Y131.922 E6.62241
G1 X107.948 Y131.583 E6.64317
G1 X107.715 Y131.422 E6.65259
G1 X107.202 Y131.044 E6.67378
G1 X106.846 Y130.765 E6.68883
G1 X106.366 Y130.365 E6.70961
G1 X106.065 Y130.099 E6.72297
G1 X105.574 Y129.637 E6.74539
G1 X105.312 Y129.374 E6.75774
G1 X104.877 Y128.91 E6.77889
G1 X104.62 Y128.619 E6.79181
G1 X104.193 Y128.104 E6.81406
G1 X103.96 Y127.804 E6.82669
G1 X103.583 Y127.287 E6.84797
G1 X103.308 Y126.885 E6.86417
G1 X102.85 Y126.157 E6.89278
G1 X102.53 Y125.587 E6.91452
G1 X102.295 Y125.135 E6.93146
G1 X102.019 Y124.562 E6.95262
G1 X101.887 Y124.266 E6.9634
G1 X101.633 Y123.644 E6.98574
G1 X101.485 Y123.246 E6.99987
G1 X101.289 Y122.671 E7.02007
G1 X101.192 Y122.356 E7.03103
G1 X101.021 Y121.731 E7.05259
G1 X100.905 Y121.252 E7.06898
G1 X100.765 Y120.58 E7.09181
G1 X100.71 Y120.265 E7.10244
G1 X100.622 Y119.656 E7.12291
G1 X100.576 Y119.257 E7.13627
G1 X100.519 Y118.577 E7.15896
G1 X100.498 Y118.161 E7.17282
G1 X100.486 Y117.486 E7.19527
G0 F6000 X100.886 Y117.492
G1 F1200 X100.892 Y117.04 E7.21031
G1 X100.933 Y116.22 E7.23761
G1 X100.994 Y115.608 E7.25807
G1 X101.06 Y115.104 E7.27498
G1 X101.162 Y114.481 E7.29597
G1 X101.232 Y114.121 E7.30817
G1 X101.38 Y113.472 E7.33031
G1 X101.485 Y113.073 E7.34403
G1 X101.651 Y112.508 E7.36362
G1 X101.739 Y112.238 E7.37307
G1 X101.942 Y111.672 E7.39307
G1 X102.141 Y111.165 E7.41118
G1 X102.383 Y110.6 E7.43162
G1 X102.492 Y110.365 E7.44024
G1 X102.77 Y109.81 E7.46089
G1 X102.979 Y109.423 E7.47551
G1 X103.28 Y108.903 E7.4955
G1 X103.465 Y108.604 E7.50719
G1 X103.851 Y108.026 E7.53031
G1 X104.153 Y107.605 E7.54754
G1 X104.554 Y107.082 E7.56946
G1 X104.75 Y106.843 E7.57974
G1 X105.104 Y106.434 E7.59773
G1 X105.345 Y106.17 E7.60962
G1 X105.806 Y105.696 E7.63161
G1 X106.254 Y105.265 E7.65229
G1 X107.18 Y104.475 E7.69278
G1 X107.686 Y104.093 E7.71386
G1 X108.207 Y103.725 E7.73508
G1 X108.502 Y103.53 E7.74684
G1 X109.015 Y103.212 E7.76691
G1 X109.331 Y103.029 E7.77906
G1 X109.871 Y102.738 E7.79946
G1 X110.222 Y102.562 E7.81252
G1 X110.782 Y102.302 E7.83306
G1 X111.184 Y102.13 E7.8476
G1 X111.774 Y101.899 E7.86867
G1 X112.052 Y101.8 E7.87849
G1 X112.667 Y101.603 E7.89997
G1 X113.17 Y101.459 E7.91737
G1 X113.725 Y101.317 E7.93642
G1 X113.99 Y101.257 E7.94546
G1 X114.602 Y101.138 E7.9662
G1 X115.05 Y101.065 E7.98129
G1 X115.698 Y100.98 E8.00303
G1 X116.056 Y100.945 E8.015
G1 X116.676 Y100.904 E8.03566
G1 X117.114 Y100.888 E8.05024
G1 X117.742 Y100.884 E8.07113
G1 X118.101 Y100.893 E8.08307
G1 X118.656 Y100.922 E8.10156
G1 X118.982 Y100.948 E8.11243
G1 X119.587 Y101.015 E8.13268
G1 X120.015 Y101.075 E8.14705
G1 X120.682 Y101.191 E8.16957
G1 X121.123 Y101.283 E8.18455
G1 X121.756 Y101.436 E8.20621
G1 X122.089 Y101.528 E8.2177
G1 X122.662 Y101.705 E8.23765
G1 X123.073 Y101.845 E8.25209
G1 X123.639 Y102.057 E8.27219
G1 X123.906 Y102.166 E8.28179
G1 X124.475 Y102.418 E8.30248
G1 X124.957 Y102.65 E8.32028
G1 X125.562 Y102.967 E8.34299
G1 X126.264 Y103.383 E8.37013
G1 X126.699 Y103.663 E8.38734
G1 X127.211 Y104.016 E8.40802
G1 X127.485 Y104.217 E8.41933
G1 X127.946 Y104.575 E8.43874
G1 X128.204 Y104.788 E8.44987
G1 X128.679 Y105.206 E8.47091
G1 X129.037 Y105.541 E8.48722
G1 X129.515 Y106.019 E8.5097
G1 X129.749 Y106.269 E8.52109
G1 X130.151 Y106.725 E8.54131
G1 X130.4 Y107.025 E8.55428
G1 X130.784 Y107.518 E8.57506
G1 X131.048 Y107.879 E8.58994
G1 X131.383 Y108.366 E8.6096
G1 X131.549 Y108.623 E8.61977
G1 X131.851 Y109.121 E8.63915
G1 X132.052 Y109.475 E8.65269
G1 X132.375 Y110.093 E8.67588
G1 X132.573 Y110.505 E8.69108
G1 X132.811 Y111.038 E8.7105
G1 X132.935 Y111.339 E8.72132
G1 X133.161 Y111.94 E8.74268
G1 X133.296 Y112.337 E8.75663
G1 X133.49 Y112.975 E8.77881
G1 X133.591 Y113.351 E8.79175
G1 X133.716 Y113.871 E8.80954
G1 X133.794 Y114.237 E8.82199
G1 X133.91 Y114.883 E8.84382
