;FLAVOR:Marlin
;TIME:2035
;Filament used: 1.01717m
;Layer height: 0.2
;MINX:93.385
;MINY:94.21
;MINZ:0.2
;MAXX:141.625
;MAXY:140.79
;MAXZ:20.6
;Generated with Cura_SteamEngine main
M140 S50
M105
M190 S50
M104 S200
M105
M109 S200
M82 ;absolute extrusion mode
; Ender 3 Custom Start G-code
G92 E0 ; Reset Extruder
G28 ; Home all axes
G1 Z2.0 F3000 ; Move Z Axis up little to prevent scratching of Heat Bed
G1 X0.1 Y20 Z0.3 F5000.0 ; Move to start position
G1 X0.1 Y200.0 Z0.3 F1500.0 E15 ; Draw the first line
G1 X0.4 Y200.0 Z0.3 F5000.0 ; Move to side a little
G1 X0.4 Y20 Z0.3 F1500.0 E30 ; Draw the second line
G92 E0 ; Reset Extruder
G1 Z2.0 F3000 ; Move Z Axis up little to prevent scratching of Heat Bed
G1 X5 Y20 Z0.3 F5000.0 ; Move over to prevent blob squish
G92 E0
G92 E0
G1 F2700 E-5
;LAYER_COUNT:103
;LAYER:0
M107
G0 F6000 X99.493 Y102.807 Z0.2
G0 X93.642 Y114.476
;TYPE:SKIRT
G1 F2700 E0
G1 F1200 X93.782 Y113.549 E0.03118
G1 X94.004 Y112.627 E0.06272
G1 X94.261 Y111.74 E0.09344
G1 X94.642 Y110.516 E0.13608
G1 X94.959 Y109.633 E0.16728
G1 X95.37 Y108.741 E0.19995
G1 X95.775 Y107.961 E0.22918
G1 X96.415 Y106.786 E0.27368
G1 X96.898 Y105.983 E0.30485
G1 X97.487 Y105.174 E0.33813
G1 X98.035 Y104.493 E0.3672
G1 X98.862 Y103.501 E0.41016
G1 X99.493 Y102.807 E0.44136
G1 X100.258 Y102.103 E0.47593
G1 X101.2 Y101.316 E0.51676
G1 X101.985 Y100.689 E0.55018
G1 X102.743 Y100.138 E0.58134
G1 X103.555 Y99.648 E0.61289
G1 X104.887 Y98.924 E0.66331
G1 X105.518 Y98.599 E0.68692
G1 X106.37 Y98.205 E0.71814
G1 X107.198 Y97.903 E0.74745
G1 X108.066 Y97.628 E0.77774
G1 X109.303 Y97.263 E0.82063
G1 X110.213 Y97.036 E0.85183
G1 X111.149 Y96.886 E0.88336
G1 X112.115 Y96.777 E0.91569
G1 X113.18 Y96.679 E0.95126
G1 X113.956 Y96.635 E0.97711
G1 X115.187 Y96.609 E1.01807
G1 X130.076 Y96.608 E1.51328
G1 X130.774 Y96.618 E1.53649
G1 X131.71 Y96.672 E1.56768
G1 X132.638 Y96.804 E1.59885
G1 X133.552 Y97.016 E1.63006
G1 X134.444 Y97.305 E1.66125
G1 X135.309 Y97.668 E1.69245
G1 X136.139 Y98.104 E1.72363
G1 X136.93 Y98.609 E1.75484
G1 X137.674 Y99.18 E1.78604
G1 X138.367 Y99.812 E1.81723
G1 X139.004 Y100.5 E1.84842
G1 X139.579 Y101.241 E1.87961
G1 X140.09 Y102.027 E1.91079
G1 X140.532 Y102.855 E1.94201
G1 X140.901 Y103.717 E1.9732
G1 X141.196 Y104.607 E2.00438
G1 X141.414 Y105.519 E2.03557
G1 X141.554 Y106.447 E2.06679
G1 X141.612 Y107.308 E2.09549
G1 X141.625 Y107.937 E2.11641
G1 X141.624 Y127.008 E2.75072
G1 X141.615 Y127.735 E2.7749
G1 X141.564 Y128.672 E2.80611
G1 X141.432 Y129.6 E2.83729
G1 X141.223 Y130.514 E2.86847
G1 X140.936 Y131.407 E2.89967
G1 X140.574 Y132.273 E2.93089
G1 X140.14 Y133.104 E2.96207
G1 X139.636 Y133.895 E2.99326
G1 X139.067 Y134.64 E3.02444
G1 X138.436 Y135.335 E3.05566
G1 X137.749 Y135.973 E3.08685
G1 X137.01 Y136.55 E3.11803
G1 X136.224 Y137.062 E3.14923
G1 X135.398 Y137.505 E3.18041
G1 X134.536 Y137.877 E3.21163
G1 X133.647 Y138.173 E3.2428
G1 X132.735 Y138.393 E3.274
G1 X131.808 Y138.534 E3.30519
G1 X130.924 Y138.595 E3.33466
G1 X130.295 Y138.608 E3.35558
G1 X114.933 Y138.607 E3.86653
G1 X114.417 Y138.6 E3.88369
G1 X113.71 Y138.568 E3.90723
G1 X112.467 Y138.471 E3.9487
G1 X111.211 Y138.338 E3.9907
G1 X110.284 Y138.196 E4.0219
G1 X109.298 Y137.953 E4.05567
G1 X108.11 Y137.602 E4.09687
G1 X107.21 Y137.317 E4.12827
G1 X106.33 Y136.994 E4.15945
G1 X105.534 Y136.625 E4.18863
G1 X104.734 Y136.211 E4.21859
G1 X103.563 Y135.574 E4.26293
G1 X102.759 Y135.091 E4.29413
G1 X101.956 Y134.507 E4.32715
G1 X101.272 Y133.958 E4.35632
G1 X100.265 Y133.118 E4.39994
G1 X99.571 Y132.487 E4.43113
G1 X98.869 Y131.723 E4.46564
G1 X98.083 Y130.782 E4.50642
G1 X97.456 Y129.997 E4.53984
G1 X96.904 Y129.239 E4.57103
G1 X96.456 Y128.502 E4.59971
G1 X96.048 Y127.765 E4.62773
G1 X95.683 Y127.08 E4.65355
G1 X95.364 Y126.46 E4.67674
G1 X94.971 Y125.608 E4.70794
G1 X94.667 Y124.776 E4.73741
G1 X94.394 Y123.913 E4.76751
G1 X94.029 Y122.678 E4.81034
G1 X93.802 Y121.768 E4.84154
G1 X93.651 Y120.823 E4.87337
G1 X93.552 Y119.939 E4.90295
G1 X93.431 Y118.616 E4.94714
G1 X93.385 Y117.679 E4.97834
G1 X93.423 Y116.702 E5.01086
G1 X93.506 Y115.738 E5.04304
G1 X93.642 Y114.476 E5.08526
G1 F2700 E0.08526
G0 F6000 X93.785 Y117.66
G1 F2700 E5.08526
G1 F1200 X93.822 Y116.735 E5.11605
G1 X93.904 Y115.781 E5.1479
G1 X94.04 Y114.519 E5.19012
G1 X94.178 Y113.609 E5.22073
G1 X94.389 Y112.737 E5.25057
G1 X94.643 Y111.859 E5.28097
G1 X95.024 Y110.635 E5.3236
G1 X95.336 Y109.768 E5.35425
G1 X95.725 Y108.924 E5.38516
G1 X96.126 Y108.153 E5.41407
G1 X96.766 Y106.978 E5.45857
G1 X97.241 Y106.189 E5.4892
G1 X97.799 Y105.424 E5.52069
G1 X98.342 Y104.749 E5.54951
G1 X99.169 Y103.757 E5.59246
G1 X99.789 Y103.077 E5.62307
G1 X100.515 Y102.41 E5.65586
G1 X101.659 Y101.458 E5.70536
G1 X102.233 Y101.002 E5.72974
G1 X102.979 Y100.461 E5.76039
G1 X103.747 Y99.999 E5.7902
G1 X104.844 Y99.4 E5.83177
G1 X105.701 Y98.955 E5.86389
G1 X106.537 Y98.569 E5.89452
G1 X107.32 Y98.284 E5.92223
G1 X108.179 Y98.011 E5.95221
G1 X109.416 Y97.646 E5.99511
G1 X110.31 Y97.424 E6.02574
G1 X111.195 Y97.284 E6.05554
G1 X112.152 Y97.176 E6.08758
G1 X113.217 Y97.078 E6.12315
G1 X113.964 Y97.035 E6.14803
G1 X115.195 Y97.009 E6.18899
G1 X129.918 Y97.007 E6.67868
G1 X130.768 Y97.018 E6.70695
G1 X131.687 Y97.071 E6.73757
G1 X132.598 Y97.204 E6.76819
G1 X133.494 Y97.415 E6.7988
G1 X134.368 Y97.703 E6.82941
G1 X135.215 Y98.066 E6.86006
G1 X136.026 Y98.501 E6.89067
G1 X136.796 Y99.005 E6.92128
G1 X137.52 Y99.574 E6.9519
G1 X138.192 Y100.204 E6.98254
G1 X138.807 Y100.889 E7.01316
G1 X139.36 Y101.625 E7.04378
G1 X139.847 Y102.406 E7.07439
G1 X140.264 Y103.227 E7.10502
G1 X140.609 Y104.081 E7.13565
G1 X140.878 Y104.961 E7.16626
G1 X141.07 Y105.862 E7.1969
G1 X141.183 Y106.775 E7.2275
G1 X141.212 Y107.319 E7.24562
G1 X141.225 Y107.937 E7.26618
G1 X141.224 Y127.003 E7.90031
G1 X141.215 Y127.73 E7.9245
G1 X141.164 Y128.649 E7.95511
G1 X141.033 Y129.561 E7.98575
G1 X140.823 Y130.457 E8.01636
G1 X140.537 Y131.332 E8.04698
G1 X140.176 Y132.179 E8.0776
G1 X139.742 Y132.991 E8.10823
G1 X139.24 Y133.763 E8.13885
G1 X138.672 Y134.488 E8.16949
G1 X138.044 Y135.161 E8.2001
G1 X137.36 Y135.777 E8.23072
G1 X136.625 Y136.331 E8.26133
G1 X135.845 Y136.82 E8.29195
G1 X135.025 Y137.239 E8.32258
G1 X134.172 Y137.585 E8.35319
G1 X133.292 Y137.856 E8.38382
G1 X132.392 Y138.049 E8.41443
G1 X131.478 Y138.164 E8.44507
G1 X130.913 Y138.195 E8.46389
G1 X130.295 Y138.208 E8.48445
G1 X114.938 Y138.207 E8.99523
G1 X114.422 Y138.2 E9.01239
G1 X113.741 Y138.169 E9.03507
G1 X112.498 Y138.072 E9.07653
G1 X111.255 Y137.94 E9.11811
G1 X110.345 Y137.8 E9.14873
G1 X109.412 Y137.57 E9.18069
G1 X108.224 Y137.219 E9.22189
G1 X107.332 Y136.936 E9.25302
G1 X106.468 Y136.619 E9.28363
G1 X105.717 Y136.27 E9.31117
G1 X105.15 Y135.979 E9.33237
G1 X103.754 Y135.222 E9.38519
G1 X102.965 Y134.748 E9.4158
G1 X102.205 Y134.195 E9.44706
G1 X101.704 Y133.795 E9.46839
G1 X100.521 Y132.811 E9.51957
G1 X99.84 Y132.191 E9.5502
G1 X99.176 Y131.466 E9.5829
G1 X98.224 Y130.322 E9.6324
G1 X97.769 Y129.749 E9.65673
G1 X97.228 Y129.004 E9.68736
G1 X96.805 Y128.308 E9.71444
G1 X96.482 Y127.727 E9.73655
G1 X96.038 Y126.897 E9.76786
G1 X95.719 Y126.277 E9.79105
G1 X95.334 Y125.44 E9.82169
G1 X95.048 Y124.654 E9.84951
G1 X94.846 Y124.022 E9.87158
G1 X94.413 Y122.564 E9.92217
G1 X94.19 Y121.671 E9.95278
G1 X94.048 Y120.777 E9.98289
G1 X93.95 Y119.902 E10.01217
G1 X93.829 Y118.579 E10.05636
G1 X93.785 Y117.66 E10.08696
G0 F6000 X94.185 Y117.641
G1 F1200 X94.22 Y116.768 E10.11602
G1 X94.278 Y116.071 E10.13928
G1 X94.438 Y114.562 E10.18975
G1 X94.574 Y113.669 E10.2198
G1 X94.773 Y112.847 E10.24793
G1 X95.025 Y111.977 E10.27805
G1 X95.406 Y110.753 E10.32069
G1 X95.712 Y109.904 E10.35071
G1 X96.081 Y109.108 E10.37989
G1 X96.478 Y108.344 E10.40853
G1 X97.118 Y107.169 E10.45303
G1 X97.584 Y106.396 E10.48305
G1 X98.112 Y105.674 E10.5128
G1 X98.649 Y105.006 E10.5413
G1 X99.476 Y104.014 E10.58426
G1 X100.085 Y103.346 E10.61433
G1 X100.771 Y102.717 E10.64528
G1 X101.713 Y101.93 E10.68611
G1 X102.482 Y101.315 E10.71886
G1 X103.214 Y100.786 E10.7489
G1 X103.939 Y100.35 E10.77703
G1 X105.254 Y99.635 E10.82682
G1 X105.885 Y99.31 E10.85043
G1 X106.705 Y98.933 E10.88044
G1 X107.442 Y98.665 E10.90653
G1 X108.292 Y98.395 E10.93619
G1 X109.529 Y98.03 E10.97909
G1 X110.406 Y97.813 E11.00914
G1 X111.241 Y97.681 E11.03725
G1 X112.188 Y97.574 E11.06895
G1 X113.253 Y97.476 E11.10452
G1 X113.973 Y97.435 E11.12851
G1 X115.204 Y97.409 E11.16946
G1 X129.918 Y97.407 E11.65885
G1 X130.762 Y97.418 E11.68692
G1 X131.664 Y97.471 E11.71698
G1 X132.557 Y97.603 E11.747
G1 X133.435 Y97.814 E11.77703
G1 X134.291 Y98.102 E11.80707
G1 X135.118 Y98.464 E11.8371
G1 X135.91 Y98.899 E11.86715
G1 X136.661 Y99.401 E11.8972
G1 X137.364 Y99.968 E11.92724
G1 X138.014 Y100.595 E11.95727
G1 X138.606 Y101.277 E11.98731
G1 X139.136 Y102.008 E12.01734
G1 X139.598 Y102.784 E12.04738
G1 X139.991 Y103.597 E12.07741
G1 X140.309 Y104.442 E12.10744
G1 X140.552 Y105.312 E12.13749
G1 X140.717 Y106.2 E12.16753
G1 X140.812 Y107.33 E12.20525
G1 X140.825 Y107.937 E12.22544
G1 X140.824 Y126.998 E12.85941
G1 X140.815 Y127.725 E12.88359
G1 X140.764 Y128.627 E12.91364
G1 X140.633 Y129.521 E12.94369
G1 X140.424 Y130.399 E12.97371
G1 X140.138 Y131.256 E13.00376
G1 X139.777 Y132.084 E13.0338
G1 X139.345 Y132.876 E13.06381
G1 X138.844 Y133.628 E13.09386
G1 X138.278 Y134.332 E13.12391
G1 X137.653 Y134.983 E13.15392
G1 X136.972 Y135.577 E13.18398
G1 X136.241 Y136.108 E13.21403
G1 X135.467 Y136.572 E13.24404
G1 X134.654 Y136.966 E13.27409
G1 X133.81 Y137.286 E13.30411
G1 X132.94 Y137.531 E13.33418
G1 X132.053 Y137.697 E13.36419
G1 X130.902 Y137.795 E13.40261
G1 X130.295 Y137.808 E13.4228
G1 X114.944 Y137.807 E13.93338
G1 X114.428 Y137.8 E13.95054
G1 X113.772 Y137.77 E13.97239
G1 X112.206 Y137.643 E14.02464
G1 X111.298 Y137.543 E14.05503
G1 X110.406 Y137.404 E14.08505
G1 X109.525 Y137.186 E14.11524
G1 X108.337 Y136.835 E14.15644
G1 X107.454 Y136.555 E14.18725
G1 X106.606 Y136.243 E14.2173
G1 X105.9 Y135.914 E14.24321
G1 X105.116 Y135.508 E14.27257
G1 X103.945 Y134.871 E14.31691
G1 X103.171 Y134.405 E14.34696
G1 X102.455 Y133.882 E14.37645
G1 X101.784 Y133.344 E14.40506
G1 X100.777 Y132.504 E14.44867
G1 X100.11 Y131.895 E14.47871
G1 X99.483 Y131.21 E14.5096
G1 X98.537 Y130.073 E14.55879
G1 X98.082 Y129.5 E14.58313
G1 X97.552 Y128.769 E14.61316
G1 X97.155 Y128.113 E14.63866
G1 X96.832 Y127.532 E14.66077
G1 X96.394 Y126.714 E14.69163
G1 X96.075 Y126.094 E14.71482
G1 X95.698 Y125.273 E14.74487
G1 X95.429 Y124.532 E14.77109
G1 X95.161 Y123.686 E14.80061
G1 X94.796 Y122.451 E14.84344
G1 X94.579 Y121.574 E14.87349
G1 X94.445 Y120.731 E14.90188
G1 X94.348 Y119.866 E14.93083
G1 X94.227 Y118.543 E14.97502
G1 X94.185 Y117.641 E15.00505
G1 F2700 E10.00505
;MESH:sonar_mount_double.stl
G0 F6000 X113.019 Y118.968
G0 X114.385 Y119.458
;TYPE:WALL-INNER
G1 F2700 E15.00505
G1 F1200 X113.674 Y119.269 E15.02952
G1 X113.468 Y119.159 E15.03729
G1 X112.908 Y118.601 E15.06358
G1 X112.824 Y118.438 E15.06968
G1 X112.643 Y117.763 E15.09292
G1 X112.625 Y117.518 E15.10109
G1 X112.814 Y116.807 E15.12556
G1 X112.924 Y116.601 E15.13333
G1 X113.472 Y116.049 E15.1592
G1 X113.628 Y115.963 E15.16513
G1 X114.322 Y115.775 E15.18904
G1 X114.537 Y115.751 E15.19624
G1 X115.326 Y115.961 E15.22339
G1 X115.476 Y116.048 E15.22916
G1 X116.033 Y116.602 E15.25529
G1 X116.121 Y116.762 E15.26136
G1 X116.319 Y117.504 E15.2869
G1 X116.319 Y117.712 E15.29382
G1 X116.121 Y118.453 E15.31933
G1 X116.034 Y118.61 E15.3253
G1 X115.474 Y119.169 E15.35162
G1 X115.325 Y119.255 E15.35734
G1 X114.58 Y119.452 E15.38297
G1 X114.385 Y119.458 E15.38946
G0 F6000 X113.748 Y118.874
;TYPE:WALL-OUTER
G1 F1200 X113.208 Y118.331 E15.41493
G1 X113.029 Y117.66 E15.43803
G1 X113.023 Y117.588 E15.44043
G1 X113.208 Y116.884 E15.46464
G1 X113.748 Y116.342 E15.49009
G1 X114.481 Y116.149 E15.5153
G1 X115.198 Y116.34 E15.53998
G1 X115.741 Y116.876 E15.56536
G1 X115.934 Y117.608 E15.59053
G1 X115.742 Y118.334 E15.61551
G1 X115.198 Y118.876 E15.64105
G1 X114.48 Y119.066 E15.66576
G1 X113.748 Y118.874 E15.69093
G1 F2700 E10.69093
G0 F6000 X113.671 Y119.162
G0 X114.498 Y119.641
G0 X113.798 Y126.765
G0 X114.406 Y127.007
;TYPE:WALL-INNER
G1 F2700 E15.69093
G1 F1200 X130.025 Y127.008 E16.21042
G1 X130.025 Y115.238 E16.60189
G1 X130.025 Y108.207 E16.83574
G1 X114.406 Y108.207 E17.35523
G1 X112.544 Y108.392 E17.41746
G1 X110.778 Y108.929 E17.47886
G1 X109.157 Y109.795 E17.53998
G1 X107.73 Y110.966 E17.60138
G1 X106.563 Y112.389 E17.66259
G1 X105.695 Y114.014 E17.72387
G1 X105.16 Y115.777 E17.78514
G1 X104.978 Y117.61 E17.84641
G1 X105.16 Y119.439 E17.90754
G1 X105.695 Y121.202 E17.96882
G1 X106.563 Y122.827 E18.0301
G1 X107.73 Y124.25 E18.09131
G1 X109.157 Y125.421 E18.1527
G1 X110.778 Y126.287 E18.21383
G1 X112.544 Y126.824 E18.27522
G1 X114.406 Y127.007 E18.33745
G0 F6000 X114.386 Y127.407
;TYPE:WALL-OUTER
G1 F1200 X130.425 Y127.408 E18.87091
G1 X130.425 Y115.238 E19.27569
G1 X130.425 Y107.807 E19.52284
G1 X114.386 Y107.807 E20.0563
G1 X112.466 Y107.998 E20.12048
G1 X110.624 Y108.557 E20.1845
G1 X108.934 Y109.461 E20.24825
G1 X107.446 Y110.682 E20.31227
G1 X106.229 Y112.166 E20.3761
G1 X105.323 Y113.86 E20.43999
G1 X104.766 Y115.699 E20.5039
G1 X104.576 Y117.61 E20.56778
G1 X104.766 Y119.517 E20.63152
G1 X105.323 Y121.356 E20.69543
G1 X106.229 Y123.05 E20.75932
G1 X107.446 Y124.534 E20.82315
G1 X108.934 Y125.755 E20.88717
G1 X110.624 Y126.659 E20.95092
G1 X112.466 Y127.218 E21.01494
G1 X114.386 Y127.407 E21.07911
G0 F6000 X114.425 Y126.647
;TYPE:SKIN
G1 F1200 X129.665 Y126.647 E21.586
G1 X129.665 Y115.238 E21.96546
G1 X129.665 Y108.567 E22.18734
G1 X114.425 Y108.567 E22.69423
G1 X112.618 Y108.748 E22.75463
G1 X110.915 Y109.265 E22.81382
G1 X109.357 Y110.099 E22.8726
G1 X107.989 Y111.221 E22.93144
G1 X106.865 Y112.593 E22.99044
G1 X106.029 Y114.155 E23.04936
G1 X105.516 Y115.851 E23.10829
G1 X105.341 Y117.611 E23.16712
G1 X105.516 Y119.365 E23.22575
G1 X106.029 Y121.061 E23.28468
G1 X106.867 Y122.627 E23.34376
G1 X107.985 Y123.991 E23.40241
G1 X109.361 Y125.119 E23.46159
G1 X110.916 Y125.951 E23.52025
G1 X112.618 Y126.468 E23.57941
G1 X114.425 Y126.647 E23.63981
G1 F2700 E18.63981
G0 F6000 X114.4 Y126.906
G0 X113.62 Y126.729
G0 X114.398 Y119.638
G0 X114.345 Y119.818
G1 F2700 E23.63981
G1 F1200 X113.596 Y119.623 E23.66555
G1 X113.254 Y119.455 E23.67822
G1 X112.632 Y118.825 E23.70767
G1 X112.484 Y118.558 E23.71782
G1 X112.266 Y117.743 E23.74588
G1 X112.266 Y117.475 E23.7548
G1 X112.468 Y116.703 E23.78134
G1 X112.483 Y116.667 E23.78263
G1 X112.632 Y116.392 E23.79304
G1 X113.252 Y115.768 E23.82229
G1 X113.575 Y115.6 E23.8344
G1 X114.336 Y115.4 E23.86057
G1 X114.732 Y115.428 E23.87378
G1 X115.472 Y115.627 E23.89927
G1 X115.719 Y115.781 E23.90895
G1 X116.314 Y116.379 E23.937
G1 X116.469 Y116.652 E23.94745
G1 X116.674 Y117.436 E23.9744
G1 X116.675 Y117.775 E23.98567
G1 X116.459 Y118.585 E24.01356
G1 X116.314 Y118.839 E24.02328
G1 X115.72 Y119.433 E24.05122
G1 X115.464 Y119.593 E24.06126
G1 X114.647 Y119.807 E24.08935
G1 X114.345 Y119.818 E24.09941
G1 F2700 E19.09941
G0 F6000 X114.202 Y119.514
G0 X113.019 Y118.968
G0 X106.562 Y122.402
G0 X106.795 Y122.069
G1 F2700 E24.09941
G1 F1200 X109.913 Y125.186 E24.24604
G0 F6000 X109.694 Y125.594
G0 X110.951 Y126.234
G0 X111.084 Y125.792
G1 F1200 X106.187 Y120.895 E24.47638
G0 F6000 X105.942 Y120.085
G1 F1200 X111.896 Y126.038 E24.75642
G0 F6000 X112.697 Y126.273
G1 F1200 X105.708 Y119.285 E25.08514
G0 F6000 X105.645 Y118.656
G1 F1200 X113.325 Y126.335 E25.44636
