;FLAVOR:Marlin
;TIME:8234
;Filament used: 5.91557m
;Layer height: 0.2
;MINX:66.199
;MINY:62.634
;MINZ:0.2
;MAXX:168.801
;MAXY:172.376
;MAXZ:14
;Generated with Cura_SteamEngine main
M140 S50
M105
M190 S50
M104 S200
M105
M109 S200
M82 ;absolute extrusion mode
; Ender 3 Custom Start G-code
G92 E0 ; Reset Extruder
G28 ; Home all axes
G1 Z2.0 F3000 ; Move Z Axis up little to prevent scratching of Heat Bed
G1 X0.1 Y20 Z0.3 F5000.0 ; Move to start position
G1 X0.1 Y200.0 Z0.3 F1500.0 E15 ; Draw the first line
G1 X0.4 Y200.0 Z0.3 F5000.0 ; Move to side a little
G1 X0.4 Y20 Z0.3 F1500.0 E30 ; Draw the second line
G92 E0 ; Reset Extruder
G1 Z2.0 F3000 ; Move Z Axis up little to prevent scratching of Heat Bed
G1 X5 Y20 Z0.3 F5000.0 ; Move over to prevent blob squish
G92 E0
G92 E0
G1 F2700 E-5
;LAYER_COUNT:70
;LAYER:0
M107
G0 F6000 X76.897 Y72.839 Z0.2
G0 X73.7 Y81.1
;TYPE:SKIRT
G1 F2700 E0
G1 F1200 X73.709 Y80.435 E0.02212
G1 X73.762 Y79.499 E0.0533
G1 X73.894 Y78.57 E0.08451
G1 X74.105 Y77.656 E0.11571
G1 X74.393 Y76.764 E0.14689
G1 X74.756 Y75.899 E0.17809
G1 X75.191 Y75.068 E0.20928
G1 X75.695 Y74.278 E0.24045
G1 X76.265 Y73.533 E0.27165
G1 X76.897 Y72.839 E0.30287
G1 X77.585 Y72.202 E0.33405
G1 X78.325 Y71.626 E0.36524
G1 X79.111 Y71.114 E0.39644
G1 X79.938 Y70.672 E0.42763
G1 X80.8 Y70.302 E0.45883
G1 X81.69 Y70.006 E0.49003
G1 X82.602 Y69.788 E0.52122
G1 X83.889 Y69.615 E0.56441
G1 X86.193 Y69.443 E0.64125
G1 X88.702 Y69.19 E0.72512
G1 X91.217 Y68.864 E0.80947
G1 X93.682 Y68.473 E0.89248
G1 X96.169 Y68.007 E0.97664
G1 X98.649 Y67.469 E1.06105
G1 X101.03 Y66.883 E1.1426
G1 X103.53 Y66.189 E1.2289
G1 X105.888 Y65.464 E1.31095
G1 X108.335 Y64.635 E1.39688
G1 X109.943 Y64.049 E1.4538
G1 X110.447 Y63.879 E1.47149
G1 X111.632 Y63.511 E1.51276
G1 X112.543 Y63.248 E1.5443
G1 X113.455 Y63.029 E1.57549
G1 X114.397 Y62.887 E1.60718
G1 X115.654 Y62.753 E1.64922
G1 X116.579 Y62.673 E1.68011
G1 X117.516 Y62.634 E1.7113
G1 X118.418 Y62.672 E1.74132
G1 X119.371 Y62.755 E1.77314
G1 X120.632 Y62.891 E1.81533
G1 X121.559 Y63.032 E1.84651
G1 X122.46 Y63.247 E1.87732
G1 X123.245 Y63.472 E1.90448
G1 X123.838 Y63.652 E1.92509
G1 X124.973 Y64.019 E1.96477
G1 X125.679 Y64.267 E1.98966
G1 X127.062 Y64.773 E2.03864
G1 X129.455 Y65.572 E2.12255
G1 X131.889 Y66.31 E2.20714
G1 X134.292 Y66.964 E2.28997
G1 X136.755 Y67.561 E2.37427
G1 X139.25 Y68.091 E2.4591
G1 X141.688 Y68.537 E2.54154
G1 X144.187 Y68.921 E2.62563
G1 X146.628 Y69.228 E2.70746
G1 X150.294 Y69.56 E2.82989
G1 X151.021 Y69.612 E2.85413
G1 X151.953 Y69.718 E2.88533
G1 X152.872 Y69.903 E2.91651
G1 X153.773 Y70.166 E2.94772
G1 X154.647 Y70.505 E2.9789
G1 X155.49 Y70.917 E3.01011
G1 X156.294 Y71.399 E3.04129
G1 X157.055 Y71.948 E3.0725
G1 X157.766 Y72.559 E3.10368
G1 X158.422 Y73.229 E3.13487
G1 X159.019 Y73.953 E3.16608
G1 X159.552 Y74.725 E3.19728
G1 X160.017 Y75.539 E3.22846
G1 X160.411 Y76.39 E3.25965
G1 X160.731 Y77.271 E3.29083
G1 X160.975 Y78.177 E3.32203
G1 X161.141 Y79.1 E3.35322
G1 X161.238 Y80.276 E3.39247
G1 X161.251 Y80.905 E3.4134
G1 X161.25 Y160.776 E6.06992
G1 X161.241 Y161.503 E6.0941
G1 X161.19 Y162.44 E6.12531
G1 X161.058 Y163.368 E6.15649
G1 X160.849 Y164.282 E6.18767
G1 X160.562 Y165.175 E6.21887
G1 X160.2 Y166.041 E6.25009
G1 X159.766 Y166.872 E6.28127
G1 X159.262 Y167.663 E6.31246
G1 X158.693 Y168.408 E6.34364
G1 X158.062 Y169.103 E6.37486
G1 X157.375 Y169.741 E6.40605
G1 X156.636 Y170.318 E6.43723
G1 X155.85 Y170.83 E6.46843
G1 X155.024 Y171.273 E6.49961
G1 X154.162 Y171.645 E6.53083
G1 X153.273 Y171.941 E6.562
G1 X152.361 Y172.161 E6.5932
G1 X151.434 Y172.302 E6.62439
G1 X150.55 Y172.363 E6.65386
G1 X149.921 Y172.376 E6.67478
G1 X85.264 Y172.375 E8.82528
G1 X84.566 Y172.366 E8.8485
G1 X83.63 Y172.314 E8.87968
G1 X82.701 Y172.182 E8.91089
G1 X81.787 Y171.972 E8.94208
G1 X80.894 Y171.685 E8.97328
G1 X80.029 Y171.322 E9.00448
G1 X79.198 Y170.888 E9.03566
G1 X78.407 Y170.384 E9.06686
G1 X77.662 Y169.814 E9.09806
G1 X76.968 Y169.183 E9.12925
G1 X76.331 Y168.496 E9.16041
G1 X75.754 Y167.756 E9.19162
G1 X75.242 Y166.97 E9.22282
G1 X74.799 Y166.143 E9.25403
G1 X74.428 Y165.282 E9.28521
G1 X74.132 Y164.392 E9.31641
G1 X73.913 Y163.48 E9.3476
G1 X73.772 Y162.553 E9.37879
G1 X73.712 Y161.664 E9.40842
G1 X73.699 Y161.034 E9.42938
G1 X73.7 Y81.1 E12.088
G0 F6000 X74.1 Y81.106
G1 F1200 X74.109 Y80.441 E12.11012
G1 X74.161 Y79.521 E12.14077
G1 X74.293 Y78.61 E12.17138
G1 X74.504 Y77.714 E12.202
G1 X74.791 Y76.839 E12.23263
G1 X75.154 Y75.993 E12.26325
G1 X75.588 Y75.181 E12.29387
G1 X76.091 Y74.41 E12.32449
G1 X76.66 Y73.686 E12.35511
G1 X77.288 Y73.014 E12.38571
G1 X77.973 Y72.398 E12.41635
G1 X78.709 Y71.845 E12.44696
G1 X79.49 Y71.357 E12.4776
G1 X80.31 Y70.939 E12.50821
G1 X81.164 Y70.594 E12.53884
G1 X82.044 Y70.324 E12.56946
G1 X82.944 Y70.132 E12.60007
G1 X83.919 Y70.013 E12.63273
G1 X86.265 Y69.838 E12.71098
G1 X88.753 Y69.587 E12.79415
G1 X91.265 Y69.262 E12.8784
G1 X93.741 Y68.869 E12.96178
G1 X96.255 Y68.398 E13.04685
G1 X98.732 Y67.86 E13.13116
G1 X101.16 Y67.262 E13.21433
G1 X103.607 Y66.584 E13.29878
G1 X106.029 Y65.839 E13.38306
G1 X108.474 Y65.01 E13.46893
G1 X110.08 Y64.425 E13.52578
G1 X110.565 Y64.261 E13.54281
G1 X111.984 Y63.823 E13.5922
G1 X112.653 Y63.632 E13.61534
G1 X113.548 Y63.418 E13.64595
G1 X114.439 Y63.285 E13.67591
G1 X115.933 Y63.128 E13.72587
G1 X116.612 Y63.071 E13.74854
G1 X117.532 Y63.034 E13.77916
G1 X118.384 Y63.071 E13.80753
G1 X119.328 Y63.153 E13.83904
G1 X120.589 Y63.289 E13.88123
G1 X121.499 Y63.427 E13.91184
G1 X122.351 Y63.632 E13.94098
G1 X123.129 Y63.855 E13.9679
G1 X123.877 Y64.083 E13.99391
G1 X124.573 Y64.306 E14.01822
G1 X125.401 Y64.592 E14.04736
G1 X126.935 Y65.153 E14.10168
G1 X129.338 Y65.955 E14.18594
G1 X131.763 Y66.691 E14.27023
G1 X134.198 Y67.353 E14.35416
G1 X136.683 Y67.956 E14.43921
G1 X139.132 Y68.475 E14.52247
G1 X141.627 Y68.932 E14.60683
G1 X144.113 Y69.314 E14.69049
G1 X146.601 Y69.626 E14.77389
G1 X150.275 Y69.96 E14.89659
G1 X150.993 Y70.011 E14.92053
G1 X151.907 Y70.116 E14.95113
G1 X152.81 Y70.3 E14.98178
G1 X153.692 Y70.561 E15.01237
G1 X154.549 Y70.898 E15.043
G1 X155.373 Y71.309 E15.07363
G1 X156.159 Y71.789 E15.10426
G1 X156.899 Y72.335 E15.13485
G1 X157.59 Y72.944 E15.16548
G1 X158.225 Y73.611 E15.19611
G1 X158.8 Y74.33 E15.22673
G1 X159.311 Y75.096 E15.25736
G1 X159.753 Y75.904 E15.28799
G1 X160.123 Y76.746 E15.31858
G1 X160.419 Y77.618 E15.34921
G1 X160.638 Y78.513 E15.37986
G1 X160.778 Y79.422 E15.41045
G1 X160.838 Y80.287 E15.43929
G1 X160.851 Y80.905 E15.45985
G1 X160.85 Y160.771 E18.1162
G1 X160.841 Y161.498 E18.14038
G1 X160.79 Y162.417 E18.17099
G1 X160.659 Y163.329 E18.20164
G1 X160.449 Y164.225 E18.23225
G1 X160.163 Y165.1 E18.26287
G1 X159.802 Y165.947 E18.29349
G1 X159.368 Y166.759 E18.32411
G1 X158.866 Y167.531 E18.35474
G1 X158.298 Y168.256 E18.38537
G1 X157.67 Y168.929 E18.41599
G1 X156.986 Y169.545 E18.4466
G1 X156.251 Y170.099 E18.47722
G1 X155.471 Y170.588 E18.50784
G1 X154.651 Y171.007 E18.53846
G1 X153.798 Y171.353 E18.56908
G1 X152.918 Y171.624 E18.5997
G1 X152.018 Y171.817 E18.63032
G1 X151.104 Y171.932 E18.66096
G1 X150.539 Y171.963 E18.67978
G1 X149.921 Y171.976 E18.70034
G1 X85.269 Y171.975 E20.85067
G1 X84.571 Y171.966 E20.87389
G1 X83.652 Y171.914 E20.90451
G1 X82.741 Y171.783 E20.93512
G1 X81.845 Y171.573 E20.96573
G1 X80.97 Y171.286 E20.99635
G1 X80.123 Y170.924 E21.02699
G1 X79.311 Y170.49 E21.05761
G1 X78.54 Y169.988 E21.08821
G1 X77.815 Y169.42 E21.11885
G1 X77.142 Y168.791 E21.14948
G1 X76.527 Y168.107 E21.18008
G1 X75.973 Y167.372 E21.21069
G1 X75.485 Y166.591 E21.24132
G1 X75.066 Y165.771 E21.27195
G1 X74.72 Y164.918 E21.30256
G1 X74.45 Y164.038 E21.33318
G1 X74.257 Y163.137 E21.36383
G1 X74.143 Y162.224 E21.39443
G1 X74.112 Y161.653 E21.41345
G1 X74.099 Y161.034 E21.43404
G1 X74.1 Y81.106 E24.09246
G0 F6000 X74.5 Y81.111
G1 F1200 X74.509 Y80.446 E24.11458
G1 X74.561 Y79.544 E24.14463
G1 X74.693 Y78.651 E24.17465
G1 X74.903 Y77.773 E24.20468
G1 X75.19 Y76.916 E24.23474
G1 X75.552 Y76.089 E24.26476
G1 X75.985 Y75.297 E24.29479
G1 X76.487 Y74.546 E24.32483
G1 X77.054 Y73.842 E24.3549
G1 X77.68 Y73.192 E24.38491
G1 X78.361 Y72.599 E24.41494
G1 X79.093 Y72.069 E24.445
G1 X79.868 Y71.606 E24.47503
G1 X80.681 Y71.213 E24.50506
G1 X81.526 Y70.893 E24.53512
G1 X82.395 Y70.65 E24.56513
G1 X83.283 Y70.484 E24.59517
G1 X83.949 Y70.412 E24.61745
G1 X86.295 Y70.237 E24.6957
G1 X88.773 Y69.987 E24.77854
G1 X91.347 Y69.654 E24.86486
G1 X93.841 Y69.258 E24.94885
G1 X96.308 Y68.796 E25.03233
G1 X98.833 Y68.248 E25.11827
G1 X101.233 Y67.657 E25.20048
G1 X103.726 Y66.965 E25.28653
G1 X106.17 Y66.214 E25.37157
G1 X108.56 Y65.404 E25.4555
G1 X110.217 Y64.8 E25.51416
G1 X110.684 Y64.643 E25.53055
G1 X111.869 Y64.275 E25.57182
G1 X112.763 Y64.017 E25.60276
G1 X113.641 Y63.808 E25.63278
G1 X114.482 Y63.682 E25.66107
G1 X115.739 Y63.548 E25.70311
G1 X116.646 Y63.47 E25.73339
G1 X117.548 Y63.434 E25.76341
G1 X118.351 Y63.47 E25.79015
G1 X119.285 Y63.551 E25.82133
G1 X120.546 Y63.687 E25.86352
G1 X121.438 Y63.823 E25.89353
G1 X122.241 Y64.017 E25.921
G1 X123.013 Y64.238 E25.94771
G1 X123.755 Y64.464 E25.97351
G1 X124.451 Y64.687 E25.99782
G1 X125.404 Y65.018 E26.03137
G1 X126.807 Y65.532 E26.08107
G1 X129.233 Y66.342 E26.16614
G1 X131.648 Y67.074 E26.25007
G1 X134.104 Y67.742 E26.33472
G1 X136.578 Y68.342 E26.41939
G1 X139.083 Y68.873 E26.50456
G1 X141.565 Y69.328 E26.58849
G1 X144.034 Y69.708 E26.67158
G1 X146.576 Y70.026 E26.75678
G1 X150.211 Y70.356 E26.87818
G1 X150.965 Y70.41 E26.90332
G1 X151.862 Y70.513 E26.93335
G1 X152.746 Y70.696 E26.96338
G1 X153.611 Y70.956 E26.99342
G1 X154.449 Y71.292 E27.02345
G1 X155.255 Y71.701 E27.05351
G1 X156.021 Y72.179 E27.08354
G1 X156.742 Y72.723 E27.11358
G1 X157.411 Y73.329 E27.1436
G1 X158.025 Y73.991 E27.17363
G1 X158.578 Y74.706 E27.2037
G1 X159.065 Y75.466 E27.23372
G1 X159.483 Y76.266 E27.26374
G1 X159.829 Y77.101 E27.2938
G1 X160.099 Y77.962 E27.32382
G1 X160.293 Y78.845 E27.35388
G1 X160.407 Y79.74 E27.38389
G1 X160.438 Y80.298 E27.40248
G1 X160.451 Y80.905 E27.42267
G1 X160.45 Y160.766 E30.07886
G1 X160.441 Y161.493 E30.10304
G1 X160.39 Y162.395 E30.13309
G1 X160.259 Y163.289 E30.16314
G1 X160.05 Y164.167 E30.19316
G1 X159.764 Y165.024 E30.22321
G1 X159.403 Y165.852 E30.25326
G1 X158.971 Y166.644 E30.28326
G1 X158.47 Y167.396 E30.31332
G1 X157.904 Y168.1 E30.34336
G1 X157.279 Y168.751 E30.37338
G1 X156.598 Y169.345 E30.40343
G1 X155.867 Y169.876 E30.43348
G1 X155.093 Y170.34 E30.4635
G1 X154.28 Y170.734 E30.49355
G1 X153.436 Y171.054 E30.52357
G1 X152.566 Y171.299 E30.55363
G1 X151.679 Y171.465 E30.58364
G1 X150.528 Y171.563 E30.62206
G1 X149.921 Y171.576 E30.64226
G1 X85.274 Y171.575 E32.79242
G1 X84.576 Y171.566 E32.81564
G1 X83.675 Y171.515 E32.84566
G1 X82.781 Y171.383 E32.87571
G1 X81.903 Y171.174 E32.90573
G1 X81.046 Y170.887 E32.93579
G1 X80.219 Y170.526 E32.96581
G1 X79.426 Y170.093 E32.99586
G1 X78.675 Y169.592 E33.02588
G1 X77.971 Y169.026 E33.05593
G1 X77.32 Y168.4 E33.08597
G1 X76.727 Y167.719 E33.116
G1 X76.197 Y166.988 E33.14603
G1 X75.733 Y166.213 E33.17607
G1 X75.339 Y165.4 E33.20612
G1 X75.019 Y164.556 E33.23614
G1 X74.775 Y163.686 E33.2662
G1 X74.609 Y162.798 E33.29624
G1 X74.512 Y161.643 E33.33479
G1 X74.499 Y161.034 E33.35505
G1 X74.5 Y81.111 E36.0133
G1 F2700 E31.0133
;MESH:chassis_large.stl
G0 F6000 X115.897 Y84.538
G0 X117.635 Y85.226
;TYPE:WALL-INNER
G1 F2700 E36.0133
G1 F1200 X117.433 Y85.216 E36.02003
G1 X116.732 Y85.03 E36.04415
G1 X116.672 Y85.006 E36.0463
G1 X116.547 Y84.933 E36.05112
G1 X116.016 Y84.401 E36.07612
G1 X115.902 Y84.227 E36.08304
G1 X115.705 Y83.464 E36.10925
G1 X115.702 Y83.283 E36.11527
G1 X115.893 Y82.561 E36.14011
G1 X115.999 Y82.368 E36.14743
G1 X116.561 Y81.811 E36.17375
G1 X116.75 Y81.714 E36.18081
G1 X117.465 Y81.525 E36.20541
G1 X117.639 Y81.525 E36.2112
G1 X118.391 Y81.728 E36.23711
G1 X118.55 Y81.815 E36.24313
G1 X119.101 Y82.368 E36.2691
G1 X119.211 Y82.574 E36.27687
G1 X119.399 Y83.284 E36.30129
G1 X119.396 Y83.465 E36.30731
G1 X119.199 Y84.209 E36.33291
G1 X119.072 Y84.414 E36.34093
G1 X118.551 Y84.93 E36.36532
G1 X118.368 Y85.03 E36.37226
G1 X117.635 Y85.226 E36.3975
G0 F6000 X118.282 Y84.637
;TYPE:WALL-OUTER
G1 F1200 X117.549 Y84.833 E36.42273
G1 X116.84 Y84.643 E36.44714
G1 X116.783 Y84.603 E36.44946
G1 X116.283 Y84.101 E36.47303
G1 X116.091 Y83.376 E36.49797
G1 X116.281 Y82.655 E36.52277
G1 X116.824 Y82.108 E36.54841
G1 X117.551 Y81.918 E36.5734
G1 X118.274 Y82.108 E36.59826
G1 X118.816 Y82.645 E36.62364
G1 X119.01 Y83.375 E36.64876
G1 X118.812 Y84.107 E36.67398
G1 X118.282 Y84.637 E36.69891
G1 F2700 E31.69891
G0 F6000 X118.493 Y84.849
G0 X117.588 Y85.408
G0 X85.119 Y85.408
G0 X85.299 Y160.776
;TYPE:WALL-INNER
G1 F2700 E36.69891
G1 F1200 X149.651 Y160.776 E38.83927
G1 X149.651 Y100.748 E40.83581
G1 X149.651 Y81.175 E41.48681
G1 X126.918 Y81.173 E42.24291
G1 X126.766 Y81.138 E42.2481
G1 X126.56 Y81.01 E42.25617
G1 X126.422 Y80.81 E42.26425
G1 X126.181 Y80.027 E42.2915
G1 X125.314 Y78.406 E42.35264
G1 X124.143 Y76.979 E42.41403
G1 X122.72 Y75.812 E42.47524
G1 X121.098 Y74.946 E42.5364
G1 X119.332 Y74.409 E42.59779
G1 X117.501 Y74.227 E42.65899
G1 X115.669 Y74.409 E42.72022
G1 X113.903 Y74.945 E42.78161
G1 X112.282 Y75.812 E42.84275
G1 X110.855 Y76.983 E42.90415
G1 X109.688 Y78.406 E42.96536
G1 X108.819 Y80.032 E43.02668
G1 X108.576 Y80.817 E43.05401
G1 X108.394 Y81.05 E43.06384
G1 X108.153 Y81.175 E43.07287
G1 X85.299 Y81.175 E43.833
G1 X85.299 Y160.776 E46.48054
G0 F6000 X84.899 Y161.176
;TYPE:WALL-OUTER
G1 F1200 X150.051 Y161.176 E48.6475
G1 X150.051 Y100.748 E50.65735
G1 X150.051 Y80.775 E51.32165
G1 X126.948 Y80.774 E52.09006
G1 X126.853 Y80.735 E52.09347
G1 X126.79 Y80.654 E52.09689
G1 X126.552 Y79.873 E52.12404
G1 X125.648 Y78.183 E52.18779
G1 X124.427 Y76.695 E52.25181
G1 X122.943 Y75.478 E52.31564
G1 X121.252 Y74.574 E52.37942
G1 X119.41 Y74.015 E52.44344
G1 X117.501 Y73.825 E52.50725
G1 X115.591 Y74.015 E52.57109
G1 X113.749 Y74.574 E52.63511
G1 X112.059 Y75.478 E52.69886
G1 X110.571 Y76.699 E52.76288
G1 X109.354 Y78.183 E52.82671
G1 X108.448 Y79.878 E52.89064
G1 X108.21 Y80.656 E52.9177
G1 X108.055 Y80.774 E52.92418
G1 X84.899 Y80.775 E53.69435
G1 X84.899 Y161.176 E56.3685
G0 F6000 X85.169 Y160.906
G0 X85.399 Y160.416
G0 X85.659 Y160.416
;TYPE:SKIN
G1 F1200 X149.291 Y160.416 E58.48491
G1 X149.291 Y100.747 E60.4695
G1 X149.291 Y81.536 E61.10846
G1 X126.922 Y81.534 E61.85246
G1 X126.565 Y81.449 E61.86467
G1 X126.26 Y81.213 E61.87749
G1 X126.093 Y80.958 E61.88763
G1 X125.844 Y80.165 E61.91528
G1 X125.01 Y78.606 E61.97408
G1 X123.888 Y77.238 E62.03293
G1 X122.516 Y76.114 E62.09192
G1 X120.961 Y75.282 E62.15058
G1 X119.258 Y74.765 E62.20977
G1 X117.501 Y74.59 E62.2685
G1 X115.743 Y74.765 E62.32726
G1 X114.04 Y75.282 E62.38645
G1 X112.482 Y76.116 E62.44523
G1 X111.114 Y77.238 E62.50408
G1 X109.99 Y78.61 E62.56307
G1 X109.154 Y80.174 E62.62205
G1 X108.896 Y81.022 E62.65153
G1 X108.619 Y81.335 E62.66543
G1 X108.308 Y81.495 E62.67707
G1 X108.096 Y81.534 E62.68424
G1 X85.659 Y81.535 E63.43049
G1 X85.659 Y160.416 E66.05409
G1 F2700 E61.05409
G0 F6000 X85.399 Y160.416
G0 X85.119 Y85.294
G0 X115.897 Y84.538
G0 X117.684 Y85.58
G1 F2700 E66.05409
G1 F1200 X117.416 Y85.58 E66.063
G1 X116.561 Y85.358 E66.09238
G1 X116.3 Y85.192 E66.10267
G1 X115.721 Y84.612 E66.12993
G1 X115.568 Y84.347 E66.1401
G1 X115.349 Y83.524 E66.16843
G1 X115.366 Y83.141 E66.18118
G1 X115.545 Y82.464 E66.20447
G1 X115.701 Y82.166 E66.21566
