;FLAVOR:Marlin
;TIME:687
;Filament used: 0.291984m
;Layer height: 0.2
;MINX:97.479
;MINY:97.479
;MINZ:0.2
;MAXX:137.52
;MAXY:137.52
;MAXZ:12.6
;Generated with Cura_SteamEngine main
M140 S50
M105
M190 S50
M104 S200
M105
M109 S200
M82 ;absolute extrusion mode
; Ender 3 Custom Start G-code
G92 E0 ; Reset Extruder
G28 ; Home all axes
G1 Z2.0 F3000 ; Move Z Axis up little to prevent scratching of Heat Bed
G1 X0.1 Y20 Z0.3 F5000.0 ; Move to start position
G1 X0.1 Y200.0 Z0.3 F1500.0 E15 ; Draw the first line
G1 X0.4 Y200.0 Z0.3 F5000.0 ; Move to side a little
G1 X0.4 Y20 Z0.3 F1500.0 E30 ; Draw the second line
G92 E0 ; Reset Extruder
G1 Z2.0 F3000 ; Move Z Axis up little to prevent scratching of Heat Bed
G1 X5 Y20 Z0.3 F5000.0 ; Move over to prevent blob squish
G92 E0
G92 E0
G1 F2700 E-5
;LAYER_COUNT:63
;LAYER:0
M107
G0 F6000 X103.314 Y103.372 Z0.2
G0 X97.619 Y115.448
;TYPE:SKIRT
G1 F2700 E0
G1 F1200 X97.728 Y114.471 E0.0327
G1 X97.874 Y113.545 E0.06388
G1 X98.083 Y112.691 E0.09312
G1 X98.327 Y111.852 E0.12218
G1 X98.668 Y110.762 E0.16017
G1 X98.986 Y109.879 E0.19138
G1 X99.418 Y108.949 E0.22549
G1 X99.887 Y108.052 E0.25915
G1 X100.378 Y107.16 E0.29302
G1 X100.867 Y106.359 E0.32423
G1 X101.379 Y105.657 E0.35313
G1 X101.969 Y104.918 E0.38458
G1 X102.682 Y104.065 E0.42156
G1 X103.314 Y103.372 E0.45276
G1 X104.029 Y102.712 E0.48512
G1 X104.782 Y102.081 E0.5178
G1 X105.601 Y101.423 E0.55274
G1 X106.357 Y100.867 E0.58395
G1 X107.219 Y100.344 E0.61749
G1 X108.408 Y99.698 E0.66249
G1 X109.006 Y99.39 E0.68486
G1 X109.858 Y98.996 E0.71608
G1 X110.736 Y98.678 E0.74714
G1 X111.764 Y98.354 E0.78299
G1 X112.706 Y98.08 E0.81562
G1 X113.617 Y97.86 E0.84679
G1 X114.5 Y97.723 E0.87651
G1 X115.205 Y97.643 E0.90011
G1 X116.52 Y97.523 E0.94403
G1 X117.457 Y97.479 E0.97523
G1 X118.482 Y97.523 E1.00935
G1 X119.551 Y97.619 E1.04505
G1 X120.512 Y97.725 E1.07721
G1 X121.438 Y97.87 E1.10838
G1 X122.385 Y98.104 E1.14083
G1 X123.624 Y98.472 E1.18382
G1 X124.278 Y98.68 E1.20664
G1 X125.159 Y99.002 E1.23784
G1 X125.983 Y99.385 E1.26806
G1 X126.849 Y99.835 E1.30052
G1 X127.798 Y100.355 E1.33651
G1 X128.6 Y100.841 E1.3677
G1 X129.402 Y101.427 E1.40074
G1 X130.242 Y102.102 E1.43658
G1 X130.981 Y102.722 E1.46867
G1 X131.671 Y103.357 E1.49985
G1 X132.318 Y104.066 E1.53178
G1 X133.151 Y105.067 E1.57509
G1 X133.609 Y105.643 E1.59957
G1 X134.161 Y106.401 E1.63076
G1 X134.619 Y107.155 E1.6601
G1 X135.076 Y107.986 E1.69164
G1 X135.584 Y108.959 E1.72815
G1 X135.982 Y109.808 E1.75933
G1 X136.327 Y110.751 E1.79273
G1 X136.648 Y111.772 E1.82833
G1 X136.922 Y112.716 E1.86102
G1 X137.141 Y113.628 E1.89222
G1 X137.273 Y114.48 E1.92089
G1 X137.375 Y115.39 E1.95135
G1 X137.476 Y116.515 E1.98892
G1 X137.52 Y117.452 E2.02012
G1 X137.477 Y118.473 E2.05411
G1 X137.386 Y119.497 E2.0883
G1 X137.277 Y120.489 E2.12149
G1 X137.133 Y121.416 E2.15269
G1 X136.914 Y122.315 E2.18347
G1 X136.654 Y123.205 E2.21431
G1 X136.334 Y124.228 E2.24996
G1 X136.016 Y125.11 E2.28114
G1 X135.591 Y126.027 E2.31476
G1 X134.983 Y127.188 E2.35835
G1 X134.628 Y127.831 E2.38278
G1 X134.14 Y128.632 E2.41397
G1 X133.595 Y129.376 E2.44465
G1 X132.997 Y130.121 E2.47642
G1 X132.297 Y130.956 E2.51266
G1 X131.664 Y131.648 E2.54386
G1 X130.916 Y132.333 E2.57759
G1 X129.938 Y133.146 E2.61989
G1 X129.359 Y133.607 E2.64451
G1 X128.601 Y134.16 E2.67571
G1 X127.787 Y134.652 E2.70735
G1 X126.652 Y135.27 E2.75033
G1 X126.001 Y135.607 E2.77471
G1 X125.15 Y136.002 E2.80592
G1 X124.214 Y136.341 E2.83903
G1 X123.212 Y136.653 E2.87393
G1 X122.303 Y136.917 E2.90542
G1 X121.392 Y137.138 E2.93659
G1 X120.512 Y137.275 E2.96622
G1 X119.857 Y137.35 E2.98814
G1 X118.477 Y137.476 E3.03423
G1 X117.54 Y137.52 E3.06543
G1 X116.523 Y137.477 E3.09929
G1 X115.242 Y137.36 E3.14207
G1 X114.506 Y137.277 E3.16671
G1 X113.58 Y137.132 E3.19788
G1 X112.708 Y136.92 E3.22773
G1 X111.807 Y136.659 E3.25893
G1 X110.774 Y136.336 E3.29493
G1 X109.892 Y136.018 E3.32611
G1 X109.036 Y135.624 E3.35745
G1 X108.172 Y135.177 E3.38981
G1 X107.22 Y134.657 E3.42589
G1 X106.417 Y134.172 E3.45709
G1 X105.651 Y133.617 E3.48855
G1 X105.126 Y133.2 E3.51085
G1 X104.035 Y132.289 E3.55812
G1 X103.343 Y131.656 E3.58932
G1 X102.655 Y130.905 E3.62319
G1 X102.009 Y130.13 E3.65675
G1 X101.405 Y129.377 E3.68885
G1 X100.851 Y128.62 E3.72005
G1 X100.341 Y127.777 E3.75282
G1 X99.697 Y126.591 E3.79771
G1 X99.389 Y125.993 E3.82008
G1 X98.995 Y125.141 E3.8513
G1 X98.673 Y124.252 E3.88275
G1 X98.353 Y123.233 E3.91828
G1 X98.082 Y122.3 E3.95059
G1 X97.862 Y121.389 E3.98176
G1 X97.719 Y120.455 E4.01319
G1 X97.577 Y119.125 E4.05768
G1 X97.518 Y118.427 E4.08097
G1 X97.479 Y117.49 E4.11217
G1 X97.523 Y116.518 E4.14453
G1 X97.619 Y115.448 E4.18026
G0 F6000 X97.879 Y117.474
G1 F1200 X97.921 Y116.554 E4.21089
G1 X98.017 Y115.484 E4.24662
G1 X98.125 Y114.517 E4.27898
G1 X98.27 Y113.608 E4.3096
G1 X98.467 Y112.802 E4.3372
G1 X98.636 Y112.213 E4.35758
G1 X99.05 Y110.881 E4.40397
G1 X99.362 Y110.015 E4.43459
G1 X99.772 Y109.135 E4.46688
G1 X100.241 Y108.238 E4.50054
G1 X100.728 Y107.353 E4.53414
G1 X101.208 Y106.568 E4.56474
G1 X101.692 Y105.906 E4.59202
G1 X102.276 Y105.175 E4.62314
G1 X102.989 Y104.322 E4.66012
G1 X103.61 Y103.642 E4.69074
G1 X104.287 Y103.018 E4.72137
G1 X104.837 Y102.554 E4.7453
G1 X105.852 Y101.735 E4.78868
G1 X106.594 Y101.19 E4.8193
G1 X107.41 Y100.695 E4.85104
G1 X108.591 Y100.053 E4.89575
G1 X109.189 Y99.745 E4.91812
G1 X110.025 Y99.36 E4.94874
G1 X110.857 Y99.059 E4.97816
G1 X111.885 Y98.735 E5.01401
G1 X112.816 Y98.464 E5.04626
G1 X113.711 Y98.249 E5.07688
G1 X114.545 Y98.121 E5.10494
G1 X115.502 Y98.015 E5.13697
G1 X116.555 Y97.921 E5.17213
G1 X117.475 Y97.879 E5.20276
G1 X118.446 Y97.921 E5.23509
G1 X119.515 Y98.017 E5.27079
G1 X120.466 Y98.122 E5.30261
G1 X121.376 Y98.266 E5.33325
G1 X122.272 Y98.488 E5.36395
G1 X123.289 Y98.788 E5.39922
G1 X124.157 Y99.062 E5.42949
G1 X125.021 Y99.378 E5.46009
G1 X125.8 Y99.741 E5.48868
G1 X126.657 Y100.186 E5.52079
G1 X127.606 Y100.706 E5.55679
G1 X128.393 Y101.183 E5.58739
G1 X129.152 Y101.739 E5.61869
G1 X129.992 Y102.414 E5.65453
G1 X130.722 Y103.027 E5.68623
G1 X131.399 Y103.652 E5.71688
G1 X132.011 Y104.323 E5.74709
G1 X132.838 Y105.316 E5.79007
G1 X133.296 Y105.892 E5.81454
G1 X133.837 Y106.637 E5.84517
G1 X134.27 Y107.349 E5.87288
G1 X134.596 Y107.937 E5.89524
G1 X135.229 Y109.144 E5.94057
G1 X135.62 Y109.978 E5.97121
G1 X135.945 Y110.871 E6.00282
G1 X136.266 Y111.892 E6.03841
G1 X136.537 Y112.826 E6.07076
G1 X136.752 Y113.721 E6.10138
G1 X136.876 Y114.526 E6.12847
G1 X136.977 Y115.426 E6.15859
G1 X137.078 Y116.551 E6.19616
G1 X137.12 Y117.471 E6.22679
G1 X137.078 Y118.437 E6.25895
G1 X136.963 Y119.705 E6.30129
G1 X136.88 Y120.445 E6.32606
G1 X136.738 Y121.354 E6.35666
G1 X136.53 Y122.204 E6.38577
G1 X136.273 Y123.086 E6.41632
G1 X135.953 Y124.109 E6.45197
G1 X135.64 Y124.974 E6.48257
G1 X135.237 Y125.842 E6.5144
G1 X134.754 Y126.769 E6.54916
G1 X134.278 Y127.637 E6.58209
G1 X133.798 Y128.423 E6.61272
G1 X133.283 Y129.126 E6.64171
G1 X132.69 Y129.864 E6.67319
G1 X131.99 Y130.699 E6.70943
G1 X131.369 Y131.378 E6.74004
G1 X130.66 Y132.026 E6.77199
G1 X129.689 Y132.834 E6.814
G1 X129.11 Y133.295 E6.83862
G1 X128.365 Y133.836 E6.86924
G1 X127.595 Y134.301 E6.89916
G1 X126.683 Y134.8 E6.93373
G1 X125.817 Y135.251 E6.96621
G1 X124.982 Y135.639 E6.99683
G1 X124.095 Y135.959 E7.0282
G1 X123.093 Y136.271 E7.0631
G1 X122.193 Y136.532 E7.09427
G1 X121.298 Y136.748 E7.12489
G1 X120.467 Y136.877 E7.15286
G1 X119.549 Y136.979 E7.18358
G1 X118.441 Y137.078 E7.22058
G1 X117.522 Y137.12 E7.25118
G1 X116.559 Y137.078 E7.28324
G1 X115.287 Y136.962 E7.32572
G1 X114.551 Y136.879 E7.35036
G1 X113.642 Y136.736 E7.38096
G1 X112.819 Y136.536 E7.40913
G1 X111.927 Y136.277 E7.44002
G1 X110.894 Y135.954 E7.47602
G1 X110.028 Y135.641 E7.50665
G1 X109.218 Y135.268 E7.53631
G1 X108.364 Y134.826 E7.56829
G1 X107.412 Y134.306 E7.60437
G1 X106.624 Y133.83 E7.63499
G1 X105.9 Y133.303 E7.66478
G1 X105.155 Y132.707 E7.69651
G1 X104.292 Y131.983 E7.73397
G1 X103.613 Y131.361 E7.7646
G1 X102.963 Y130.649 E7.79667
G1 X102.179 Y129.705 E7.83748
G1 X101.717 Y129.127 E7.86209
G1 X101.174 Y128.384 E7.8927
G1 X100.692 Y127.586 E7.92371
G1 X100.052 Y126.408 E7.9683
G1 X99.744 Y125.81 E7.99067
G1 X99.359 Y124.974 E8.02128
G1 X99.055 Y124.132 E8.05106
G1 X98.66 Y122.865 E8.0952
G1 X98.466 Y122.19 E8.11856
G1 X98.251 Y121.295 E8.14917
G1 X98.117 Y120.412 E8.17888
G1 X97.976 Y119.092 E8.22303
G1 X97.917 Y118.394 E8.24633
G1 X97.879 Y117.474 E8.27695
G0 F6000 X98.279 Y117.458
G1 F1200 X98.32 Y116.59 E8.30586
G1 X98.441 Y115.268 E8.35001
G1 X98.522 Y114.562 E8.37364
G1 X98.665 Y113.671 E8.40366
G1 X98.852 Y112.912 E8.42966
G1 X99.09 Y112.091 E8.45809
G1 X99.431 Y111.001 E8.49608
G1 X99.739 Y110.151 E8.52615
G1 X100.127 Y109.32 E8.55665
G1 X100.596 Y108.423 E8.59031
G1 X101.078 Y107.547 E8.62357
G1 X101.55 Y106.777 E8.65361
G1 X102.006 Y106.154 E8.67929
G1 X102.583 Y105.431 E8.71005
G1 X103.296 Y104.578 E8.74703
G1 X103.905 Y103.912 E8.77705
G1 X104.545 Y103.324 E8.80595
G1 X105.284 Y102.704 E8.83804
G1 X106.103 Y102.046 E8.87298
G1 X106.831 Y101.513 E8.90299
G1 X107.602 Y101.046 E8.93297
G1 X108.556 Y100.525 E8.96912
G1 X109.373 Y100.101 E8.99974
G1 X110.193 Y99.724 E9.02976
G1 X110.977 Y99.441 E9.05748
G1 X112.257 Y99.041 E9.10208
G1 X112.926 Y98.849 E9.12523
G1 X113.804 Y98.638 E9.15527
G1 X114.59 Y98.518 E9.18171
G1 X115.538 Y98.413 E9.21343
G1 X116.591 Y98.319 E9.2486
G1 X117.493 Y98.279 E9.27863
G1 X118.41 Y98.32 E9.30916
G1 X119.479 Y98.416 E9.34485
G1 X120.421 Y98.52 E9.37638
G1 X121.313 Y98.661 E9.40641
G1 X122.159 Y98.872 E9.43541
G1 X123.176 Y99.172 E9.47068
G1 X124.035 Y99.443 E9.50064
G1 X124.883 Y99.754 E9.53068
G1 X125.617 Y100.096 E9.55761
G1 X126.236 Y100.415 E9.58077
G1 X127.413 Y101.057 E9.62536
G1 X128.185 Y101.525 E9.65539
G1 X128.901 Y102.051 E9.68494
G1 X129.741 Y102.726 E9.72078
G1 X130.464 Y103.333 E9.75218
G1 X131.128 Y103.946 E9.78224
G1 X131.705 Y104.58 E9.81075
G1 X132.525 Y105.565 E9.85338
G1 X132.983 Y106.141 E9.87785
G1 X133.513 Y106.872 E9.90789
G1 X133.92 Y107.543 E9.93399
G1 X134.367 Y108.356 E9.96485
G1 X134.875 Y109.329 E10.00135
G1 X135.257 Y110.148 E10.03141
G1 X135.563 Y110.991 E10.06124
G1 X135.884 Y112.012 E10.09684
G1 X136.152 Y112.936 E10.12883
G1 X136.362 Y113.814 E10.15886
G1 X136.479 Y114.572 E10.18437
G1 X136.552 Y115.204 E10.20553
G1 X136.679 Y116.587 E10.25172
G1 X136.72 Y117.489 E10.28175
G1 X136.68 Y118.402 E10.31215
G1 X136.589 Y119.426 E10.34634
G1 X136.482 Y120.4 E10.37893
G1 X136.342 Y121.292 E10.40896
G1 X136.146 Y122.093 E10.43639
G1 X135.956 Y122.751 E10.45917
G1 X135.571 Y123.989 E10.50229
G1 X135.263 Y124.838 E10.53233
G1 X134.882 Y125.657 E10.56237
G1 X134.399 Y126.584 E10.59714
G1 X133.927 Y127.444 E10.62977
G1 X133.456 Y128.214 E10.65979
G1 X132.97 Y128.877 E10.68713
G1 X132.384 Y129.607 E10.71827
G1 X131.684 Y130.442 E10.75451
G1 X131.073 Y131.108 E10.78457
G1 X130.404 Y131.719 E10.8147
G1 X129.623 Y132.371 E10.84854
G1 X128.86 Y132.982 E10.88105
G1 X128.13 Y133.512 E10.91106
G1 X127.403 Y133.95 E10.93929
G1 X126.491 Y134.449 E10.97386
G1 X125.633 Y134.896 E11.00604
G1 X124.814 Y135.276 E11.03607
G1 X123.976 Y135.577 E11.06569
G1 X122.974 Y135.889 E11.10059
G1 X122.082 Y136.148 E11.13148
G1 X121.204 Y136.359 E11.16152
G1 X120.421 Y136.48 E11.18787
G1 X119.514 Y136.581 E11.21822
G1 X118.406 Y136.68 E11.25522
G1 X117.504 Y136.72 E11.28525
G1 X116.594 Y136.68 E11.31555
G1 X115.332 Y136.565 E11.3577
G1 X114.596 Y136.482 E11.38233
G1 X113.704 Y136.341 E11.41237
G1 X112.929 Y136.151 E11.43891
G1 X112.046 Y135.895 E11.46949
G1 X111.013 Y135.572 E11.50548
G1 X110.164 Y135.265 E11.53551
G1 X109.401 Y134.912 E11.56347
G1 X108.555 Y134.475 E11.59514
G1 X107.603 Y133.955 E11.63122
G1 X106.831 Y133.487 E11.66125
G1 X106.149 Y132.99 E11.68932
G1 X105.412 Y132.4 E11.72072
G1 X104.549 Y131.676 E11.75818
G1 X103.884 Y131.066 E11.7882
G1 X103.27 Y130.393 E11.8185
G1 X102.491 Y129.456 E11.85903
G1 X102.029 Y128.878 E11.88364
G1 X101.497 Y128.148 E11.91368
G1 X101.043 Y127.394 E11.94295
G1 X100.522 Y126.439 E11.97914
G1 X100.1 Y125.626 E12.0096
G1 X99.723 Y124.806 E12.03962
G1 X99.437 Y124.012 E12.06769
G1 X99.045 Y122.754 E12.11151
G1 X98.851 Y122.079 E12.13487
G1 X98.64 Y121.201 E12.16491
G1 X98.514 Y120.369 E12.1929
G1 X98.398 Y119.306 E12.22846
G1 X98.315 Y118.36 E12.26005
G1 X98.279 Y117.458 E12.29007
G1 F2700 E7.29007
;MESH:wheel_rear_pt1.stl
G0 F6000 X114.443 Y120.764
G0 X117.686 Y121.907
;TYPE:WALL-INNER
G1 F2700 E12.29007
G1 F1200 X115.959 Y121.562 E12.34865
G1 X114.508 Y120.591 E12.40672
G1 X113.536 Y119.135 E12.46494
G1 X113.193 Y117.413 E12.52334
G1 X113.531 Y115.7 E12.58141
G1 X114.508 Y114.235 E12.63998
G1 X115.967 Y113.264 E12.69827
G1 X117.626 Y112.933 E12.75454
G1 X117.804 Y112.942 E12.76047
G1 X119.401 Y113.26 E12.81463
G1 X120.863 Y114.236 E12.87309
G1 X121.836 Y115.692 E12.93134
G1 X122.178 Y117.413 E12.9897
G1 X121.835 Y119.143 E13.04836
G1 X120.866 Y120.588 E13.10622
G1 X119.41 Y121.561 E13.16447
G1 X117.686 Y121.907 E13.22295
G0 F6000 X117.686 Y121.501
;TYPE:WALL-OUTER
G1 F1200 X116.12 Y121.188 E13.27607
G1 X114.801 Y120.309 E13.32879
G1 X113.911 Y118.979 E13.38201
G1 X113.599 Y117.413 E13.43512
G1 X113.912 Y115.846 E13.48827
G1 X114.796 Y114.523 E13.54119
G1 X116.12 Y113.64 E13.59412
G1 X117.666 Y113.331 E13.64656
G1 X117.726 Y113.334 E13.64856
G1 X119.249 Y113.637 E13.70021
G1 X120.582 Y114.529 E13.75355
G1 X121.459 Y115.85 E13.80629
G1 X121.772 Y117.413 E13.85931
G1 X121.461 Y118.979 E13.91241
G1 X120.577 Y120.302 E13.96533
G1 X119.251 Y121.188 E14.01838
G1 X117.686 Y121.501 E14.07146
G1 F2700 E9.07146
G0 F6000 X117.627 Y121.796
G0 X117.628 Y122.077
G0 X117.676 Y125.708
G0 X117.499 Y125.927
;TYPE:WALL-INNER
G1 F2700 E14.07146
G1 F1200 X119.141 Y125.764 E14.12634
G1 X120.726 Y125.284 E14.18142
G1 X122.179 Y124.506 E14.23624
G1 X123.46 Y123.456 E14.29133
G1 X124.506 Y122.18 E14.34621
G1 X125.284 Y120.722 E14.40117
G1 X125.764 Y119.141 E14.45613
G1 X125.926 Y117.498 E14.51104
G1 X125.764 Y115.858 E14.56585
G1 X125.283 Y114.273 E14.62094
G1 X124.506 Y112.82 E14.67575
G1 X123.456 Y111.539 E14.73084
G1 X122.179 Y110.494 E14.78572
G1 X120.726 Y109.716 E14.84054
G1 X119.141 Y109.235 E14.89563
G1 X117.499 Y109.073 E14.95051
G1 X115.858 Y109.235 E15.00535
G1 X114.466 Y109.657 E15.05373
G1 X114.274 Y109.717 E15.06042
G1 X112.819 Y110.494 E15.11528
G1 X111.539 Y111.543 E15.17033
G1 X110.493 Y112.82 E15.22523
G1 X109.714 Y114.277 E15.28018
G1 X109.235 Y115.858 E15.33512
G1 X109.072 Y117.502 E15.39007
G1 X109.235 Y119.141 E15.44485
G1 X109.714 Y120.722 E15.4998
G1 X110.493 Y122.18 E15.55478
G1 X111.539 Y123.456 E15.60966
G1 X112.82 Y124.506 E15.66475
G1 X114.273 Y125.283 E15.71955
G1 X115.858 Y125.764 E15.77464
G1 X117.499 Y125.927 E15.82949
G0 F6000 X117.499 Y126.329
;TYPE:WALL-OUTER
G1 F1200 X119.219 Y126.158 E15.88698
G1 X120.88 Y125.655 E15.9447
G1 X122.402 Y124.84 E16.00213
G1 X123.744 Y123.74 E16.05984
G1 X124.84 Y122.403 E16.11734
G1 X125.656 Y120.876 E16.17492
G1 X126.158 Y119.219 E16.23251
G1 X126.328 Y117.498 E16.29003
G1 X126.158 Y115.78 E16.34745
G1 X125.654 Y114.119 E16.40518
G1 X124.84 Y112.597 E16.46259
G1 X123.74 Y111.255 E16.5203
G1 X122.402 Y110.16 E16.57781
G1 X120.88 Y109.345 E16.63523
G1 X119.219 Y108.841 E16.69296
G1 X117.499 Y108.671 E16.75045
G1 X115.78 Y108.841 E16.8079
G1 X114.35 Y109.275 E16.85761
G1 X114.12 Y109.345 E16.8656
G1 X112.596 Y110.16 E16.92308
G1 X111.255 Y111.259 E16.98075
G1 X110.159 Y112.597 E17.03828
