;FLAVOR:Marlin
;TIME:1123
;Filament used: 0.58509m
;Layer height: 0.2
;MINX:93.178
;MINY:92.841
;MINZ:0.2
;MAXX:141.828
;MAXY:142.155
;MAXZ:8.4
;Generated with Cura_SteamEngine main
M140 S50
M105
M190 S50
M104 S200
M105
M109 S200
M82 ;absolute extrusion mode
; Ender 3 Custom Start G-code
G92 E0 ; Reset Extruder
G28 ; Home all axes
G1 Z2.0 F3000 ; Move Z Axis up little to prevent scratching of Heat Bed
G1 X0.1 Y20 Z0.3 F5000.0 ; Move to start position
G1 X0.1 Y200.0 Z0.3 F1500.0 E15 ; Draw the first line
G1 X0.4 Y200.0 Z0.3 F5000.0 ; Move to side a little
G1 X0.4 Y20 Z0.3 F1500.0 E30 ; Draw the second line
G92 E0 ; Reset Extruder
G1 Z2.0 F3000 ; Move Z Axis up little to prevent scratching of Heat Bed
G1 X5 Y20 Z0.3 F5000.0 ; Move over to prevent blob squish
G92 E0
G92 E0
G1 F2700 E-5
;LAYER_COUNT:42
;LAYER:0
M107
G0 F6000 X100.885 Y99.555 Z0.2
G0 X98.787 Y102.92
;TYPE:SKIRT
G1 F2700 E0
G1 F1200 X98.877 Y102.704 E0.00778
G1 X99.276 Y101.855 E0.03898
G1 X99.746 Y101.044 E0.07016
G1 X100.284 Y100.275 E0.10138
G1 X100.885 Y99.555 E0.13257
G1 X101.545 Y98.889 E0.16375
G1 X102.01 Y98.481 E0.18433
G1 X102.461 Y98.108 E0.2038
G1 X103.051 Y97.644 E0.22876
G1 X103.816 Y97.102 E0.25994
G1 X104.624 Y96.626 E0.29113
G1 X105.47 Y96.221 E0.32233
G1 X106.347 Y95.89 E0.35351
G1 X107.25 Y95.634 E0.38473
G1 X107.84 Y95.511 E0.40477
G1 X108.687 Y95.358 E0.4334
G1 X111.214 Y94.864 E0.51904
G1 X113.632 Y94.322 E0.60146
G1 X117.091 Y93.421 E0.72034
G1 X117.69 Y93.252 E0.74104
G1 X118.603 Y93.036 E0.77225
G1 X119.531 Y92.899 E0.80345
G1 X120.467 Y92.841 E0.83464
G1 X121.405 Y92.863 E0.86584
G1 X122.337 Y92.965 E0.89703
G1 X122.957 Y93.078 E0.91799
G1 X123.858 Y93.274 E0.94866
G1 X124.262 Y93.373 E0.96249
G1 X125.163 Y93.635 E0.9937
G1 X126.038 Y93.973 E1.0249
G1 X126.881 Y94.383 E1.05608
G1 X127.686 Y94.865 E1.08729
G1 X128.447 Y95.413 E1.11848
G1 X128.89 Y95.781 E1.13763
G1 X129.456 Y96.277 E1.16266
G1 X131.426 Y97.954 E1.24871
G1 X133.377 Y99.523 E1.33198
G1 X135.394 Y101.052 E1.41616
G1 X136.556 Y101.888 E1.46377
G1 X136.95 Y102.181 E1.48011
G1 X137.678 Y102.772 E1.51129
G1 X138.353 Y103.424 E1.54251
G1 X138.97 Y104.13 E1.57369
G1 X139.525 Y104.886 E1.60488
G1 X140.184 Y106.009 E1.64819
G1 X140.547 Y106.738 E1.67528
G1 X140.814 Y107.316 E1.69645
G1 X141.171 Y108.183 E1.72764
G1 X141.452 Y109.078 E1.75884
G1 X141.656 Y109.993 E1.79002
G1 X141.782 Y110.923 E1.82124
G1 X141.828 Y111.86 E1.85244
G1 X141.815 Y112.47 E1.87273
G1 X141.784 Y113.109 E1.89401
G1 X141.694 Y115.719 E1.98087
G1 X141.678 Y118.208 E2.06366
G1 X141.789 Y122.049 E2.19146
G1 X141.813 Y122.519 E2.20711
G1 X141.82 Y123.457 E2.23831
G1 X141.747 Y124.392 E2.26951
G1 X141.595 Y125.317 E2.30068
G1 X141.364 Y126.226 E2.33188
G1 X141.057 Y127.112 E2.36307
G1 X140.819 Y127.669 E2.38321
G1 X140.604 Y128.136 E2.40031
G1 X140.257 Y128.848 E2.42666
G1 X139.807 Y129.671 E2.45785
G1 X139.288 Y130.452 E2.48904
G1 X138.704 Y131.186 E2.52024
G1 X138.061 Y131.868 E2.55142
G1 X137.361 Y132.493 E2.58263
G1 X136.873 Y132.87 E2.60314
G1 X135.892 Y133.586 E2.64353
G1 X133.826 Y135.135 E2.72942
G1 X131.853 Y136.704 E2.81326
G1 X129.906 Y138.346 E2.89797
G1 X128.953 Y139.184 E2.94018
G1 X128.222 Y139.773 E2.9714
G1 X127.445 Y140.297 E3.00257
G1 X126.625 Y140.753 E3.03378
G1 X125.77 Y141.138 E3.06497
G1 X124.885 Y141.448 E3.09616
G1 X124.335 Y141.6 E3.11513
G1 X123.604 Y141.781 E3.14018
G1 X122.903 Y141.934 E3.16405
G1 X121.977 Y142.084 E3.19525
G1 X121.042 Y142.155 E3.22643
G1 X120.104 Y142.146 E3.25763
G1 X119.17 Y142.057 E3.28884
G1 X118.247 Y141.889 E3.32004
G1 X117.723 Y141.756 E3.33802
G1 X116.957 Y141.542 E3.36448
G1 X114.381 Y140.864 E3.45307
G1 X111.949 Y140.297 E3.53613
G1 X108.899 Y139.684 E3.6396
G1 X107.803 Y139.482 E3.67667
G1 X106.889 Y139.273 E3.70785
G1 X105.996 Y138.987 E3.73904
G1 X105.13 Y138.626 E3.77025
G1 X104.299 Y138.193 E3.80141
G1 X103.507 Y137.69 E3.83262
G1 X103.088 Y137.384 E3.84988
G1 X102.733 Y137.111 E3.86477
G1 X102.032 Y136.541 E3.89482
G1 X101.334 Y135.914 E3.92603
G1 X100.692 Y135.23 E3.95723
G1 X100.11 Y134.494 E3.98844
G1 X99.594 Y133.712 E4.0196
G1 X99.146 Y132.888 E4.05079
G1 X98.902 Y132.354 E4.07032
G1 X98.571 Y131.576 E4.09844
G1 X97.541 Y129.244 E4.18323
G1 X96.45 Y126.952 E4.26766
G1 X95.278 Y124.657 E4.35337
G1 X94.585 Y123.38 E4.4017
G1 X94.426 Y123.074 E4.41316
G1 X94.029 Y122.224 E4.44437
G1 X93.707 Y121.343 E4.47557
G1 X93.46 Y120.438 E4.50677
G1 X93.292 Y119.516 E4.53794
G1 X93.192 Y118.333 E4.57742
G1 X93.178 Y117.507 E4.6049
G1 X93.188 Y116.834 E4.62729
G1 X93.242 Y115.897 E4.6585
G1 X93.376 Y114.969 E4.68969
G1 X93.588 Y114.055 E4.7209
G1 X93.877 Y113.163 E4.75208
G1 X94.241 Y112.299 E4.78327
G1 X94.51 Y111.767 E4.80309
G1 X94.937 Y110.978 E4.83293
G1 X96.13 Y108.69 E4.91876
G1 X97.231 Y106.426 E5.00249
G1 X98.787 Y102.92 E5.13007
G1 F2700 E0.13007
G0 F6000 X97.581 Y106.621
G1 F2700 E5.13007
G1 F1200 X99.246 Y102.859 E5.2669
G1 X99.638 Y102.026 E5.29752
G1 X100.102 Y101.23 E5.32816
G1 X100.632 Y100.478 E5.35876
G1 X101.226 Y99.775 E5.38937
G1 X101.879 Y99.125 E5.42002
G1 X102.265 Y98.79 E5.43702
G1 X102.975 Y98.209 E5.46753
G1 X103.296 Y97.96 E5.48104
G1 X104.047 Y97.428 E5.51165
G1 X104.842 Y96.963 E5.54229
G1 X105.674 Y96.569 E5.5729
G1 X106.537 Y96.248 E5.60353
G1 X107.425 Y96.004 E5.63416
G1 X107.911 Y95.904 E5.65066
G1 X108.77 Y95.749 E5.67969
G1 X111.307 Y95.253 E5.76567
G1 X113.73 Y94.71 E5.84826
G1 X117.204 Y93.805 E5.96766
G1 X117.799 Y93.637 E5.98823
G1 X118.695 Y93.426 E6.01884
G1 X119.606 Y93.293 E6.04946
G1 X120.525 Y93.24 E6.08008
G1 X121.446 Y93.267 E6.11073
G1 X122.36 Y93.373 E6.14133
G1 X122.874 Y93.469 E6.15872
G1 X123.436 Y93.588 E6.17783
G1 X124.167 Y93.762 E6.20282
G1 X125.051 Y94.019 E6.23344
G1 X125.909 Y94.353 E6.26406
G1 X126.735 Y94.759 E6.29467
G1 X127.522 Y95.236 E6.32528
G1 X128.266 Y95.78 E6.35594
G1 X128.627 Y96.082 E6.37159
G1 X129.176 Y96.563 E6.39587
G1 X131.162 Y98.254 E6.48262
G1 X133.147 Y99.85 E6.56734
G1 X135.165 Y101.38 E6.65157
G1 X136.317 Y102.209 E6.69877
G1 X136.711 Y102.502 E6.7151
G1 X137.426 Y103.083 E6.74575
G1 X138.087 Y103.724 E6.77637
G1 X138.69 Y104.42 E6.807
G1 X139.23 Y105.165 E6.8376
G1 X139.828 Y106.191 E6.8771
G1 X140.184 Y106.906 E6.90367
G1 X140.451 Y107.484 E6.92484
G1 X140.8 Y108.336 E6.95547
G1 X141.075 Y109.214 E6.98607
G1 X141.271 Y110.114 E7.0167
G1 X141.39 Y111.027 E7.04733
G1 X141.428 Y111.947 E7.07795
G1 X141.415 Y112.45 E7.09469
G1 X141.384 Y113.075 E7.1155
G1 X141.294 Y115.703 E7.20296
G1 X141.278 Y118.189 E7.28565
G1 X141.39 Y122.055 E7.41428
G1 X141.414 Y122.539 E7.4304
G1 X141.42 Y123.459 E7.461
G1 X141.346 Y124.377 E7.49163
G1 X141.193 Y125.285 E7.52226
G1 X140.961 Y126.176 E7.55288
G1 X140.654 Y127.044 E7.58351
G1 X140.456 Y127.502 E7.6001
G1 X140.241 Y127.969 E7.6172
G1 X139.898 Y128.671 E7.64319
G1 X139.456 Y129.478 E7.67379
G1 X138.944 Y130.244 E7.70443
G1 X138.369 Y130.963 E7.73506
G1 X137.733 Y131.629 E7.76568
G1 X137.042 Y132.237 E7.7963
G1 X136.637 Y132.547 E7.81326
G1 X135.656 Y133.263 E7.85366
G1 X133.583 Y134.818 E7.93985
G1 X131.592 Y136.401 E8.02445
G1 X129.669 Y138.023 E8.10812
G1 X128.689 Y138.884 E8.15151
G1 X127.971 Y139.461 E8.18214
G1 X127.207 Y139.974 E8.21275
G1 X126.4 Y140.418 E8.24339
G1 X125.559 Y140.791 E8.27399
G1 X124.688 Y141.09 E8.30462
G1 X124.239 Y141.211 E8.32008
G1 X123.508 Y141.392 E8.34513
G1 X122.822 Y141.542 E8.36848
G1 X121.913 Y141.689 E8.39911
G1 X120.995 Y141.756 E8.42972
G1 X120.074 Y141.744 E8.46036
G1 X119.158 Y141.651 E8.49098
G1 X117.831 Y141.371 E8.53609
G1 X117.055 Y141.155 E8.56288
G1 X114.493 Y140.48 E8.651
G1 X112.026 Y139.905 E8.73525
G1 X108.984 Y139.293 E8.83846
G1 X107.876 Y139.089 E8.87593
G1 X106.978 Y138.883 E8.90657
G1 X106.102 Y138.6 E8.93719
G1 X105.254 Y138.242 E8.96781
G1 X104.44 Y137.812 E8.99843
G1 X103.332 Y137.067 E9.04283
G1 X102.977 Y136.794 E9.05773
G1 X102.286 Y136.232 E9.08735
G1 X101.601 Y135.616 E9.11799
G1 X100.973 Y134.944 E9.14859
G1 X100.405 Y134.219 E9.17922
G1 X99.902 Y133.448 E9.20984
G1 X99.468 Y132.636 E9.24046
G1 X99.27 Y132.197 E9.25648
G1 X98.934 Y131.407 E9.28503
G1 X97.897 Y129.06 E9.37037
G1 X96.811 Y126.777 E9.45446
G1 X95.652 Y124.509 E9.53917
G1 X95.034 Y123.372 E9.58221
G1 X94.781 Y122.889 E9.60035
G1 X94.392 Y122.055 E9.63096
G1 X94.078 Y121.19 E9.66156
G1 X93.839 Y120.3 E9.69221
G1 X93.679 Y119.394 E9.72281
G1 X93.592 Y118.321 E9.75862
G1 X93.578 Y117.513 E9.7855
G1 X93.588 Y116.84 E9.80788
G1 X93.642 Y115.92 E9.83854
G1 X93.775 Y115.009 E9.86916
G1 X93.987 Y114.113 E9.89978
G1 X94.275 Y113.239 E9.93039
G1 X94.639 Y112.393 E9.96102
G1 X94.862 Y111.957 E9.97731
G1 X95.271 Y111.2 E10.00593
G1 X96.5 Y108.843 E10.09434
G1 X97.581 Y106.621 E10.17652
G1 F2700 E5.17652
G0 F6000 X93.978 Y117.518
G1 F2700 E10.17652
G1 F1200 X93.988 Y116.845 E10.19891
G1 X94.042 Y115.944 E10.22893
G1 X94.174 Y115.051 E10.25895
G1 X94.386 Y114.173 E10.289
G1 X94.674 Y113.317 E10.31904
G1 X95.214 Y112.147 E10.36189
G1 X95.634 Y111.369 E10.3913
G1 X96.857 Y109.024 E10.47927
G1 X97.949 Y106.78 E10.56227
G1 X99.615 Y103.013 E10.69927
G1 X100 Y102.197 E10.72928
G1 X100.457 Y101.418 E10.75932
G1 X100.981 Y100.682 E10.78937
G1 X101.567 Y99.995 E10.8194
G1 X102.52 Y99.098 E10.86293
G1 X102.971 Y98.725 E10.88239
G1 X103.541 Y98.277 E10.90651
G1 X104.279 Y97.755 E10.93657
G1 X105.059 Y97.301 E10.96659
G1 X105.877 Y96.918 E10.99663
G1 X106.725 Y96.608 E11.02666
G1 X107.982 Y96.298 E11.06972
G1 X108.852 Y96.141 E11.09913
G1 X111.392 Y95.644 E11.18521
G1 X113.808 Y95.103 E11.26755
G1 X117.317 Y94.189 E11.38816
G1 X117.908 Y94.022 E11.40858
G1 X118.787 Y93.816 E11.43861
G1 X119.681 Y93.688 E11.46865
G1 X120.583 Y93.639 E11.4987
G1 X121.485 Y93.671 E11.52871
G1 X122.791 Y93.86 E11.57261
G1 X123.353 Y93.979 E11.59171
G1 X124.072 Y94.15 E11.61629
G1 X124.938 Y94.404 E11.64631
G1 X125.779 Y94.733 E11.67635
G1 X126.588 Y95.135 E11.70639
G1 X127.358 Y95.608 E11.73645
G1 X128.363 Y96.383 E11.77866
G1 X128.902 Y96.855 E11.80249
G1 X130.915 Y98.569 E11.89042
G1 X132.883 Y100.152 E11.97443
G1 X134.93 Y101.704 E12.05987
G1 X136.079 Y102.53 E12.10693
G1 X136.473 Y102.823 E12.12326
G1 X137.173 Y103.394 E12.15331
G1 X137.82 Y104.024 E12.18334
G1 X138.408 Y104.709 E12.21337
G1 X138.934 Y105.443 E12.2434
G1 X139.472 Y106.372 E12.27911
G1 X139.821 Y107.074 E12.30519
G1 X140.088 Y107.652 E12.32636
G1 X140.43 Y108.487 E12.35637
G1 X140.697 Y109.35 E12.38642
G1 X140.886 Y110.233 E12.41645
G1 X140.997 Y111.13 E12.44652
G1 X141.016 Y112.431 E12.48979
G1 X140.983 Y113.109 E12.51237
G1 X140.894 Y115.687 E12.59816
G1 X140.878 Y118.198 E12.68168
G1 X140.992 Y122.113 E12.81195
G1 X141.014 Y122.559 E12.8268
G1 X141.019 Y123.462 E12.85684
G1 X140.945 Y124.362 E12.88687
G1 X140.791 Y125.252 E12.91691
G1 X140.559 Y126.125 E12.94696
G1 X140.092 Y127.335 E12.9901
G1 X139.76 Y128.048 E13.01625
G1 X139.54 Y128.494 E13.0328
G1 X139.105 Y129.286 E13.06285
G1 X138.601 Y130.036 E13.0929
G1 X138.034 Y130.738 E13.12292
G1 X137.406 Y131.387 E13.15295
G1 X136.401 Y132.224 E13.19645
G1 X135.42 Y132.94 E13.23685
G1 X133.339 Y134.5 E13.32335
G1 X131.369 Y136.067 E13.40708
G1 X129.379 Y137.745 E13.49365
G1 X128.425 Y138.584 E13.53591
G1 X127.72 Y139.149 E13.56596
G1 X126.969 Y139.65 E13.59598
G1 X126.176 Y140.083 E13.62603
G1 X125.349 Y140.444 E13.65605
G1 X124.143 Y140.823 E13.69809
G1 X123.412 Y141.004 E13.72314
G1 X122.741 Y141.15 E13.74598
G1 X121.849 Y141.294 E13.77603
G1 X120.948 Y141.357 E13.80607
G1 X120.045 Y141.341 E13.83611
G1 X119.147 Y141.245 E13.86615
G1 X117.938 Y140.986 E13.90727
G1 X117.118 Y140.757 E13.93559
G1 X114.581 Y140.089 E14.02285
G1 X112.13 Y139.518 E14.10655
G1 X109.08 Y138.904 E14.21003
G1 X107.948 Y138.696 E14.24831
G1 X107.068 Y138.493 E14.27835
G1 X106.209 Y138.213 E14.3084
G1 X105.379 Y137.859 E14.33841
G1 X104.583 Y137.432 E14.36845
G1 X103.576 Y136.75 E14.4089
G1 X103.221 Y136.477 E14.4238
G1 X102.54 Y135.923 E14.453
G1 X101.869 Y135.319 E14.48303
G1 X101.254 Y134.657 E14.51308
G1 X100.7 Y133.944 E14.54311
G1 X100.212 Y133.185 E14.57312
G1 X99.638 Y132.041 E14.61569
G1 X99.322 Y131.299 E14.64252
G1 X98.247 Y128.863 E14.73108
G1 X97.17 Y126.602 E14.81437
G1 X96.01 Y124.33 E14.89922
G1 X95.385 Y123.181 E14.94272
G1 X95.136 Y122.705 E14.96059
G1 X94.755 Y121.886 E14.99063
G1 X94.449 Y121.037 E15.02065
G1 X94.219 Y120.163 E15.05071
G1 X94.067 Y119.273 E15.08074
G1 X93.992 Y118.309 E15.1129
G1 X93.978 Y117.518 E15.13921
G1 F2700 E10.13921
;MESH:wheel_rear_pt2.stl
G0 F6000 X108.987 Y124.379
G0 X120.826 Y130.523
;TYPE:WALL-INNER
G1 F2700 E15.13921
G1 F1200 X121.265 Y130.422 E15.1542
G1 X121.439 Y130.07 E15.16725
G1 X121.569 Y129.767 E15.17822
G1 X121.688 Y129.449 E15.18951
G1 X121.843 Y128.934 E15.2074
G1 X121.918 Y128.618 E15.2182
G1 X121.986 Y128.223 E15.23154
G1 X122.018 Y127.927 E15.24144
G1 X122.03 Y127.551 E15.25395
G1 X122.016 Y127.248 E15.26404
G1 X121.954 Y126.899 E15.27583
G1 X121.281 Y125.497 E15.32755
G1 X121.222 Y125.245 E15.33616
G1 X121.297 Y124.944 E15.34648
G1 X121.341 Y124.902 E15.3485
G1 X121.057 Y124.943 E15.35805
G1 X120.021 Y124.666 E15.39371
G1 X119.869 Y124.557 E15.39993
G1 X119.166 Y123.855 E15.43298
G1 X119.084 Y123.708 E15.43858
G1 X118.815 Y122.701 E15.47324
G1 X118.838 Y122.479 E15.48067
G1 X119.066 Y121.629 E15.50994
G1 X119.221 Y121.359 E15.52029
G1 X119.402 Y121.179 E15.52878
G1 X117.886 Y121.478 E15.58018
G1 X116.218 Y121.148 E15.63673
G1 X114.794 Y120.198 E15.69366
G1 X113.845 Y118.776 E15.75053
G1 X113.51 Y117.094 E15.80757
G1 X113.841 Y115.428 E15.86406
G1 X114.774 Y114.028 E15.92002
G1 X113.912 Y113.8 E15.94968
G1 X113.678 Y113.677 E15.95847
G1 X113.013 Y113.015 E15.98968
G1 X112.866 Y112.773 E15.99909
G1 X112.611 Y111.818 E16.03197
G1 X112.612 Y111.642 E16.03782
G1 X112.861 Y110.711 E16.06988
G1 X112.958 Y110.509 E16.07733
G1 F1197 X113.724 Y109.742 E16.11348
G1 F1191.1 X113.894 Y109.67 E16.11966
G1 F1185.2 X113.741 Y109.61 E16.1252
G1 F1194 X113.503 Y109.348 E16.13703
G1 F1200 X113.135 Y108.596 E16.16487
G1 X112.839 Y108.273 E16.17945
G1 X112.486 Y107.995 E16.19439
G1 X112.136 Y107.761 E16.20839
G1 X111.641 Y107.498 E16.22704
G1 X111.273 Y107.342 E16.24033
G1 X110.862 Y107.191 E16.25489
G1 X110.33 Y107.036 E16.27332
G1 X109.97 Y106.954 E16.2856
G1 X109.613 Y107.238 E16.30078
G1 X109.609 Y107.554 E16.31129
G1 X109.619 Y107.834 E16.32061
G1 X109.65 Y108.224 E16.33362
G1 X109.688 Y108.534 E16.34401
G1 X109.758 Y108.923 E16.35715
G1 X109.86 Y109.344 E16.37156
G1 X110.006 Y109.781 E16.38689
G1 X110.157 Y110.123 E16.39932
G1 X110.284 Y110.36 E16.40826
G1 X110.502 Y110.688 E16.42136
G1 X111.2 Y111.248 E16.45113
G1 X111.398 Y111.567 E16.46361
G1 X111.39 Y111.876 E16.47389
G1 X111.278 Y112.09 E16.48193
G1 X110.942 Y112.5 E16.49956
G1 X110.166 Y113.955 E16.5544
G1 X109.65 Y115.656 E16.61353
G1 X109.459 Y115.911 E16.62412
G1 X109.186 Y116.031 E16.63404
G1 X109.009 Y116.034 E16.63993
G1 X108.077 Y115.823 E16.67171
G1 X107.749 Y115.832 E16.68262
G1 X107.34 Y115.908 E16.69646
G1 X106.969 Y116.01 E16.70926
G1 X106.664 Y116.122 E16.72007
G1 X106.399 Y116.235 E16.72965
G1 X106.054 Y116.407 E16.74247
G1 X105.569 Y116.69 E16.76115
G1 X105.339 Y116.843 E16.77033
G1 X105.016 Y117.079 E16.78364
G1 X104.777 Y117.276 E16.79394
G1 X104.778 Y117.726 E16.80891
G1 X105.199 Y118.057 E16.82672
G1 X105.681 Y118.38 E16.84602
G1 X106.052 Y118.592 E16.86023
G1 X106.399 Y118.766 E16.87314
G1 X106.637 Y118.869 E16.88177
G1 X106.964 Y118.987 E16.89333
G1 X107.341 Y119.092 E16.90634
G1 X107.676 Y119.154 E16.91768
G1 X108.032 Y119.188 E16.92957
G1 X109.198 Y118.924 E16.96933
