;FLAVOR:Marlin
;TIME:1296
;Filament used: 0.82009m
;Layer height: 0.2
;MINX:72.373
;MINY:91.533
;MINZ:0.2
;MAXX:162.628
;MAXY:143.477
;MAXZ:3
;Generated with Cura_SteamEngine main
M140 S50
M105
M190 S50
M104 S200
M105
M109 S200
M82 ;absolute extrusion mode
; Ender 3 Custom Start G-code
G92 E0 ; Reset Extruder
G28 ; Home all axes
G1 Z2.0 F3000 ; Move Z Axis up little to prevent scratching of Heat Bed
G1 X0.1 Y20 Z0.3 F5000.0 ; Move to start position
G1 X0.1 Y200.0 Z0.3 F1500.0 E15 ; Draw the first line
G1 X0.4 Y200.0 Z0.3 F5000.0 ; Move to side a little
G1 X0.4 Y20 Z0.3 F1500.0 E30 ; Draw the second line
G92 E0 ; Reset Extruder
G1 Z2.0 F3000 ; Move Z Axis up little to prevent scratching of Heat Bed
G1 X5 Y20 Z0.3 F5000.0 ; Move over to prevent blob squish
G92 E0
G92 E0
G1 F2700 E-5
;LAYER_COUNT:15
;LAYER:0
M107
G0 F6000 X79.311 Y97.908 Z0.2
G0 X72.478 Y109.955
;TYPE:SKIRT
G1 F2700 E0
G1 F1200 X72.573 Y109.253 E0.02356
G1 X72.681 Y108.579 E0.04626
G1 X72.874 Y107.662 E0.07743
G1 X73.029 Y107.117 E0.09628
G1 X73.276 Y106.345 E0.12324
G1 X73.47 Y105.787 E0.14289
G1 X73.816 Y104.915 E0.17409
G1 X74.042 Y104.438 E0.19164
G1 X74.393 Y103.756 E0.21716
G1 X74.626 Y103.329 E0.23333
G1 X75.308 Y102.237 E0.27616
G1 X75.751 Y101.612 E0.30164
G1 X76.14 Y101.09 E0.32329
G1 X77.003 Y100.083 E0.3674
G1 X77.715 Y99.348 E0.40143
G1 X78.347 Y98.732 E0.43079
G1 X79.311 Y97.908 E0.47297
G1 X80.034 Y97.359 E0.50316
G1 X80.933 Y96.715 E0.53994
G1 X81.711 Y96.211 E0.57077
G1 X82.288 Y95.877 E0.59295
G1 X83.065 Y95.45 E0.62244
G1 X83.786 Y95.067 E0.64959
G1 X84.646 Y94.657 E0.68128
G1 X85.416 Y94.331 E0.70909
G1 X86.255 Y93.99 E0.73921
G1 X87.075 Y93.673 E0.76845
G1 X87.817 Y93.417 E0.79456
G1 X88.527 Y93.202 E0.81923
G1 X89.78 Y92.843 E0.86258
G1 X90.325 Y92.695 E0.88137
G1 X90.993 Y92.536 E0.90421
G1 X92.17 Y92.294 E0.94417
G1 X93.477 Y92.051 E0.98839
G1 X93.999 Y91.963 E1.00599
G1 X94.663 Y91.872 E1.02829
G1 X96.09 Y91.722 E1.07601
G1 X97.221 Y91.626 E1.11376
G1 X97.998 Y91.571 E1.13967
G1 X98.588 Y91.546 E1.15931
G1 X99.183 Y91.541 E1.1791
G1 X101.064 Y91.572 E1.24167
G1 X101.804 Y91.595 E1.2663
G1 X102.623 Y91.651 E1.2936
G1 X103.226 Y91.715 E1.31377
G1 X104.809 Y91.91 E1.36682
G1 X105.29 Y91.977 E1.38297
G1 X107.865 Y92.295 E1.46927
G1 X110.363 Y92.532 E1.55272
G1 X112.893 Y92.7 E1.63706
G1 X115.415 Y92.797 E1.721
G1 X117.904 Y92.821 E1.80379
G1 X120.426 Y92.775 E1.88768
G1 X122.945 Y92.657 E1.97156
G1 X125.444 Y92.469 E2.05491
G1 X127.953 Y92.21 E2.1388
G1 X131.6 Y91.724 E2.26118
G1 X132.523 Y91.641 E2.292
G1 X133.327 Y91.603 E2.31877
G1 X134.87 Y91.549 E2.37012
G1 X135.628 Y91.533 E2.39534
G1 X136.61 Y91.557 E2.42801
G1 X138.871 Y91.713 E2.50339
G1 X139.565 Y91.773 E2.52656
G1 X140.168 Y91.842 E2.54674
G1 X140.764 Y91.931 E2.56679
G1 X142.623 Y92.252 E2.62953
G1 X143.468 Y92.41 E2.65812
G1 X144.105 Y92.548 E2.6798
G1 X144.67 Y92.693 E2.6992
G1 X146.135 Y93.101 E2.74978
G1 X147.002 Y93.357 E2.77985
G1 X147.868 Y93.654 E2.8103
G1 X149.268 Y94.2 E2.86028
G1 X150.143 Y94.562 E2.89178
G1 X150.984 Y94.956 E2.92267
G1 X151.779 Y95.37 E2.95248
G1 X153.012 Y96.05 E2.99931
G1 X154.092 Y96.734 E3.04183
G1 X155.17 Y97.512 E3.08605
G1 X155.702 Y97.915 E3.10825
G1 X156.641 Y98.713 E3.14923
G1 X157.18 Y99.236 E3.17421
G1 X157.978 Y100.054 E3.21222
G1 X158.604 Y100.752 E3.2434
G1 X158.901 Y101.131 E3.25942
G1 X159.409 Y101.821 E3.28792
G1 X159.802 Y102.389 E3.31089
G1 X160.443 Y103.437 E3.35175
G1 X160.836 Y104.192 E3.38006
G1 X161.122 Y104.788 E3.40205
G1 X161.604 Y105.962 E3.44426
G1 X161.845 Y106.689 E3.46973
G1 X161.99 Y107.174 E3.48657
G1 X162.288 Y108.438 E3.52976
G1 X162.424 Y109.219 E3.55613
G1 X162.515 Y109.823 E3.57644
G1 X162.621 Y111.157 E3.62095
G1 X162.628 Y111.934 E3.6468
G1 X162.612 Y112.836 E3.6768
G1 X162.511 Y114.146 E3.7205
G1 X162.403 Y114.928 E3.74676
G1 X162.278 Y115.702 E3.77284
G1 X161.974 Y117.018 E3.81776
G1 X161.689 Y117.979 E3.8511
G1 X161.406 Y118.843 E3.88134
G1 X161.07 Y119.719 E3.91254
G1 X160.819 Y120.258 E3.93232
G1 X160.389 Y121.109 E3.96403
G1 X160.099 Y121.649 E3.98442
G1 X159.381 Y122.808 E4.02976
G1 X157.678 Y125.209 E4.12767
G1 X156.297 Y127.278 E4.21041
G1 X154.945 Y129.436 E4.2951
G1 X153.676 Y131.593 E4.37834
G1 X152.484 Y133.755 E4.46045
G1 X150.702 Y137.274 E4.59165
G1 X150.256 Y138.099 E4.62284
G1 X149.742 Y138.884 E4.65405
G1 X149.163 Y139.621 E4.68522
G1 X148.523 Y140.307 E4.71643
G1 X147.827 Y140.935 E4.74761
G1 X147.08 Y141.502 E4.7788
G1 X146.287 Y142.004 E4.81001
G1 X145.455 Y142.436 E4.84119
G1 X144.589 Y142.795 E4.87237
G1 X143.695 Y143.08 E4.90358
G1 X142.78 Y143.287 E4.93478
G1 X141.851 Y143.416 E4.96598
G1 X140.986 Y143.464 E4.99479
G1 X140.177 Y143.477 E5.0217
G1 X138.605 Y143.477 E5.07399
G1 X137.9 Y143.467 E5.09744
G1 X137.44 Y143.451 E5.11275
G1 X134.908 Y143.309 E5.1971
G1 X132.434 Y143.238 E5.27942
G1 X129.911 Y143.238 E5.36333
G1 X127.354 Y143.309 E5.44841
G1 X124.714 Y143.455 E5.53635
G1 X124.146 Y143.472 E5.55525
G1 X122.232 Y143.477 E5.61891
G1 X120.81 Y143.457 E5.66621
G1 X119.497 Y143.42 E5.7099
G1 X116.985 Y143.418 E5.79345
G1 X116.138 Y143.443 E5.82163
G1 X113.955 Y143.477 E5.89425
G1 X112.505 Y143.477 E5.94248
G1 X111.8 Y143.467 E5.96593
G1 X111.343 Y143.451 E5.98114
G1 X108.802 Y143.309 E6.06578
G1 X106.321 Y143.238 E6.14833
G1 X103.798 Y143.238 E6.23225
G1 X101.248 Y143.309 E6.3171
G1 X98.638 Y143.454 E6.40404
G1 X98.07 Y143.471 E6.42294
G1 X96.015 Y143.477 E6.49129
G1 X95.315 Y143.467 E6.51457
G1 X94.379 Y143.414 E6.54575
G1 X93.45 Y143.281 E6.57697
G1 X92.536 Y143.069 E6.60817
G1 X91.644 Y142.78 E6.63936
G1 X90.78 Y142.417 E6.67053
G1 X89.949 Y141.981 E6.70174
G1 X89.159 Y141.476 E6.73293
G1 X88.414 Y140.905 E6.76415
G1 X87.721 Y140.274 E6.79532
G1 X87.085 Y139.585 E6.82651
G1 X86.509 Y138.845 E6.8577
G1 X85.879 Y137.851 E6.89684
G1 X85.517 Y137.206 E6.92144
G1 X84.205 Y134.938 E7.00859
G1 X82.896 Y132.816 E7.09151
G1 X81.499 Y130.691 E7.1761
G1 X80.062 Y128.631 E7.25963
G1 X78.569 Y126.616 E7.34305
G1 X76.903 Y124.495 E7.43275
G1 X76.37 Y123.828 E7.46115
G1 X75.873 Y123.158 E7.48889
G1 X75.495 Y122.615 E7.5109
G1 X74.78 Y121.437 E7.55673
G1 X74.552 Y121.002 E7.57307
G1 X74.056 Y119.98 E7.61085
G1 X73.687 Y119.117 E7.64207
G1 X73.53 Y118.671 E7.65779
G1 X73.34 Y118.093 E7.67803
G1 X73.039 Y117.088 E7.71292
G1 X72.745 Y115.817 E7.75631
G1 X72.627 Y115.083 E7.78104
G1 X72.484 Y114.038 E7.81612
G1 X72.383 Y112.703 E7.86065
G1 X72.373 Y111.999 E7.88407
G1 X72.381 Y111.244 E7.90918
G1 X72.478 Y109.955 E7.95217
G0 F6000 X73.173 Y111.67
G1 F1200 X73.18 Y111.257 E7.96591
G1 X73.271 Y110.062 E8.00577
G1 X73.366 Y109.36 E8.02934
G1 X73.47 Y108.711 E8.0512
G1 X73.658 Y107.828 E8.08122
G1 X73.793 Y107.356 E8.09755
G1 X74.032 Y106.607 E8.1237
G1 X74.226 Y106.049 E8.14335
G1 X74.56 Y105.21 E8.17338
G1 X74.756 Y104.799 E8.18853
G1 X75.095 Y104.139 E8.21321
G1 X75.328 Y103.712 E8.22939
G1 X75.96 Y102.7 E8.26907
G1 X76.403 Y102.075 E8.29455
G1 X76.777 Y101.573 E8.31537
G1 X77.578 Y100.64 E8.35627
G1 X78.29 Y99.905 E8.39031
G1 X78.9 Y99.31 E8.41865
G1 X79.795 Y98.546 E8.45779
G1 X80.787 Y97.799 E8.49909
G1 X81.395 Y97.368 E8.52388
G1 X82.117 Y96.9 E8.55249
G1 X82.674 Y96.578 E8.57389
G1 X83.588 Y96.077 E8.60856
G1 X84.16 Y95.774 E8.63009
G1 X84.958 Y95.394 E8.65949
G1 X85.728 Y95.068 E8.6873
G1 X86.718 Y94.667 E8.72282
G1 X87.362 Y94.419 E8.74578
G1 X88.05 Y94.182 E8.76998
G1 X88.584 Y94.019 E8.78855
G1 X89.99 Y93.615 E8.8372
G1 X90.535 Y93.467 E8.85599
G1 X91.154 Y93.32 E8.87715
G1 X92.523 Y93.04 E8.92362
G1 X93.444 Y92.869 E8.95478
G1 X94.132 Y92.752 E8.97799
G1 X94.748 Y92.667 E8.99867
G1 X96.159 Y92.519 E9.04586
G1 X97.278 Y92.424 E9.08321
G1 X98.055 Y92.369 E9.10912
G1 X98.601 Y92.345 E9.1273
G1 X99.171 Y92.341 E9.14626
G1 X100.883 Y92.368 E9.20321
G1 X101.779 Y92.395 E9.23302
G1 X102.539 Y92.447 E9.25836
G1 X103.142 Y92.511 E9.27853
G1 X104.546 Y92.683 E9.32557
G1 X105.156 Y92.766 E9.34605
G1 X107.795 Y93.093 E9.43449
G1 X110.303 Y93.33 E9.51828
G1 X112.809 Y93.497 E9.60182
G1 X115.377 Y93.595 E9.68729
G1 X117.946 Y93.621 E9.77274
G1 X120.443 Y93.575 E9.8558
G1 X123.008 Y93.455 E9.94121
G1 X125.514 Y93.267 E10.02479
G1 X128.041 Y93.005 E10.10929
G1 X131.706 Y92.517 E10.23227
G1 X132.561 Y92.44 E10.26082
G1 X133.356 Y92.402 E10.28729
G1 X134.742 Y92.353 E10.33342
G1 X135.645 Y92.333 E10.36346
G1 X136.555 Y92.355 E10.39374
G1 X138.803 Y92.51 E10.46868
G1 X139.497 Y92.57 E10.49185
G1 X140.055 Y92.634 E10.51053
G1 X140.628 Y92.72 E10.5298
G1 X142.626 Y93.066 E10.59725
G1 X143.321 Y93.196 E10.62076
G1 X143.911 Y93.324 E10.64084
G1 X144.456 Y93.464 E10.65956
G1 X146.088 Y93.92 E10.71592
G1 X146.775 Y94.124 E10.73975
G1 X147.577 Y94.399 E10.76795
G1 X149.203 Y95.036 E10.82604
G1 X149.835 Y95.3 E10.84882
G1 X150.614 Y95.665 E10.87743
G1 X151.645 Y96.206 E10.91615
G1 X152.624 Y96.749 E10.95339
G1 X153.626 Y97.383 E10.99283
G1 X154.477 Y97.994 E11.02767
G1 X155.219 Y98.552 E11.05855
G1 X156.09 Y99.293 E11.09658
G1 X156.607 Y99.794 E11.12053
G1 X157.405 Y100.612 E11.15854
G1 X158.261 Y101.611 E11.20229
G1 X158.751 Y102.276 E11.22977
G1 X159.144 Y102.844 E11.25274
G1 X159.739 Y103.816 E11.29065
G1 X160.115 Y104.538 E11.31772
G1 X160.401 Y105.134 E11.33971
G1 X160.848 Y106.223 E11.37886
G1 X161.079 Y106.918 E11.40322
G1 X161.224 Y107.403 E11.42006
G1 X161.5 Y108.575 E11.4601
G1 X161.636 Y109.356 E11.48647
G1 X161.723 Y109.935 E11.50595
G1 X161.821 Y111.172 E11.54722
G1 X161.828 Y111.92 E11.5721
G1 X161.812 Y112.822 E11.6021
G1 X161.718 Y114.036 E11.6426
G1 X161.567 Y115.103 E11.67844
G1 X161.489 Y115.57 E11.69419
G1 X161.207 Y116.79 E11.73584
G1 X160.922 Y117.751 E11.76918
G1 X160.648 Y118.589 E11.7985
G1 X160.323 Y119.432 E11.82855
G1 X160.103 Y119.901 E11.84578
G1 X159.684 Y120.731 E11.8767
G1 X159.394 Y121.271 E11.89709
G1 X158.729 Y122.345 E11.93911
G1 X157.021 Y124.754 E12.03732
G1 X155.614 Y126.861 E12.12159
G1 X154.269 Y129.006 E12.2058
G1 X152.987 Y131.186 E12.28992
G1 X151.761 Y133.41 E12.37438
G1 X149.983 Y136.924 E12.50537
G1 X149.552 Y137.718 E12.53542
G1 X149.053 Y138.471 E12.56546
G1 X148.49 Y139.177 E12.59549
G1 X147.866 Y139.83 E12.62553
G1 X147.187 Y140.425 E12.65556
G1 X146.458 Y140.958 E12.6856
G1 X145.684 Y141.424 E12.71565
G1 X144.873 Y141.821 E12.74568
G1 X144.029 Y142.143 E12.77573
G1 X143.161 Y142.39 E12.80574
G1 X142.273 Y142.559 E12.83581
G1 X140.973 Y142.664 E12.87919
G1 X140.164 Y142.677 E12.9061
G1 X138.616 Y142.677 E12.95758
G1 X137.911 Y142.667 E12.98103
G1 X137.484 Y142.652 E12.99524
G1 X134.974 Y142.511 E13.07886
G1 X132.422 Y142.438 E13.16377
G1 X129.889 Y142.438 E13.24802
G1 X127.361 Y142.509 E13.33214
G1 X124.67 Y142.657 E13.42177
G1 X124.144 Y142.672 E13.43928
G1 X122.244 Y142.677 E13.50247
G1 X120.672 Y142.654 E13.55476
G1 X119.485 Y142.62 E13.59426
G1 X116.961 Y142.618 E13.67821
G1 X116.126 Y142.643 E13.70599
G1 X113.943 Y142.677 E13.77861
G1 X112.516 Y142.677 E13.82607
G1 X111.811 Y142.667 E13.84952
G1 X111.387 Y142.652 E13.86363
G1 X108.868 Y142.511 E13.94754
G1 X106.309 Y142.438 E14.03269
G1 X103.776 Y142.438 E14.11694
G1 X101.218 Y142.509 E14.20205
G1 X98.594 Y142.655 E14.28946
G1 X98.067 Y142.671 E14.307
G1 X96.21 Y142.678 E14.36876
G1 X95.326 Y142.667 E14.39817
G1 X94.425 Y142.614 E14.42818
G1 X93.531 Y142.482 E14.45824
G1 X92.653 Y142.271 E14.48828
G1 X91.797 Y141.983 E14.51831
G1 X90.97 Y141.621 E14.54834
G1 X90.178 Y141.187 E14.57838
G1 X89.428 Y140.684 E14.60841
G1 X88.725 Y140.117 E14.63845
G1 X88.074 Y139.491 E14.66849
G1 X87.482 Y138.809 E14.69853
G1 X86.953 Y138.077 E14.72857
G1 X86.577 Y137.459 E14.75263
G1 X86.203 Y136.792 E14.77806
G1 X84.902 Y134.544 E14.86445
G1 X83.559 Y132.368 E14.9495
G1 X82.176 Y130.262 E15.0333
G1 X80.701 Y128.148 E15.11903
G1 X79.21 Y126.136 E15.20232
G1 X77.563 Y124.04 E15.29098
G1 X77.203 Y123.594 E15.31005
G1 X76.773 Y123.035 E15.3335
G1 X76.53 Y122.701 E15.34724
G1 X76.152 Y122.158 E15.36925
G1 X75.489 Y121.065 E15.41177
G1 X75.092 Y120.294 E15.44061
G1 X74.777 Y119.635 E15.4649
G1 X74.29 Y118.421 E15.50841
G1 X74.005 Y117.538 E15.53927
G1 X73.806 Y116.862 E15.56271
G1 X73.534 Y115.684 E15.60292
G1 X73.419 Y114.975 E15.62681
G1 X73.276 Y113.93 E15.66189
G1 X73.183 Y112.692 E15.70318
G1 X73.173 Y111.67 E15.73718
G0 F6000 X72.773 Y111.994
G1 F1200 X72.781 Y111.25 E15.76192
G1 X72.875 Y110.008 E15.80335
G1 X72.97 Y109.306 E15.82691
G1 X73.075 Y108.645 E15.84917
G1 X73.266 Y107.745 E15.87977
G1 X73.411 Y107.237 E15.89734
G1 X73.654 Y106.476 E15.92391
G1 X73.848 Y105.918 E15.94356
G1 X74.188 Y105.062 E15.9742
G1 X74.399 Y104.618 E15.99055
G1 X74.588 Y104.244 E16.00448
G1 X74.977 Y103.521 E16.03179
G1 X75.634 Y102.468 E16.07307
G1 X76.077 Y101.843 E16.09855
G1 X76.458 Y101.331 E16.11978
G1 X77.29 Y100.362 E16.16226
G1 X78.002 Y99.627 E16.19629
G1 X78.624 Y99.021 E16.22518
G1 X79.553 Y98.227 E16.26582
G1 X80.556 Y97.472 E16.30758
G1 X81.164 Y97.041 E16.33237
G1 X81.914 Y96.556 E16.36207
G1 X82.481 Y96.227 E16.38387
G1 X83.258 Y95.8 E16.41336
G1 X83.973 Y95.42 E16.44029
G1 X84.802 Y95.026 E16.47082
G1 X85.726 Y94.636 E16.50418
G1 X86.575 Y94.294 E16.53462
G1 X87.219 Y94.046 E16.55758
G1 X87.933 Y93.8 E16.58269
G1 X88.638 Y93.586 E16.6072
G1 X89.885 Y93.229 E16.65034
G1 X90.43 Y93.081 E16.66912
G1 X91.073 Y92.928 E16.69111
G1 X92.25 Y92.686 E16.73107
G1 X93.544 Y92.445 E16.77485
G1 X94.066 Y92.357 E16.79246
G1 X94.706 Y92.27 E16.81394
G1 X96.124 Y92.121 E16.86136
G1 X97.25 Y92.025 E16.89895
G1 X98.027 Y91.97 E16.92486
G1 X98.595 Y91.946 E16.94377
G1 X99.177 Y91.941 E16.96312
G1 X100.889 Y91.968 E17.02007
G1 X101.791 Y91.995 E17.05009
G1 X102.581 Y92.049 E17.07642
G1 X103.184 Y92.113 E17.09659
G1 X104.754 Y92.306 E17.1492
G1 X105.261 Y92.376 E17.16623
G1 X107.811 Y92.691 E17.25168
G1 X110.332 Y92.93 E17.33591
G1 X112.888 Y93.101 E17.42111
G1 X115.396 Y93.197 E17.50459
G1 X117.907 Y93.221 E17.58811
G1 X120.453 Y93.175 E17.6728
G1 X122.958 Y93.058 E17.75621
G1 X125.479 Y92.868 E17.8403
G1 X128.014 Y92.606 E17.92506
G1 X131.653 Y92.121 E18.04717
G1 X132.542 Y92.04 E18.07686
G1 X133.205 Y92.008 E18.09893
G1 X134.878 Y91.949 E18.15461
G1 X135.636 Y91.933 E18.17983
G1 X136.582 Y91.956 E18.2113
G1 X138.837 Y92.111 E18.28648
G1 X139.531 Y92.171 E18.30965
G1 X140.112 Y92.238 E18.3291
G1 X140.696 Y92.326 E18.34874
G1 X142.7 Y92.673 E18.41639
G1 X143.395 Y92.803 E18.43991
G1 X144.008 Y92.936 E18.46077
G1 X144.563 Y93.079 E18.47983
G1 X146.028 Y93.487 E18.53041
G1 X146.888 Y93.741 E18.56024
G1 X147.722 Y94.026 E18.58955
G1 X149.122 Y94.572 E18.63953
G1 X149.989 Y94.931 E18.67074
G1 X150.799 Y95.31 E18.70049
G1 X151.594 Y95.724 E18.7303
G1 X152.818 Y96.399 E18.77679
G1 X153.859 Y97.058 E18.81777
G1 X154.71 Y97.669 E18.85261
G1 X155.461 Y98.234 E18.88387
G1 X156.366 Y99.003 E18.92337
G1 X156.894 Y99.515 E18.94783
G1 X157.692 Y100.333 E18.98584
G1 X158.581 Y101.371 E19.0313
G1 X159.08 Y102.049 E19.05929
G1 X159.473 Y102.617 E19.08227
G1 X160.091 Y103.626 E19.12162
G1 X160.476 Y104.365 E19.14934
G1 X160.762 Y104.961 E19.17132
G1 X161.226 Y106.093 E19.21201
G1 X161.462 Y106.804 E19.23693
G1 X161.607 Y107.289 E19.25377
G1 X161.894 Y108.507 E19.29539
G1 X162.03 Y109.288 E19.32176
G1 X162.119 Y109.879 E19.34163
G1 X162.221 Y111.165 E19.38454
G1 X162.228 Y111.927 E19.40989
G1 X162.212 Y112.829 E19.43989
G1 X162.114 Y114.091 E19.48199
G1 X162.006 Y114.873 E19.50825
G1 X161.883 Y115.636 E19.53395
G1 X161.591 Y116.904 E19.57723
G1 X161.306 Y117.865 E19.61057
G1 X161.027 Y118.716 E19.64036
G1 X160.697 Y119.576 E19.67099
G1 X160.461 Y120.08 E19.6895
G1 X160.037 Y120.92 E19.7208
