;FLAVOR:Marlin
;TIME:6840
;Filament used: 4.7462m
;Layer height: 0.2
;MINX:73.949
;MINY:62.634
;MINZ:0.2
;MAXX:161.051
;MAXY:172.376
;MAXZ:14
;Generated with Cura_SteamEngine main
M140 S50
M105
M190 S50
M104 S200
M105
M109 S200
M82 ;absolute extrusion mode
; Ender 3 Custom Start G-code
G92 E0 ; Reset Extruder
G28 ; Home all axes
G1 Z2.0 F3000 ; Move Z Axis up little to prevent scratching of Heat Bed
G1 X0.1 Y20 Z0.3 F5000.0 ; Move to start position
G1 X0.1 Y200.0 Z0.3 F1500.0 E15 ; Draw the first line
G1 X0.4 Y200.0 Z0.3 F5000.0 ; Move to side a little
G1 X0.4 Y20 Z0.3 F1500.0 E30 ; Draw the second line
G92 E0 ; Reset Extruder
G1 Z2.0 F3000 ; Move Z Axis up little to prevent scratching of Heat Bed
G1 X5 Y20 Z0.3 F5000.0 ; Move over to prevent blob squish
G92 E0
G92 E0
G1 F2700 E-5
;LAYER_COUNT:70
;LAYER:0
M107
G0 F6000 X84.177 Y73.519 Z0.2
G0 X81.6 Y81.084
;TYPE:SKIRT
G1 F2700 E0
G1 F1200 X81.61 Y80.418 E0.02215
G1 X81.664 Y79.482 E0.05334
G1 X81.798 Y78.553 E0.08456
G1 X82.01 Y77.64 E0.11573
G1 X82.299 Y76.748 E0.14692
G1 X82.664 Y75.883 E0.17814
G1 X83.1 Y75.053 E0.20933
G1 X83.606 Y74.263 E0.24053
G1 X84.177 Y73.519 E0.27172
G1 X84.809 Y72.827 E0.30289
G1 X85.498 Y72.19 E0.3341
G1 X86.239 Y71.615 E0.3653
G1 X87.026 Y71.105 E0.39649
G1 X87.854 Y70.664 E0.42769
G1 X88.716 Y70.295 E0.45888
G1 X89.606 Y70.001 E0.49005
G1 X90.598 Y69.768 E0.52394
G1 X93.332 Y69.26 E0.61643
G1 X95.799 Y68.725 E0.70039
G1 X98.223 Y68.128 E0.78343
G1 X100.664 Y67.453 E0.86766
G1 X103.049 Y66.721 E0.95064
G1 X105.477 Y65.899 E1.0359
G1 X107.811 Y65.035 E1.11867
G1 X109.97 Y64.172 E1.19601
G1 X110.783 Y63.883 E1.2247
G1 X112.219 Y63.439 E1.2747
G1 X112.896 Y63.246 E1.29811
G1 X113.808 Y63.028 E1.3293
G1 X114.656 Y62.897 E1.35784
G1 X115.265 Y62.827 E1.37823
G1 X116.847 Y62.68 E1.43107
G1 X117.784 Y62.634 E1.46227
G1 X118.839 Y62.679 E1.49739
G1 X120.087 Y62.792 E1.53907
G1 X121.055 Y62.9 E1.57147
G1 X121.981 Y63.046 E1.60265
G1 X122.821 Y63.251 E1.63141
G1 X123.724 Y63.512 E1.66267
G1 X124.949 Y63.894 E1.70535
G1 X125.766 Y64.184 E1.73418
G1 X128.557 Y65.302 E1.83418
G1 X130.889 Y66.158 E1.91681
G1 X133.303 Y66.964 E2.00145
G1 X135.683 Y67.687 E2.08418
G1 X138.139 Y68.357 E2.16886
G1 X140.543 Y68.939 E2.25112
G1 X144.216 Y69.698 E2.37587
G1 X144.611 Y69.772 E2.38923
G1 X145.524 Y69.983 E2.4204
G1 X146.417 Y70.272 E2.45162
G1 X147.281 Y70.635 E2.48279
G1 X148.112 Y71.071 E2.514
G1 X148.902 Y71.576 E2.54519
G1 X149.647 Y72.146 E2.57639
G1 X150.34 Y72.778 E2.60758
G1 X150.977 Y73.466 E2.63877
G1 X151.553 Y74.206 E2.66996
G1 X152.064 Y74.993 E2.70117
G1 X152.505 Y75.82 E2.73234
G1 X152.875 Y76.682 E2.76354
G1 X153.17 Y77.572 E2.79472
G1 X153.389 Y78.484 E2.82592
G1 X153.528 Y79.412 E2.85713
G1 X153.587 Y80.276 E2.88593
G1 X153.6 Y80.905 E2.90686
G1 X153.599 Y160.776 E5.56338
G1 X153.59 Y161.503 E5.58756
G1 X153.539 Y162.44 E5.61877
G1 X153.407 Y163.368 E5.64995
G1 X153.198 Y164.282 E5.68113
G1 X152.911 Y165.175 E5.71233
G1 X152.549 Y166.041 E5.74355
G1 X152.115 Y166.872 E5.77473
G1 X151.611 Y167.663 E5.80592
G1 X151.042 Y168.408 E5.8371
G1 X150.411 Y169.103 E5.86833
G1 X149.724 Y169.741 E5.89951
G1 X148.985 Y170.318 E5.93069
G1 X148.199 Y170.83 E5.96189
G1 X147.373 Y171.273 E5.99307
G1 X146.511 Y171.645 E6.02429
G1 X145.622 Y171.941 E6.05546
G1 X144.71 Y172.161 E6.08666
G1 X143.783 Y172.302 E6.11785
G1 X142.899 Y172.363 E6.14732
G1 X142.27 Y172.376 E6.16824
G1 X93.164 Y172.375 E7.80152
G1 X92.466 Y172.366 E7.82473
G1 X91.53 Y172.314 E7.85591
G1 X90.601 Y172.182 E7.88712
G1 X89.687 Y171.972 E7.91831
G1 X88.794 Y171.685 E7.94951
G1 X87.929 Y171.322 E7.98071
G1 X87.098 Y170.888 E8.01189
G1 X86.307 Y170.384 E8.04309
G1 X85.562 Y169.814 E8.07429
G1 X84.868 Y169.183 E8.10549
G1 X84.231 Y168.496 E8.13665
G1 X83.654 Y167.756 E8.16786
G1 X83.142 Y166.97 E8.19906
G1 X82.699 Y166.143 E8.23026
G1 X82.328 Y165.282 E8.26144
G1 X82.032 Y164.392 E8.29264
G1 X81.813 Y163.48 E8.32383
G1 X81.672 Y162.553 E8.35502
G1 X81.612 Y161.664 E8.38466
G1 X81.599 Y161.034 E8.40561
G1 X81.6 Y81.084 E11.06476
G0 F6000 X82 Y81.09
G1 F1200 X82.01 Y80.424 E11.08692
G1 X82.064 Y79.505 E11.11753
G1 X82.197 Y78.594 E11.14816
G1 X82.409 Y77.698 E11.17878
G1 X82.698 Y76.824 E11.2094
G1 X83.062 Y75.978 E11.24003
G1 X83.497 Y75.167 E11.27064
G1 X84.002 Y74.397 E11.30127
G1 X84.571 Y73.673 E11.33189
G1 X85.201 Y73.002 E11.36251
G1 X85.887 Y72.387 E11.39315
G1 X86.623 Y71.835 E11.42375
G1 X87.405 Y71.349 E11.45437
G1 X88.226 Y70.932 E11.485
G1 X89.08 Y70.588 E11.51562
G1 X89.96 Y70.319 E11.54623
G1 X90.671 Y70.162 E11.57044
G1 X93.391 Y69.656 E11.66246
G1 X95.899 Y69.113 E11.74781
G1 X98.319 Y68.517 E11.83071
G1 X100.76 Y67.842 E11.91494
G1 X103.19 Y67.096 E11.99949
G1 X105.597 Y66.281 E12.08401
G1 X107.937 Y65.415 E12.167
G1 X110.118 Y64.543 E12.24512
G1 X110.902 Y64.265 E12.27279
G1 X112.084 Y63.897 E12.31396
G1 X113.006 Y63.631 E12.34588
G1 X113.901 Y63.417 E12.37648
G1 X114.702 Y63.294 E12.40344
G1 X115.311 Y63.224 E12.42383
G1 X116.884 Y63.078 E12.47637
G1 X117.803 Y63.034 E12.50697
G1 X118.803 Y63.077 E12.54026
G1 X120.051 Y63.19 E12.58194
G1 X121.009 Y63.297 E12.614
G1 X121.918 Y63.442 E12.64462
G1 X122.711 Y63.635 E12.67176
G1 X123.359 Y63.82 E12.69418
G1 X124.83 Y64.276 E12.7454
G1 X125.617 Y64.556 E12.77318
G1 X128.396 Y65.67 E12.87276
G1 X130.773 Y66.541 E12.95696
G1 X133.164 Y67.34 E13.04081
G1 X135.567 Y68.07 E13.12434
G1 X138.02 Y68.739 E13.20891
G1 X140.478 Y69.335 E13.29303
G1 X144.119 Y70.087 E13.41669
G1 X144.537 Y70.165 E13.43083
G1 X145.434 Y70.373 E13.46145
G1 X146.309 Y70.659 E13.49207
G1 X147.157 Y71.019 E13.52271
G1 X147.969 Y71.451 E13.5533
G1 X148.742 Y71.952 E13.58394
G1 X149.468 Y72.518 E13.61456
G1 X150.142 Y73.145 E13.64518
G1 X150.759 Y73.829 E13.67582
G1 X151.314 Y74.563 E13.70642
G1 X151.804 Y75.343 E13.73706
G1 X152.224 Y76.162 E13.76767
G1 X152.571 Y77.014 E13.79827
G1 X152.844 Y77.894 E13.82891
G1 X153.039 Y78.794 E13.85954
G1 X153.155 Y79.707 E13.89015
G1 X153.187 Y80.287 E13.90947
G1 X153.2 Y80.905 E13.93003
G1 X153.199 Y160.771 E16.58639
G1 X153.19 Y161.498 E16.61057
G1 X153.139 Y162.417 E16.64118
G1 X153.008 Y163.329 E16.67183
G1 X152.798 Y164.225 E16.70244
G1 X152.512 Y165.1 E16.73305
G1 X152.151 Y165.947 E16.76368
G1 X151.717 Y166.759 E16.7943
G1 X151.215 Y167.531 E16.82493
G1 X150.647 Y168.256 E16.85556
G1 X150.019 Y168.929 E16.88618
G1 X149.335 Y169.545 E16.91679
G1 X148.6 Y170.099 E16.9474
G1 X147.82 Y170.588 E16.97802
G1 X147 Y171.007 E17.00865
G1 X146.147 Y171.353 E17.03927
G1 X145.267 Y171.624 E17.06989
G1 X144.367 Y171.817 E17.10051
G1 X143.453 Y171.932 E17.13115
G1 X142.888 Y171.963 E17.14997
G1 X142.27 Y171.976 E17.17053
G1 X93.169 Y171.975 E18.80363
G1 X92.471 Y171.966 E18.82685
G1 X91.552 Y171.914 E18.85747
G1 X90.641 Y171.783 E18.88808
G1 X89.745 Y171.573 E18.91869
G1 X88.87 Y171.286 E18.94931
G1 X88.023 Y170.924 E18.97995
G1 X87.211 Y170.49 E19.01057
G1 X86.44 Y169.988 E19.04117
G1 X85.715 Y169.42 E19.07181
G1 X85.042 Y168.791 E19.10244
G1 X84.427 Y168.107 E19.13304
G1 X83.873 Y167.372 E19.16365
G1 X83.385 Y166.591 E19.19428
G1 X82.966 Y165.771 E19.22491
G1 X82.62 Y164.918 E19.25552
G1 X82.35 Y164.038 E19.28614
G1 X82.157 Y163.137 E19.31679
G1 X82.043 Y162.224 E19.34739
G1 X82.012 Y161.653 E19.36641
G1 X81.999 Y161.034 E19.387
G1 X82 Y81.09 E22.04595
G0 F6000 X82.4 Y81.096
G1 F1200 X82.41 Y80.43 E22.0681
G1 X82.464 Y79.528 E22.09816
G1 X82.597 Y78.635 E22.12819
G1 X82.808 Y77.757 E22.15822
G1 X83.097 Y76.901 E22.18827
G1 X83.46 Y76.074 E22.21831
G1 X83.894 Y75.283 E22.24832
G1 X84.397 Y74.533 E22.27835
G1 X84.965 Y73.83 E22.30841
G1 X85.592 Y73.18 E22.33845
G1 X86.274 Y72.589 E22.36847
G1 X87.006 Y72.06 E22.39851
G1 X87.782 Y71.597 E22.42856
G1 X88.596 Y71.206 E22.4586
G1 X89.441 Y70.887 E22.48864
G1 X90.744 Y70.555 E22.53336
G1 X93.477 Y70.047 E22.62582
G1 X95.982 Y69.504 E22.71107
G1 X98.417 Y68.904 E22.79448
G1 X100.902 Y68.217 E22.88023
G1 X103.298 Y67.482 E22.96359
G1 X105.715 Y66.663 E23.04847
G1 X108.122 Y65.773 E23.13382
G1 X110.267 Y64.915 E23.21066
G1 X111.021 Y64.647 E23.23727
G1 X112.203 Y64.279 E23.27845
G1 X113.116 Y64.016 E23.31005
G1 X113.994 Y63.807 E23.34007
G1 X114.747 Y63.692 E23.3654
G1 X115.594 Y63.597 E23.39375
G1 X116.92 Y63.476 E23.43804
G1 X117.822 Y63.434 E23.46807
G1 X118.767 Y63.476 E23.49953
G1 X120.258 Y63.613 E23.54933
G1 X120.964 Y63.694 E23.57297
G1 X121.855 Y63.837 E23.60298
G1 X122.601 Y64.02 E23.62853
G1 X123.486 Y64.275 E23.65916
G1 X124.711 Y64.657 E23.70184
G1 X125.468 Y64.927 E23.72857
G1 X128.246 Y66.04 E23.82811
G1 X130.645 Y66.92 E23.9131
G1 X133.026 Y67.716 E23.9966
G1 X135.483 Y68.462 E24.082
G1 X137.926 Y69.128 E24.16622
G1 X140.393 Y69.726 E24.25065
G1 X144.013 Y70.474 E24.3736
G1 X144.464 Y70.558 E24.38886
G1 X145.343 Y70.763 E24.41888
G1 X146.201 Y71.045 E24.44892
G1 X147.031 Y71.402 E24.47897
G1 X147.826 Y71.831 E24.50901
G1 X148.58 Y72.328 E24.53905
G1 X149.286 Y72.89 E24.56906
G1 X149.941 Y73.513 E24.59913
G1 X150.538 Y74.19 E24.62915
G1 X151.072 Y74.918 E24.65918
G1 X151.54 Y75.691 E24.68923
G1 X151.938 Y76.501 E24.71925
G1 X152.262 Y77.344 E24.74929
G1 X152.511 Y78.212 E24.77932
G1 X152.682 Y79.099 E24.80937
G1 X152.787 Y80.298 E24.8494
G1 X152.8 Y80.905 E24.86959
G1 X152.799 Y160.766 E27.52578
G1 X152.79 Y161.493 E27.54996
G1 X152.739 Y162.395 E27.58001
G1 X152.608 Y163.289 E27.61006
G1 X152.399 Y164.167 E27.64008
G1 X152.113 Y165.024 E27.67013
G1 X151.752 Y165.852 E27.70017
G1 X151.32 Y166.644 E27.73018
G1 X150.819 Y167.396 E27.76023
G1 X150.253 Y168.1 E27.79028
G1 X149.628 Y168.751 E27.82029
G1 X148.947 Y169.345 E27.85035
G1 X148.216 Y169.876 E27.8804
G1 X147.442 Y170.34 E27.91042
G1 X146.629 Y170.734 E27.94046
G1 X145.785 Y171.054 E27.97049
G1 X144.915 Y171.299 E28.00055
G1 X144.028 Y171.465 E28.03056
G1 X142.877 Y171.563 E28.06898
G1 X142.27 Y171.576 E28.08918
G1 X93.174 Y171.575 E29.72212
G1 X92.476 Y171.566 E29.74533
G1 X91.575 Y171.515 E29.77535
G1 X90.681 Y171.383 E29.80541
G1 X89.803 Y171.174 E29.83542
G1 X88.946 Y170.887 E29.86548
G1 X88.119 Y170.526 E29.8955
G1 X87.326 Y170.093 E29.92555
G1 X86.575 Y169.592 E29.95557
G1 X85.871 Y169.026 E29.98562
G1 X85.22 Y168.4 E30.01566
G1 X84.627 Y167.719 E30.04569
G1 X84.097 Y166.988 E30.07572
G1 X83.633 Y166.213 E30.10576
G1 X83.239 Y165.4 E30.13581
G1 X82.919 Y164.556 E30.16584
G1 X82.675 Y163.686 E30.19589
G1 X82.509 Y162.798 E30.22593
G1 X82.412 Y161.643 E30.26449
G1 X82.399 Y161.034 E30.28475
G1 X82.4 Y81.096 E32.94349
G1 F2700 E27.94349
;MESH:chassis_small.stl
G0 F6000 X116.391 Y84.682
G0 X117.97 Y85.23
;TYPE:WALL-INNER
G1 F2700 E32.94349
G1 F1200 X117.79 Y85.217 E32.9495
G1 X117.095 Y85.034 E32.9734
G1 X116.892 Y84.925 E32.98106
G1 X116.366 Y84.4 E33.00578
G1 X116.254 Y84.231 E33.01252
G1 X116.054 Y83.464 E33.03889
G1 X116.051 Y83.282 E33.04494
G1 X116.243 Y82.561 E33.06976
G1 X116.349 Y82.368 E33.07708
G1 X116.887 Y81.826 E33.10248
G1 X117.099 Y81.714 E33.11046
G1 X117.814 Y81.525 E33.13505
G1 X117.992 Y81.525 E33.14098
G1 X118.741 Y81.728 E33.16679
G1 X118.9 Y81.815 E33.17281
G1 X119.451 Y82.368 E33.19878
G1 X119.561 Y82.573 E33.20652
G1 X119.749 Y83.284 E33.23098
G1 X119.746 Y83.465 E33.237
G1 X119.549 Y84.209 E33.2626
G1 X119.422 Y84.414 E33.27062
G1 X118.912 Y84.921 E33.29454
G1 X118.73 Y85.026 E33.30152
G1 X117.97 Y85.23 E33.3277
G0 F6000 X117.171 Y84.641
;TYPE:WALL-OUTER
G1 F1200 X116.633 Y84.101 E33.35305
G1 X116.44 Y83.375 E33.37803
G1 X116.631 Y82.655 E33.40281
G1 X117.173 Y82.108 E33.42842
G1 X117.9 Y81.918 E33.45341
G1 X118.624 Y82.108 E33.47831
G1 X119.166 Y82.645 E33.50369
G1 X119.36 Y83.375 E33.52881
G1 X119.162 Y84.107 E33.55403
G1 X118.628 Y84.641 E33.57915
G1 X117.917 Y84.827 E33.60359
G1 X117.863 Y84.824 E33.60539
G1 X117.171 Y84.641 E33.6292
G1 F2700 E28.6292
G0 F6000 X117.094 Y84.929
G0 X117.042 Y85.206
G0 X93.019 Y85.206
G0 X93.2 Y160.775
;TYPE:WALL-INNER
G1 F2700 E33.6292
G1 F1200 X142 Y160.775 E35.25229
G1 X142 Y94.857 E37.44473
G1 X142 Y81.175 E37.8998
G1 X127.268 Y81.173 E38.38979
G1 X127.116 Y81.138 E38.39498
G1 X126.91 Y81.01 E38.40304
G1 X126.772 Y80.81 E38.41112
G1 X126.53 Y80.028 E38.43835
G1 X125.663 Y78.406 E38.49952
G1 X124.492 Y76.979 E38.56092
G1 X123.069 Y75.812 E38.62213
G1 X121.448 Y74.946 E38.68325
G1 X119.681 Y74.409 E38.74468
G1 X117.85 Y74.227 E38.80588
G1 X116.019 Y74.409 E38.86708
G1 X114.252 Y74.945 E38.92849
G1 X112.631 Y75.812 E38.98964
G1 X111.204 Y76.983 E39.05103
G1 X110.037 Y78.406 E39.11224
G1 X109.168 Y80.032 E39.17356
G1 X108.925 Y80.817 E39.20089
G1 X108.793 Y81.007 E39.20859
G1 X108.634 Y81.117 E39.21502
G1 X108.4 Y81.175 E39.22304
G1 X93.2 Y81.176 E39.72859
G1 X93.2 Y160.775 E42.37606
G0 F6000 X92.8 Y161.175
;TYPE:WALL-OUTER
G1 F1200 X142.4 Y161.175 E44.02577
G1 X142.4 Y94.857 E46.23151
G1 X142.4 Y80.775 E46.69988
G1 X127.298 Y80.774 E47.20218
G1 X127.203 Y80.735 E47.20559
G1 X127.14 Y80.654 E47.20901
G1 X126.901 Y79.874 E47.23614
G1 X125.997 Y78.183 E47.29991
G1 X124.776 Y76.695 E47.36393
G1 X123.292 Y75.478 E47.42777
G1 X121.602 Y74.574 E47.49151
G1 X119.759 Y74.015 E47.55557
G1 X117.85 Y73.825 E47.61938
G1 X115.941 Y74.015 E47.68318
G1 X114.098 Y74.574 E47.74724
G1 X112.408 Y75.478 E47.81099
G1 X110.92 Y76.699 E47.87501
G1 X109.703 Y78.183 E47.93884
G1 X108.797 Y79.878 E48.00276
G1 X108.559 Y80.656 E48.02982
G1 X108.445 Y80.774 E48.03528
G1 X92.8 Y80.776 E48.55564
G1 X92.8 Y161.175 E51.22972
G0 F6000 X93.069 Y160.906
G0 X93.3 Y160.415
G0 X93.56 Y160.415
;TYPE:SKIN
G1 F1200 X141.64 Y160.415 E52.82886
G1 X141.64 Y94.857 E55.00933
G1 X141.64 Y81.536 E55.45239
G1 X127.271 Y81.534 E55.93031
G1 X126.913 Y81.449 E55.94254
G1 X126.61 Y81.213 E55.95532
G1 X126.443 Y80.959 E55.96543
G1 X126.193 Y80.165 E55.99311
G1 X125.359 Y78.606 E56.05192
G1 X124.237 Y77.238 E56.11077
G1 X122.865 Y76.114 E56.16976
G1 X121.311 Y75.282 E56.22839
G1 X119.607 Y74.765 E56.28761
G1 X117.85 Y74.59 E56.34634
G1 X116.093 Y74.765 E56.40507
G1 X114.39 Y75.282 E56.46426
G1 X112.831 Y76.116 E56.52307
G1 X111.463 Y77.238 E56.58191
G1 X110.339 Y78.61 E56.6409
G1 X109.503 Y80.174 E56.69989
G1 X109.256 Y80.958 E56.72723
G1 X109.122 Y81.18 E56.73585
G1 X108.867 Y81.406 E56.74719
G1 X108.445 Y81.534 E56.76185
G1 X93.56 Y81.536 E57.25693
G1 X93.56 Y160.415 E59.88046
G1 F2700 E54.88046
G0 F6000 X93.3 Y160.415
G0 X93.019 Y85.283
G0 X116.391 Y84.682
G0 X118.004 Y85.595
G1 F2700 E59.88046
G1 F1200 X117.713 Y85.569 E59.89017
G1 X116.931 Y85.359 E59.9171
G1 X116.688 Y85.227 E59.9263
G1 X116.056 Y84.598 E59.95596
G1 X115.907 Y84.324 E59.96633
G1 X115.687 Y83.505 E59.99454
G1 X115.707 Y83.187 E60.00514
G1 X115.895 Y82.464 E60.02998
G1 X116.061 Y82.147 E60.04188
G1 X116.672 Y81.539 E60.07055
G1 X116.97 Y81.374 E60.08188
G1 X117.763 Y81.166 E60.10915
G1 X118.037 Y81.166 E60.11826
G1 X118.859 Y81.387 E60.14657
G1 X119.124 Y81.537 E60.1567
G1 X119.73 Y82.14 E60.18514
G1 X119.902 Y82.458 E60.19716
G1 X120.091 Y83.164 E60.22147
G1 X120.123 Y83.474 E60.23183
G1 X119.884 Y84.342 E60.26178
G1 X119.751 Y84.588 E60.27108
G1 X119.138 Y85.205 E60.30001
G1 X118.829 Y85.373 E60.31171
G1 X118.004 Y85.595 E60.34012
G1 F2700 E55.34012
G0 F6000 X118.163 Y85.283
G0 X119.553 Y84.538
G0 X127.017 Y80.991
G0 X141.132 Y81.735
G1 F2700 E60.34012
G1 F1200 X141.44 Y82.043 E60.35461
G0 F6000 X141.44 Y82.609
G1 F1200 X140.567 Y81.735 E60.3957
G0 F6000 X140.001 Y81.735
G1 F1200 X141.44 Y83.174 E60.46338
G0 F6000 X141.44 Y83.74
G1 F1200 X139.435 Y81.735 E60.55769
G0 F6000 X138.869 Y81.735
G1 F1200 X141.44 Y84.306 E60.67862
G0 F6000 X141.44 Y84.871
G1 F1200 X138.303 Y81.735 E60.82615
