;FLAVOR:Marlin
;TIME:1291
;Filament used: 0.761118m
;Layer height: 0.2
;MINX:97.832
;MINY:97.175
;MINZ:0.2
;MAXX:137.813
;MAXY:137.156
;MAXZ:12.6
;Generated with Cura_SteamEngine main
M140 S50
M105
M190 S50
M104 S200
M105
M109 S200
M82 ;absolute extrusion mode
; Ender 3 Custom Start G-code
G92 E0 ; Reset Extruder
G28 ; Home all axes
G1 Z2.0 F3000 ; Move Z Axis up little to prevent scratching of Heat Bed
G1 X0.1 Y20 Z0.3 F5000.0 ; Move to start position
G1 X0.1 Y200.0 Z0.3 F1500.0 E15 ; Draw the first line
G1 X0.4 Y200.0 Z0.3 F5000.0 ; Move to side a little
G1 X0.4 Y20 Z0.3 F1500.0 E30 ; Draw the second line
G92 E0 ; Reset Extruder
G1 Z2.0 F3000 ; Move Z Axis up little to prevent scratching of Heat Bed
G1 X5 Y20 Z0.3 F5000.0 ; Move over to prevent blob squish
G92 E0
G92 E0
G1 F2700 E-5
;LAYER_COUNT:63
;LAYER:0
M107
G0 F6000 X103.695 Y103.022 Z0.2
G0 X97.995 Y114.876
;TYPE:SKIRT
G1 F2700 E0
G1 F1200 X98.076 Y114.163 E0.02387
G1 X98.222 Y113.237 E0.05505
G1 X98.435 Y112.363 E0.08497
G1 X98.689 Y111.491 E0.11517
G1 X99.013 Y110.453 E0.15134
G1 X99.33 Y109.571 E0.18251
G1 X99.74 Y108.682 E0.21508
G1 X100.195 Y107.809 E0.24782
G1 X100.7 Y106.888 E0.28275
G1 X101.185 Y106.086 E0.31393
G1 X101.758 Y105.303 E0.3462
G1 X102.589 Y104.27 E0.39029
G1 X103.06 Y103.712 E0.41458
G1 X103.695 Y103.022 E0.44577
G1 X104.41 Y102.369 E0.47798
G1 X105.41 Y101.535 E0.52128
G1 X105.963 Y101.093 E0.54483
G1 X106.72 Y100.54 E0.57601
G1 X107.571 Y100.025 E0.60909
G1 X108.515 Y99.511 E0.64484
G1 X109.368 Y99.07 E0.67678
G1 X110.22 Y98.678 E0.70798
G1 X111.095 Y98.362 E0.73892
G1 X112.105 Y98.045 E0.77413
G1 X113.046 Y97.772 E0.80672
G1 X113.958 Y97.552 E0.83792
G1 X114.901 Y97.409 E0.86964
G1 X115.962 Y97.295 E0.90513
G1 X116.912 Y97.213 E0.93685
G1 X117.849 Y97.175 E0.96804
G1 X118.718 Y97.211 E0.99697
G1 X119.651 Y97.291 E1.02811
G1 X120.746 Y97.409 E1.06474
G1 X121.673 Y97.549 E1.09592
G1 X122.567 Y97.763 E1.1265
G1 X123.202 Y97.943 E1.14845
G1 X124.548 Y98.361 E1.19533
G1 X125.43 Y98.679 E1.22651
G1 X126.264 Y99.062 E1.25704
G1 X127.069 Y99.478 E1.28717
G1 X128.086 Y100.033 E1.32571
G1 X128.89 Y100.517 E1.35692
G1 X129.714 Y101.12 E1.39088
G1 X130.762 Y101.968 E1.43572
G1 X131.316 Y102.439 E1.45991
G1 X132.004 Y103.077 E1.49111
G1 X132.632 Y103.766 E1.52212
G1 X133.288 Y104.551 E1.55615
G1 X133.895 Y105.308 E1.58842
G1 X134.448 Y106.065 E1.6196
G1 X134.949 Y106.892 E1.65176
G1 X135.59 Y108.07 E1.69637
G1 X135.913 Y108.697 E1.71982
G1 X136.306 Y109.549 E1.75103
G1 X136.635 Y110.46 E1.78325
G1 X136.935 Y111.422 E1.81676
G1 X137.209 Y112.363 E1.84936
G1 X137.431 Y113.274 E1.88055
G1 X137.577 Y114.233 E1.91281
G1 X137.717 Y115.551 E1.95689
G1 X137.775 Y116.243 E1.97999
G1 X137.813 Y117.18 E2.01118
G1 X137.77 Y118.132 E2.04288
G1 X137.651 Y119.445 E2.08673
G1 X137.571 Y120.154 E2.11046
G1 X137.426 Y121.081 E2.14166
G1 X137.21 Y121.965 E2.17193
G1 X136.957 Y122.835 E2.20207
G1 X136.633 Y123.874 E2.23827
G1 X136.316 Y124.756 E2.26944
G1 X135.905 Y125.648 E2.3021
G1 X135.454 Y126.514 E2.33458
G1 X134.946 Y127.442 E2.36977
G1 X134.461 Y128.245 E2.40097
G1 X133.872 Y129.05 E2.43414
G1 X133.056 Y130.061 E2.47736
G1 X132.584 Y130.62 E2.50169
G1 X131.949 Y131.31 E2.53288
G1 X131.235 Y131.961 E2.56502
G1 X130.224 Y132.804 E2.6088
G1 X129.667 Y133.248 E2.63249
G1 X128.909 Y133.8 E2.66368
G1 X128.072 Y134.306 E2.69621
G1 X127.132 Y134.818 E2.73181
G1 X126.334 Y135.233 E2.76172
G1 X125.483 Y135.628 E2.79293
G1 X124.604 Y135.948 E2.82404
G1 X123.575 Y136.274 E2.85994
G1 X122.599 Y136.558 E2.89375
G1 X121.687 Y136.778 E2.92495
G1 X120.753 Y136.92 E2.95638
G1 X119.433 Y137.06 E3.00053
G1 X118.74 Y137.118 E3.02366
G1 X117.803 Y137.156 E3.05485
G1 X116.846 Y137.113 E3.08671
G1 X115.769 Y137.017 E3.12267
G1 X114.803 Y136.909 E3.155
G1 X113.877 Y136.763 E3.18618
G1 X112.952 Y136.534 E3.21788
G1 X111.953 Y136.24 E3.25251
G1 X111.035 Y135.949 E3.28454
G1 X110.155 Y135.626 E3.31572
G1 X109.302 Y135.227 E3.34704
G1 X108.367 Y134.74 E3.3821
G1 X107.484 Y134.254 E3.41563
G1 X106.684 Y133.765 E3.44681
G1 X105.926 Y133.206 E3.47814
G1 X105.084 Y132.528 E3.51409
G1 X104.327 Y131.889 E3.54704
G1 X103.639 Y131.251 E3.57825
G1 X103.013 Y130.564 E3.60916
G1 X102.357 Y129.779 E3.64319
G1 X101.733 Y128.999 E3.67641
G1 X101.182 Y128.241 E3.70758
G1 X100.695 Y127.435 E3.7389
G1 X100.042 Y126.233 E3.7844
G1 X99.719 Y125.602 E3.80798
G1 X99.328 Y124.75 E3.83915
G1 X99.031 Y123.931 E3.86813
G1 X98.75 Y123.039 E3.89924
G1 X98.448 Y122.007 E3.935
G1 X98.223 Y121.097 E3.96618
G1 X98.069 Y120.106 E3.99953
G1 X97.954 Y119.047 E4.03496
G1 X97.87 Y118.083 E4.06715
G1 X97.832 Y117.146 E4.09834
G1 X97.875 Y116.194 E4.13003
G1 X97.995 Y114.876 E4.17405
G0 F6000 X98.232 Y117.13
G1 F1200 X98.273 Y116.229 E4.20405
G1 X98.366 Y115.181 E4.23905
G1 X98.474 Y114.208 E4.27161
G1 X98.617 Y113.299 E4.30221
G1 X98.819 Y112.474 E4.33046
G1 X99.07 Y111.611 E4.36035
G1 X99.394 Y110.573 E4.39652
G1 X99.707 Y109.707 E4.42715
G1 X100.095 Y108.866 E4.45795
G1 X100.422 Y108.233 E4.48165
G1 X101.051 Y107.081 E4.52531
G1 X101.528 Y106.293 E4.55594
G1 X102.07 Y105.553 E4.58645
G1 X102.895 Y104.528 E4.63021
G1 X103.366 Y103.97 E4.6545
G1 X103.99 Y103.293 E4.68512
G1 X104.666 Y102.675 E4.71559
G1 X105.478 Y101.996 E4.75079
G1 X106.213 Y101.406 E4.78214
G1 X106.956 Y100.863 E4.81275
G1 X107.762 Y100.377 E4.84405
G1 X108.936 Y99.741 E4.88846
G1 X109.55 Y99.426 E4.91141
G1 X110.387 Y99.041 E4.94206
G1 X111.215 Y98.743 E4.97132
G1 X112.225 Y98.426 E5.00653
G1 X113.156 Y98.156 E5.03877
G1 X114.051 Y97.941 E5.06939
G1 X114.944 Y97.807 E5.09942
G1 X116.259 Y97.668 E5.1434
G1 X116.945 Y97.611 E5.1663
G1 X117.865 Y97.575 E5.19692
G1 X118.686 Y97.61 E5.22425
G1 X119.608 Y97.689 E5.25503
G1 X120.703 Y97.807 E5.29166
G1 X121.613 Y97.945 E5.32227
G1 X122.458 Y98.148 E5.35118
G1 X123.372 Y98.411 E5.38281
G1 X124.428 Y98.742 E5.41962
G1 X125.294 Y99.055 E5.45025
G1 X126.082 Y99.418 E5.4791
G1 X126.878 Y99.829 E5.5089
G1 X127.895 Y100.384 E5.54743
G1 X128.683 Y100.86 E5.57805
G1 X129.463 Y101.431 E5.6102
G1 X130.283 Y102.091 E5.64521
G1 X131.057 Y102.744 E5.6789
G1 X131.732 Y103.37 E5.70951
G1 X132.325 Y104.023 E5.73885
G1 X132.981 Y104.808 E5.77288
G1 X133.582 Y105.557 E5.80482
G1 X134.125 Y106.301 E5.83545
G1 X134.598 Y107.084 E5.86588
G1 X135.111 Y108.022 E5.90144
G1 X135.557 Y108.881 E5.93363
G1 X135.943 Y109.717 E5.96426
G1 X136.253 Y110.579 E5.99472
G1 X136.618 Y111.757 E6.03574
G1 X136.825 Y112.474 E6.06056
G1 X137.042 Y113.369 E6.09119
G1 X137.18 Y114.276 E6.12171
G1 X137.294 Y115.332 E6.15703
G1 X137.376 Y116.277 E6.18858
G1 X137.413 Y117.197 E6.21921
G1 X137.372 Y118.097 E6.24917
G1 X137.279 Y119.147 E6.28423
G1 X137.173 Y120.11 E6.31646
G1 X137.03 Y121.019 E6.34706
G1 X136.826 Y121.854 E6.37565
G1 X136.575 Y122.716 E6.40551
G1 X136.251 Y123.755 E6.44171
G1 X135.939 Y124.621 E6.47233
G1 X135.55 Y125.464 E6.5032
G1 X135.223 Y126.097 E6.5269
G1 X134.595 Y127.25 E6.57057
G1 X134.118 Y128.037 E6.60118
G1 X133.56 Y128.799 E6.63259
G1 X132.75 Y129.803 E6.6755
G1 X132.278 Y130.362 E6.69983
G1 X131.654 Y131.039 E6.73045
G1 X130.979 Y131.655 E6.76085
G1 X130.167 Y132.334 E6.79605
G1 X129.417 Y132.935 E6.82802
G1 X128.673 Y133.477 E6.85863
G1 X127.88 Y133.955 E6.88943
G1 X126.94 Y134.467 E6.92503
G1 X126.15 Y134.878 E6.95465
G1 X125.315 Y135.265 E6.98526
G1 X124.483 Y135.567 E7.0147
G1 X123.173 Y135.978 E7.06037
G1 X122.489 Y136.174 E7.08403
G1 X121.594 Y136.389 E7.11465
G1 X120.71 Y136.522 E7.14438
G1 X119.4 Y136.661 E7.18819
G1 X118.707 Y136.719 E7.21132
G1 X117.787 Y136.756 E7.24195
G1 X116.882 Y136.714 E7.27208
G1 X115.537 Y136.591 E7.317
G1 X114.849 Y136.512 E7.34004
G1 X113.94 Y136.367 E7.37065
G1 X113.065 Y136.15 E7.40064
G1 X112.066 Y135.856 E7.43527
G1 X111.157 Y135.568 E7.46699
G1 X110.293 Y135.25 E7.49761
G1 X109.486 Y134.872 E7.52725
G1 X108.301 Y134.251 E7.57174
G1 X107.678 Y133.905 E7.59545
G1 X106.894 Y133.423 E7.62606
G1 X106.177 Y132.894 E7.65569
G1 X105.335 Y132.216 E7.69165
G1 X104.586 Y131.584 E7.72424
G1 X103.911 Y130.958 E7.75486
G1 X103.32 Y130.307 E7.78411
G1 X102.664 Y129.522 E7.81813
G1 X102.047 Y128.75 E7.851
G1 X101.506 Y128.005 E7.88162
G1 X101.046 Y127.243 E7.91123
G1 X100.398 Y126.051 E7.95635
G1 X100.075 Y125.42 E7.97993
G1 X99.692 Y124.583 E8.01055
G1 X99.412 Y123.809 E8.03792
G1 X99.134 Y122.927 E8.06868
G1 X98.832 Y121.895 E8.10444
G1 X98.612 Y121.001 E8.13507
G1 X98.467 Y120.062 E8.16667
G1 X98.352 Y119.003 E8.2021
G1 X98.269 Y118.05 E8.23391
G1 X98.232 Y117.13 E8.26454
G0 F6000 X98.632 Y117.114
G1 F1200 X98.672 Y116.264 E8.29284
G1 X98.79 Y114.967 E8.33616
G1 X98.871 Y114.254 E8.36002
G1 X99.013 Y113.362 E8.39007
G1 X99.204 Y112.585 E8.41668
G1 X99.452 Y111.73 E8.44629
G1 X99.776 Y110.692 E8.48245
G1 X100.083 Y109.842 E8.51251
G1 X100.451 Y109.05 E8.54156
G1 X100.896 Y108.194 E8.57365
G1 X101.401 Y107.273 E8.60858
G1 X101.87 Y106.501 E8.63863
G1 X102.382 Y105.803 E8.66742
G1 X103.032 Y104.991 E8.70201
G1 X103.672 Y104.228 E8.73514
G1 X104.284 Y103.564 E8.76517
G1 X104.923 Y102.982 E8.79392
G1 X105.735 Y102.303 E8.82912
G1 X106.463 Y101.718 E8.86018
G1 X107.192 Y101.186 E8.8902
G1 X107.953 Y100.728 E8.91974
G1 X108.897 Y100.214 E8.95549
G1 X109.733 Y99.782 E8.98679
G1 X110.554 Y99.405 E9.01684
G1 X111.335 Y99.125 E9.04443
G1 X112.345 Y98.808 E9.07964
G1 X113.266 Y98.541 E9.11154
G1 X114.145 Y98.331 E9.1416
G1 X114.986 Y98.204 E9.16988
G1 X116.047 Y98.09 E9.20538
G1 X116.978 Y98.01 E9.23646
G1 X117.881 Y97.975 E9.26651
G1 X118.653 Y98.009 E9.29221
G1 X119.565 Y98.087 E9.32266
G1 X120.66 Y98.205 E9.35929
G1 X121.553 Y98.341 E9.38933
G1 X122.349 Y98.533 E9.41657
G1 X123.253 Y98.793 E9.44785
G1 X124.309 Y99.124 E9.48466
G1 X125.158 Y99.432 E9.5147
G1 X125.9 Y99.774 E9.54187
G1 X126.686 Y100.18 E9.5713
G1 X127.703 Y100.735 E9.60983
G1 X128.476 Y101.203 E9.63989
G1 X129.212 Y101.743 E9.67025
G1 X130.244 Y102.578 E9.7144
G1 X130.798 Y103.049 E9.73859
G1 X131.459 Y103.664 E9.76862
G1 X132.018 Y104.279 E9.79626
G1 X132.674 Y105.064 E9.83028
G1 X133.27 Y105.807 E9.86196
G1 X133.801 Y106.537 E9.89199
G1 X134.247 Y107.276 E9.9207
G1 X134.879 Y108.437 E9.96466
G1 X135.202 Y109.064 E9.98812
G1 X135.579 Y109.884 E10.01814
G1 X135.871 Y110.698 E10.0469
G1 X136.234 Y111.868 E10.08765
G1 X136.441 Y112.585 E10.11247
G1 X136.653 Y113.463 E10.14251
G1 X136.782 Y114.319 E10.1713
G1 X136.896 Y115.375 E10.20663
G1 X136.977 Y116.31 E10.23784
G1 X137.013 Y117.212 E10.26787
G1 X136.973 Y118.062 E10.29617
G1 X136.856 Y119.356 E10.33938
G1 X136.776 Y120.065 E10.36311
G1 X136.635 Y120.957 E10.39315
G1 X136.442 Y121.743 E10.42007
G1 X136.194 Y122.597 E10.44965
G1 X135.87 Y123.636 E10.48585
G1 X135.563 Y124.485 E10.51587
G1 X135.194 Y125.28 E10.54502
G1 X134.752 Y126.13 E10.57689
G1 X134.244 Y127.058 E10.61208
G1 X133.776 Y127.83 E10.6421
G1 X133.248 Y128.549 E10.67177
G1 X132.602 Y129.353 E10.70608
G1 X131.972 Y130.103 E10.73865
G1 X131.36 Y130.767 E10.76869
G1 X130.722 Y131.348 E10.79739
G1 X129.91 Y132.027 E10.83259
G1 X129.168 Y132.622 E10.86423
G1 X128.437 Y133.153 E10.89428
G1 X127.689 Y133.603 E10.92331
G1 X126.554 Y134.219 E10.96626
G1 X125.966 Y134.523 E10.98828
G1 X125.147 Y134.902 E11.0183
G1 X124.363 Y135.186 E11.04603
G1 X123.334 Y135.512 E11.08193
G1 X122.379 Y135.789 E11.115
G1 X121.5 Y135.999 E11.14506
G1 X120.667 Y136.125 E11.17308
G1 X119.614 Y136.239 E11.20831
G1 X118.674 Y136.32 E11.23969
G1 X117.771 Y136.356 E11.26975
G1 X116.917 Y136.316 E11.29818
G1 X115.84 Y136.22 E11.33415
G1 X114.894 Y136.114 E11.36581
G1 X114.003 Y135.972 E11.39582
G1 X113.178 Y135.766 E11.4241
G1 X111.954 Y135.403 E11.46656
G1 X111.278 Y135.187 E11.49017
G1 X110.431 Y134.874 E11.5202
G1 X109.671 Y134.517 E11.54813
G1 X108.496 Y133.901 E11.59225
G1 X107.873 Y133.555 E11.61595
G1 X107.103 Y133.082 E11.64601
G1 X106.428 Y132.583 E11.67393
G1 X105.586 Y131.905 E11.70989
G1 X104.845 Y131.279 E11.74215
G1 X104.184 Y130.664 E11.77218
G1 X103.627 Y130.051 E11.79973
G1 X102.971 Y129.266 E11.83375
G1 X102.36 Y128.501 E11.86631
G1 X101.83 Y127.77 E11.89635
G1 X101.397 Y127.051 E11.92426
G1 X100.754 Y125.869 E11.96902
G1 X100.431 Y125.238 E11.99259
G1 X100.056 Y124.416 E12.02264
G1 X99.793 Y123.688 E12.04839
G1 X99.589 Y123.048 E12.07073
G1 X99.216 Y121.783 E12.11459
G1 X99.001 Y120.906 E12.14463
G1 X98.865 Y120.019 E12.17447
G1 X98.75 Y118.96 E12.2099
G1 X98.668 Y118.017 E12.24139
G1 X98.632 Y117.114 E12.27144
G1 F2700 E7.27144
;MESH:wheel_front.stl
G0 F6000 X116.375 Y118.213
G0 X117.103 Y118.64
;TYPE:WALL-INNER
G1 F2700 E12.27144
G1 F1200 X116.926 Y118.509 E12.27877
G1 X116.387 Y117.97 E12.30412
G1 X116.177 Y117.174 E12.3315
G1 X116.19 Y116.948 E12.33903
G1 X116.352 Y116.334 E12.36015
G1 X116.462 Y116.128 E12.36792
G1 X116.968 Y115.618 E12.39181
G1 X117.176 Y115.509 E12.39962
G1 X117.837 Y115.334 E12.42237
G1 X118.016 Y115.334 E12.42832
G1 X118.701 Y115.517 E12.4519
G1 X118.883 Y115.619 E12.45884
G1 X119.407 Y116.138 E12.48337
G1 X119.492 Y116.305 E12.4896
G1 X119.677 Y116.994 E12.51333
G1 X119.677 Y117.174 E12.51932
G1 X119.502 Y117.835 E12.54206
G1 X119.392 Y118.041 E12.54983
G1 X118.883 Y118.549 E12.57375
G1 X118.693 Y118.654 E12.58097
G1 X118.015 Y118.834 E12.6043
G1 X117.837 Y118.834 E12.61022
G1 X117.103 Y118.64 E12.63547
G0 F6000 X116.746 Y117.764
;TYPE:WALL-OUTER
G1 F1200 X116.575 Y117.104 E12.65815
G1 X116.58 Y117.038 E12.66035
G1 X116.746 Y116.413 E12.68186
G1 X117.251 Y115.902 E12.70575
G1 X117.927 Y115.727 E12.72898
G1 X118.6 Y115.903 E12.75211
G1 X119.108 Y116.405 E12.77587
G1 X119.284 Y117.084 E12.7992
G1 X119.108 Y117.761 E12.82246
G1 X118.605 Y118.265 E12.84615
G1 X117.927 Y118.441 E12.86944
G1 X117.25 Y118.265 E12.89271
G1 X116.746 Y117.764 E12.91635
G1 F2700 E7.91635
G0 F6000 X116.458 Y117.839
G0 X116.855 Y118.688
G0 X117.512 Y125.331
G0 X117.822 Y125.563
;TYPE:WALL-INNER
G1 F2700 E12.91635
G1 F1200 X119.458 Y125.401 E12.97103
G1 X121.038 Y124.921 E13.02595
G1 X122.486 Y124.147 E13.08056
G1 X123.762 Y123.1 E13.13546
G1 X124.804 Y121.828 E13.19015
G1 X125.58 Y120.376 E13.2449
G1 X126.058 Y118.801 E13.29965
G1 X126.187 Y117.483 E13.34369
G1 X126.219 Y117.163 E13.35439
G1 X126.058 Y115.529 E13.409
G1 X125.579 Y113.95 E13.46388
G1 X124.804 Y112.502 E13.51851
G1 X123.758 Y111.226 E13.57338
G1 X122.486 Y110.183 E13.62809
G1 X121.038 Y109.409 E13.6827
G1 X119.458 Y108.929 E13.73763
G1 X117.827 Y108.768 E13.79214
G1 X116.187 Y108.929 E13.84695
G1 X114.607 Y109.41 E13.90188
G1 X113.159 Y110.183 E13.95647
G1 X111.883 Y111.23 E14.01137
G1 X110.841 Y112.502 E14.06606
G1 X110.065 Y113.954 E14.12082
G1 X109.587 Y115.529 E14.17556
G1 X109.426 Y117.167 E14.2303
G1 X109.587 Y118.801 E14.28491
G1 X110.065 Y120.376 E14.33966
G1 X110.841 Y121.828 E14.39442
G1 X111.883 Y123.1 E14.44911
G1 X113.159 Y124.147 E14.50401
G1 X114.605 Y124.92 E14.55854
G1 X116.188 Y125.401 E14.61357
G1 X117.822 Y125.563 E14.66818
G0 F6000 X117.822 Y125.965
;TYPE:WALL-OUTER
G1 F1200 X119.536 Y125.795 E14.72547
G1 X121.192 Y125.292 E14.78303
G1 X122.709 Y124.481 E14.84025
G1 X124.046 Y123.384 E14.89777
G1 X125.138 Y122.051 E14.95508
G1 X125.952 Y120.53 E15.01246
G1 X126.452 Y118.879 E15.06983
G1 X126.585 Y117.522 E15.11518
G1 X126.621 Y117.163 E15.12718
G1 X126.452 Y115.451 E15.1844
G1 X125.95 Y113.796 E15.24192
G1 X125.138 Y112.279 E15.29915
G1 X124.042 Y110.942 E15.35665
G1 X122.709 Y109.849 E15.41399
G1 X121.192 Y109.038 E15.4712
G1 X119.536 Y108.535 E15.52876
G1 X117.827 Y108.366 E15.58588
G1 X116.109 Y108.535 E15.6433
G1 X114.453 Y109.038 E15.70086
G1 X112.936 Y109.849 E15.75808
G1 X111.599 Y110.946 E15.8156
