;FLAVOR:Marlin
;TIME:3955
;Filament used: 2.59859m
;Layer height: 0.2
;MINX:61.549
;MINY:90.399
;MINZ:0.2
;MAXX:173.451
;MAXY:144.599
;MAXZ:5
;Generated with Cura_SteamEngine main
M140 S50
M105
M190 S50
M104 S200
M105
M109 S200
M82 ;absolute extrusion mode
; Ender 3 Custom Start G-code
G92 E0 ; Reset Extruder
G28 ; Home all axes
G1 Z2.0 F3000 ; Move Z Axis up little to prevent scratching of Heat Bed
G1 X0.1 Y20 Z0.3 F5000.0 ; Move to start position
G1 X0.1 Y200.0 Z0.3 F1500.0 E15 ; Draw the first line
G1 X0.4 Y200.0 Z0.3 F5000.0 ; Move to side a little
G1 X0.4 Y20 Z0.3 F1500.0 E30 ; Draw the second line
G92 E0 ; Reset Extruder
G1 Z2.0 F3000 ; Move Z Axis up little to prevent scratching of Heat Bed
G1 X5 Y20 Z0.3 F5000.0 ; Move over to prevent blob squish
G92 E0
G92 E0
G1 F2700 E-5
;LAYER_COUNT:25
;LAYER:0
M107
G0 F6000 X71.972 Y95.592 Z0.2
G0 X65.827 Y102.094
;TYPE:SKIRT
G1 F2700 E0
G1 F1200 X66.551 Y101.079 E0.04147
G1 X67.312 Y100.062 E0.08371
G1 X68.204 Y99.013 E0.12951
G1 X69.131 Y98.058 E0.17378
G1 X69.997 Y97.207 E0.21416
G1 X71.004 Y96.332 E0.25853
G1 X71.972 Y95.592 E0.29906
G1 X73.02 Y94.829 E0.34217
G1 X74.18 Y94.091 E0.3879
G1 X75.039 Y93.617 E0.42053
G1 X75.933 Y93.144 E0.45417
G1 X76.498 Y92.857 E0.47525
G1 X77.651 Y92.352 E0.51712
G1 X78.73 Y91.953 E0.55538
G1 X79.513 Y91.679 E0.58297
G1 X80.095 Y91.485 E0.60338
G1 X81.329 Y91.153 E0.64588
G1 X82.625 Y90.886 E0.68989
G1 X83.828 Y90.668 E0.73055
G1 X85.183 Y90.509 E0.77593
G1 X86.42 Y90.444 E0.81713
G1 X88.129 Y90.399 E0.87399
G1 X88.726 Y90.408 E0.89385
G1 X147.871 Y92.619 E2.86239
G1 X148.622 Y92.658 E2.88741
G1 X149.069 Y92.69 E2.90231
G1 X149.575 Y92.737 E2.91921
G1 X150.917 Y92.888 E2.96413
G1 X151.602 Y92.975 E2.9871
G1 X152.87 Y93.212 E3.03
G1 X154.047 Y93.508 E3.07037
G1 X155.292 Y93.85 E3.11331
G1 X156.603 Y94.301 E3.15942
G1 X157.737 Y94.776 E3.20031
G1 X158.901 Y95.294 E3.24269
G1 X160.113 Y95.926 E3.28815
G1 X161.19 Y96.58 E3.33006
G1 X162.261 Y97.264 E3.37233
G1 X163.364 Y98.07 E3.41776
G1 X164.273 Y98.828 E3.45713
G1 X165.262 Y99.69 E3.50076
G1 X166.238 Y100.654 E3.54639
G1 X166.874 Y101.366 E3.57814
G1 X167.891 Y102.56 E3.63031
G1 X168.708 Y103.655 E3.67575
G1 X169.403 Y104.723 E3.71813
G1 X170.055 Y105.777 E3.75935
G1 X170.704 Y106.99 E3.80511
G1 X171.23 Y108.148 E3.84741
G1 X171.72 Y109.293 E3.88883
G1 X172.178 Y110.579 E3.93424
G1 X172.516 Y111.764 E3.97522
G1 X172.837 Y112.994 E4.0175
G1 X173.1 Y114.342 E4.06318
G1 X173.262 Y115.606 E4.10557
G1 X173.393 Y116.852 E4.14724
G1 X173.451 Y118.215 E4.19261
G1 X173.427 Y119.381 E4.2314
G1 X173.405 Y119.988 E4.2516
G1 X173.363 Y120.814 E4.27911
G1 X173.223 Y122.081 E4.32151
G1 X173.055 Y123.07 E4.35488
G1 X172.762 Y124.57 E4.40571
G1 X172.422 Y125.869 E4.45037
G1 X172.015 Y127.097 E4.4934
G1 X171.593 Y128.275 E4.53502
G1 X171.053 Y129.53 E4.58046
G1 X170.493 Y130.629 E4.62148
G1 X169.888 Y131.754 E4.66397
G1 X169.176 Y132.903 E4.70893
G1 X168.634 Y133.668 E4.74011
G1 X167.69 Y134.936 E4.79269
G1 X166.8 Y135.982 E4.83837
G1 X165.896 Y136.915 E4.88157
G1 X165.005 Y137.791 E4.92313
G1 X163.996 Y138.668 E4.9676
G1 X163.028 Y139.408 E5.00812
G1 X161.98 Y140.171 E5.05124
G1 X160.822 Y140.908 E5.09689
G1 X159.789 Y141.476 E5.1361
G1 X159.06 Y141.86 E5.16351
G1 X158.494 Y142.147 E5.18461
G1 X157.352 Y142.646 E5.22607
G1 X156.27 Y143.047 E5.26444
G1 X155.487 Y143.321 E5.29204
G1 X154.905 Y143.515 E5.31244
G1 X153.671 Y143.847 E5.35494
G1 X152.372 Y144.114 E5.39905
G1 X151.167 Y144.332 E5.43978
G1 X149.82 Y144.491 E5.48489
G1 X148.886 Y144.543 E5.51601
G1 X147.24 Y144.595 E5.57078
G1 X146.584 Y144.599 E5.5926
G1 X146.21 Y144.591 E5.60504
G1 X87.124 Y142.381 E7.57162
G1 X86.375 Y142.342 E7.59657
G1 X85.488 Y142.27 E7.62617
G1 X84.083 Y142.112 E7.67319
G1 X83.398 Y142.025 E7.69616
G1 X82.13 Y141.788 E7.73906
G1 X80.953 Y141.492 E7.77943
G1 X79.708 Y141.15 E7.82237
G1 X78.397 Y140.699 E7.86848
G1 X77.51 Y140.33 E7.90044
G1 X76.096 Y139.704 E7.95187
G1 X74.883 Y139.072 E7.99736
G1 X73.81 Y138.42 E8.03912
G1 X72.739 Y137.736 E8.08139
G1 X71.636 Y136.93 E8.12682
G1 X70.726 Y136.171 E8.16624
G1 X69.735 Y135.307 E8.20997
G1 X68.759 Y134.343 E8.25559
G1 X68.125 Y133.633 E8.28725
G1 X67.109 Y132.44 E8.33937
G1 X66.292 Y131.345 E8.38481
G1 X65.597 Y130.277 E8.42719
G1 X64.945 Y129.223 E8.46841
G1 X64.297 Y128.011 E8.51412
G1 X63.756 Y126.82 E8.55763
G1 X63.277 Y125.699 E8.59818
G1 X62.82 Y124.414 E8.64354
G1 X62.484 Y123.236 E8.68428
G1 X62.163 Y122.006 E8.72656
G1 X61.9 Y120.658 E8.77224
G1 X61.738 Y119.394 E8.81463
G1 X61.607 Y118.148 E8.8563
G1 X61.549 Y116.785 E8.90167
G1 X61.568 Y115.804 E8.93431
G1 X61.633 Y114.271 E8.98534
G1 X61.777 Y112.919 E9.03056
G1 X61.945 Y111.93 E9.06393
G1 X62.238 Y110.43 E9.11476
G1 X62.578 Y109.13 E9.15945
G1 X62.894 Y108.168 E9.19313
G1 X63.408 Y106.723 E9.24414
G1 X63.947 Y105.47 E9.28951
G1 X64.507 Y104.371 E9.33054
G1 X65.112 Y103.246 E9.37302
G1 X65.827 Y102.094 E9.41812
G1 F2700 E4.41812
G0 F6000 X63.023 Y110.585
G1 F2700 E9.41812
G1 F1200 X63.338 Y109.38 E9.45954
G1 X63.743 Y108.159 E9.50233
G1 X64.161 Y106.993 E9.54353
G1 X64.661 Y105.831 E9.5856
G1 X65.093 Y104.977 E9.61743
G1 X65.817 Y103.625 E9.66844
G1 X66.479 Y102.556 E9.71026
G1 X67.037 Y101.769 E9.74235
G1 X67.952 Y100.541 E9.79328
G1 X68.78 Y99.568 E9.83578
G1 X69.502 Y98.82 E9.87036
G1 X70.558 Y97.778 E9.9197
G1 X71.491 Y96.966 E9.96084
G1 X72.442 Y96.239 E10.00065
G1 X73.49 Y95.476 E10.04377
G1 X74.566 Y94.791 E10.08619
G1 X75.425 Y94.317 E10.11882
G1 X76.149 Y93.933 E10.14608
G1 X76.861 Y93.57 E10.17266
G1 X77.929 Y93.102 E10.21144
G1 X78.823 Y92.77 E10.24316
G1 X79.766 Y92.438 E10.27641
G1 X80.348 Y92.244 E10.29682
G1 X81.492 Y91.936 E10.33622
G1 X82.767 Y91.673 E10.37952
G1 X83.97 Y91.455 E10.42019
G1 X85.227 Y91.307 E10.46228
G1 X86.188 Y91.254 E10.4943
G1 X88.126 Y91.199 E10.55878
G1 X88.696 Y91.207 E10.57774
G1 X147.83 Y93.418 E12.54592
G1 X148.581 Y93.457 E12.57093
G1 X148.995 Y93.487 E12.58474
G1 X149.704 Y93.555 E12.60843
G1 X150.816 Y93.681 E12.64565
G1 X151.501 Y93.768 E12.66861
G1 X152.677 Y93.988 E12.70841
G1 X153.835 Y94.279 E12.74812
G1 X155.08 Y94.621 E12.79106
G1 X156.296 Y95.039 E12.83383
G1 X157.183 Y95.408 E12.86578
G1 X158.576 Y96.025 E12.91645
G1 X159.7 Y96.611 E12.95862
G1 X160.54 Y97.118 E12.99125
G1 X161.83 Y97.939 E13.04211
G1 X162.853 Y98.685 E13.08422
G1 X163.558 Y99.27 E13.11469
G1 X164.736 Y100.293 E13.16658
G1 X165.641 Y101.187 E13.20889
G1 X166.277 Y101.899 E13.24064
G1 X167.281 Y103.078 E13.29215
G1 X168.039 Y104.093 E13.33428
G1 X168.585 Y104.928 E13.36747
G1 X169.374 Y106.198 E13.41719
G1 X169.976 Y107.323 E13.45963
G1 X170.494 Y108.463 E13.50128
G1 X170.984 Y109.608 E13.5427
G1 X171.409 Y110.801 E13.58482
G1 X171.741 Y111.966 E13.62512
G1 X172.062 Y113.196 E13.6674
G1 X172.306 Y114.446 E13.70976
G1 X172.466 Y115.689 E13.75144
G1 X172.597 Y116.935 E13.79311
G1 X172.651 Y118.2 E13.83522
G1 X172.632 Y119.181 E13.86786
G1 X172.598 Y120.124 E13.89924
G1 X172.564 Y120.773 E13.92086
G1 X172.434 Y121.947 E13.96014
G1 X172.266 Y122.936 E13.99351
G1 X171.977 Y124.415 E14.04363
G1 X171.662 Y125.62 E14.08505
G1 X171.35 Y126.57 E14.11831
G1 X170.839 Y128.005 E14.16898
G1 X170.339 Y129.169 E14.21111
G1 X169.907 Y130.023 E14.24294
G1 X169.183 Y131.375 E14.29395
G1 X168.523 Y132.441 E14.33565
G1 X167.981 Y133.206 E14.36684
G1 X167.049 Y134.457 E14.41872
G1 X166.224 Y135.427 E14.46108
G1 X165.335 Y136.344 E14.50356
G1 X164.444 Y137.22 E14.54511
G1 X163.509 Y138.034 E14.58635
G1 X162.558 Y138.761 E14.62616
G1 X161.51 Y139.524 E14.66928
G1 X160.436 Y140.208 E14.71163
G1 X159.581 Y140.68 E14.74411
G1 X158.849 Y141.068 E14.77166
G1 X158.132 Y141.433 E14.79842
G1 X157.073 Y141.897 E14.83688
G1 X156.18 Y142.229 E14.86857
G1 X155.234 Y142.562 E14.90192
G1 X154.652 Y142.756 E14.92233
G1 X153.508 Y143.064 E14.96173
G1 X152.23 Y143.327 E15.00513
G1 X151.025 Y143.545 E15.04586
G1 X149.776 Y143.692 E15.08769
G1 X148.575 Y143.756 E15.12769
G1 X147.216 Y143.796 E15.17291
G1 X146.586 Y143.799 E15.19386
G1 X146.24 Y143.792 E15.20537
G1 X87.166 Y141.582 E17.17156
G1 X86.417 Y141.543 E17.1965
G1 X85.561 Y141.473 E17.22507
G1 X84.184 Y141.319 E17.27115
G1 X83.499 Y141.232 E17.29412
G1 X82.323 Y141.012 E17.33391
G1 X81.165 Y140.721 E17.37363
G1 X79.92 Y140.379 E17.41657
G1 X78.704 Y139.961 E17.45934
G1 X77.587 Y139.493 E17.49962
G1 X76.421 Y138.974 E17.54207
G1 X75.297 Y138.387 E17.58424
G1 X74.459 Y137.881 E17.6168
G1 X73.17 Y137.061 E17.66761
G1 X72.147 Y136.315 E17.70972
G1 X71.442 Y135.73 E17.74019
G1 X70.261 Y134.704 E17.79223
G1 X69.356 Y133.81 E17.83454
G1 X68.722 Y133.1 E17.8662
G1 X67.719 Y131.922 E17.91765
G1 X66.961 Y130.907 E17.95979
G1 X66.415 Y130.072 E17.99297
G1 X65.626 Y128.802 E18.0427
G1 X65.024 Y127.678 E18.08511
G1 X64.491 Y126.506 E18.12793
G1 X64.012 Y125.385 E18.16848
G1 X63.588 Y124.193 E18.21056
G1 X63.324 Y123.274 E18.24236
G1 X62.938 Y121.804 E18.29291
G1 X62.694 Y120.554 E18.33527
G1 X62.534 Y119.311 E18.37695
G1 X62.403 Y118.065 E18.41862
G1 X62.349 Y116.8 E18.46073
G1 X62.376 Y115.563 E18.50189
G1 X62.432 Y114.307 E18.5437
G1 X62.566 Y113.053 E18.58565
G1 X62.734 Y112.064 E18.61901
G1 X63.023 Y110.585 E18.66914
G1 F2700 E13.66914
G0 F6000 X61.949 Y116.793
G1 F2700 E18.66914
G1 F1200 X61.968 Y115.812 E18.70177
G1 X62.033 Y114.289 E18.75247
G1 X62.172 Y112.986 E18.79606
G1 X62.391 Y111.716 E18.83892
G1 X62.63 Y110.507 E18.87991
G1 X62.958 Y109.255 E18.92296
G1 X63.274 Y108.293 E18.95663
G1 X63.785 Y106.858 E19.0073
G1 X64.304 Y105.65 E19.05103
G1 X64.859 Y104.56 E19.09171
G1 X65.464 Y103.435 E19.1342
G1 X66.153 Y102.325 E19.17765
G1 X66.871 Y101.318 E19.21878
G1 X67.632 Y100.301 E19.26103
G1 X68.492 Y99.29 E19.30518
G1 X69.411 Y98.343 E19.34907
G1 X70.277 Y97.492 E19.38945
G1 X71.247 Y96.649 E19.43219
G1 X71.986 Y96.081 E19.46319
G1 X73.255 Y95.153 E19.51548
G1 X74.373 Y94.441 E19.55957
G1 X75.4 Y93.876 E19.59855
G1 X76.114 Y93.5 E19.62539
G1 X76.679 Y93.213 E19.64647
G1 X77.79 Y92.727 E19.6868
G1 X78.684 Y92.395 E19.71852
G1 X79.64 Y92.059 E19.75223
G1 X80.222 Y91.865 E19.77263
G1 X81.41 Y91.544 E19.81356
G1 X82.422 Y91.333 E19.84794
G1 X83.899 Y91.062 E19.89789
G1 X85.205 Y90.908 E19.94163
G1 X86.166 Y90.855 E19.97364
G1 X87.764 Y90.804 E20.02682
G1 X88.127 Y90.799 E20.03889
G1 X88.711 Y90.807 E20.05832
G1 X147.851 Y93.018 E22.02669
G1 X148.602 Y93.057 E22.05171
G1 X149.032 Y93.088 E22.06605
G1 X149.749 Y93.157 E22.09
G1 X150.867 Y93.284 E22.12743
G1 X151.552 Y93.371 E22.15039
G1 X152.774 Y93.6 E22.19174
G1 X153.691 Y93.828 E22.22317
G1 X155.186 Y94.236 E22.27472
G1 X156.449 Y94.67 E22.31913
G1 X157.575 Y95.142 E22.35974
G1 X158.739 Y95.66 E22.40212
G1 X159.906 Y96.269 E22.4459
G1 X160.974 Y96.917 E22.48745
G1 X162.045 Y97.601 E22.52971
G1 X163.109 Y98.378 E22.57353
G1 X164.01 Y99.129 E22.61255
G1 X164.999 Y99.991 E22.65618
G1 X165.939 Y100.92 E22.70014
G1 X166.575 Y101.632 E22.73189
G1 X167.586 Y102.819 E22.78375
G1 X168.374 Y103.874 E22.82755
G1 X169.063 Y104.934 E22.8696
G1 X169.715 Y105.988 E22.91082
G1 X170.34 Y107.156 E22.95488
G1 X170.757 Y108.068 E22.98823
G1 X171.352 Y109.451 E23.03831
G1 X171.794 Y110.69 E23.08206
G1 X172.059 Y111.611 E23.11394
G1 X172.449 Y113.095 E23.16497
G1 X172.703 Y114.394 E23.20899
G1 X172.864 Y115.648 E23.25104
G1 X172.995 Y116.894 E23.29271
G1 X173.051 Y118.207 E23.33642
G1 X173.027 Y119.367 E23.37501
G1 X173.005 Y119.974 E23.39522
G1 X172.963 Y120.794 E23.42253
G1 X172.828 Y122.014 E23.46335
G1 X172.609 Y123.284 E23.50621
G1 X172.37 Y124.493 E23.5472
G1 X172.042 Y125.744 E23.59022
G1 X171.638 Y126.962 E23.6329
G1 X171.216 Y128.14 E23.67452
G1 X170.696 Y129.35 E23.71832
G1 X170.141 Y130.44 E23.75901
G1 X169.536 Y131.565 E23.80149
G1 X168.849 Y132.672 E23.84482
G1 X168.147 Y133.657 E23.88505
G1 X167.37 Y134.696 E23.92821
G1 X166.512 Y135.705 E23.97226
G1 X165.615 Y136.63 E24.01511
G1 X164.724 Y137.506 E24.05667
G1 X163.753 Y138.351 E24.09948
G1 X163.014 Y138.919 E24.13048
G1 X161.745 Y139.847 E24.18277
G1 X160.629 Y140.558 E24.22678
G1 X159.602 Y141.123 E24.26577
G1 X159.036 Y141.422 E24.28706
G1 X158.313 Y141.79 E24.31404
G1 X157.213 Y142.272 E24.35399
G1 X156.32 Y142.604 E24.38568
G1 X155.36 Y142.941 E24.41952
G1 X154.778 Y143.135 E24.43992
G1 X153.59 Y143.456 E24.48085
G1 X152.301 Y143.721 E24.52462
G1 X151.096 Y143.939 E24.56535
G1 X149.798 Y144.092 E24.60882
G1 X148.864 Y144.144 E24.63993
G1 X146.88 Y144.2 E24.70595
G1 X146.225 Y144.192 E24.72773
G1 X87.145 Y141.982 E26.69412
G1 X86.396 Y141.943 E26.71906
G1 X85.985 Y141.913 E26.73277
G1 X85.295 Y141.848 E26.75582
G1 X84.133 Y141.716 E26.79472
G1 X83.448 Y141.629 E26.81768
G1 X82.226 Y141.4 E26.85903
G1 X81.309 Y141.172 E26.89046
G1 X79.814 Y140.764 E26.942
G1 X78.551 Y140.33 E26.98642
G1 X77.425 Y139.858 E27.02703
G1 X76.259 Y139.339 E27.06948
G1 X75.09 Y138.729 E27.11334
G1 X74.026 Y138.083 E27.15474
G1 X72.955 Y137.399 E27.197
G1 X71.891 Y136.622 E27.24082
G1 X70.989 Y135.87 E27.27988
G1 X69.998 Y135.006 E27.32361
G1 X69.057 Y134.076 E27.36762
G1 X68.423 Y133.366 E27.39928
G1 X67.414 Y132.181 E27.45104
G1 X66.626 Y131.126 E27.49484
G1 X65.937 Y130.066 E27.53689
G1 X65.285 Y129.012 E27.57811
G1 X64.66 Y127.845 E27.62214
G1 X64.231 Y126.907 E27.65645
G1 X63.645 Y125.542 E27.70585
G1 X63.204 Y124.304 E27.74956
G1 X62.94 Y123.385 E27.78137
G1 X62.551 Y121.905 E27.83226
G1 X62.297 Y120.606 E27.87629
G1 X62.136 Y119.352 E27.91834
G1 X62.005 Y118.106 E27.96001
G1 X61.949 Y116.793 E28.00372
G1 F2700 E23.00372
;MESH:akiva.STL
G0 F6000 X86.882 Y117.117
G0 X87.642 Y113.867
;TYPE:WALL-OUTER
G1 F2700 E28.00372
G1 F769.2 X87.737 Y113.521 E28.02233
G1 F764.3 X87.832 Y113.175 E28.04107
G1 F758.3 X87.927 Y112.829 E28.05996
G1 F753.5 X88.022 Y112.483 E28.07896
G1 F748.8 X88.118 Y112.136 E28.09815
G1 F2700 E23.09815
G0 F6000 X88.371 Y111.727
G0 X88.78 Y111.766
G0 X89.794 Y116.209
G0 X88.157 Y116.583
G0 X87.711 Y116.699
G1 F2700 E28.09815
G0 F6000 X87.94 Y116.887
;TYPE:WALL-INNER
G1 F860.2 X87.608 Y115.436 E28.16721
G1 X87.229 Y116.862 E28.23567
G1 X87.94 Y116.887 E28.26868
G0 F6000 X88.471 Y117.464
;TYPE:WALL-OUTER
G1 F817.7 X88.525 Y117.715 E28.28121
G1 F809.4 X88.579 Y117.966 E28.29387
G1 F801.3 X88.633 Y118.218 E28.30671
G1 F793.4 X88.687 Y118.469 E28.31963
G0 F6000 X88.666 Y119.036
G0 X88.147 Y118.937
G0 X88.214 Y117.158
G0 X88.471 Y117.464
G1 F975.6 X88.471 Y117.059 E28.33619
G1 F1200 X88.327 Y116.427 E28.35775
G1 F1176.5 X88.262 Y116.181 E28.36638
G1 F1132.1 X88.197 Y115.934 E28.37539
G1 F1088.4 X88.132 Y115.688 E28.38472
G1 F1048 X88.067 Y115.441 E28.39445
G1 F1012.7 X88.002 Y115.194 E28.40451
G1 F977.6 X87.937 Y114.948 E28.4149
G1 F946.7 X87.872 Y114.701 E28.42567
G1 F916 X87.807 Y114.455 E28.43675
G1 F887.2 X87.741 Y114.208 E28.44826
G1 F861.8 X87.676 Y113.961 E28.46008
G1 F808.1 X87.642 Y113.867 E28.46502
G1 X87.593 Y113.956 E28.47004
G1 F861.8 X87.52 Y114.2 E28.48184
G1 F887.2 X87.446 Y114.444 E28.49331
G1 F916 X87.373 Y114.688 E28.5044
G1 F946.7 X87.299 Y114.932 E28.51515
G1 F977.6 X87.226 Y115.177 E28.52559
G1 F1012.7 X87.152 Y115.421 E28.53564
G1 F1048 X87.079 Y115.665 E28.54534
G1 F1088.4 X87.005 Y115.909 E28.55469
G1 F1132.1 X86.932 Y116.153 E28.56367
G1 F1176.5 X86.858 Y116.398 E28.57235
G1 F1200 X86.611 Y117.319 E28.60406
G1 X88.209 Y117.377 E28.65725
G1 F975.6 X88.471 Y117.464 E28.66854
G1 F2700 E23.66854
G0 F6000 X88.217 Y117.118
G0 X89.929 Y116.781
G0 X91.544 Y121.909
;TYPE:WALL-INNER
G1 F2700 E28.66854
G1 F1200 X91.006 Y122.049 E28.68703
G1 X88.558 Y121.953 E28.76852
G1 X88.098 Y121.783 E28.78483
G1 F1140.1 X87.884 Y121.63 E28.79404
