;FLAVOR:Marlin
;TIME:1566
;Filament used: 0.94007m
;Layer height: 0.2
;MINX:82.08
;MINY:106.761
;MINZ:0.2
;MAXX:164.078
;MAXY:148.76
;MAXZ:3.6
;Generated with Cura_SteamEngine main
M140 S55
M105
M190 S55
M104 S190
M105
M109 S190
M82 ;absolute extrusion mode
; Ender 3 Custom Start G-code
G92 E0 ; Reset Extruder
G28 ; Home all axes
G1 Z2.0 F3000 ; Move Z Axis up little to prevent scratching of Heat Bed
G1 X0.1 Y20 Z0.3 F5000.0 ; Move to start position
G1 X0.1 Y200.0 Z0.3 F1500.0 E15 ; Draw the first line
G1 X0.4 Y200.0 Z0.3 F5000.0 ; Move to side a little
G1 X0.4 Y20 Z0.3 F1500.0 E30 ; Draw the second line
G92 E0 ; Reset Extruder
G1 Z2.0 F3000 ; Move Z Axis up little to prevent scratching of Heat Bed
G1 X5 Y20 Z0.3 F5000.0 ; Move over to prevent blob squish
G92 E0
G92 E0
G1 F2700 E-5
;LAYER_COUNT:18
;LAYER:0
M107
G0 F6000 X88.137 Y110.247 Z0.2
G0 X82.382 Y119.738
;TYPE:SKIRT
G1 F2700 E0
G1 F1200 X82.549 Y118.996 E0.0253
G1 X82.68 Y118.485 E0.04284
G1 X83.047 Y117.323 E0.08337
G1 X83.344 Y116.575 E0.11014
G1 X83.556 Y116.088 E0.12781
G1 X84.088 Y115.027 E0.16728
G1 X84.443 Y114.425 E0.19053
G1 X84.734 Y113.963 E0.20869
G1 X85.511 Y112.882 E0.25297
G1 X85.927 Y112.384 E0.27455
G1 X86.311 Y111.948 E0.29387
G1 X87.189 Y111.059 E0.33543
G1 X87.719 Y110.593 E0.3589
G1 X88.137 Y110.247 E0.37695
G1 X89.118 Y109.523 E0.4175
G1 X89.797 Y109.094 E0.44422
G1 X90.26 Y108.822 E0.46208
G1 X91.298 Y108.284 E0.50096
G1 X91.989 Y107.985 E0.526
G1 X92.481 Y107.79 E0.54361
G1 X93.654 Y107.4 E0.58472
G1 X94.353 Y107.22 E0.60873
G1 X94.87 Y107.103 E0.62636
G1 X96.107 Y106.897 E0.66807
G1 X96.866 Y106.826 E0.69342
G1 X97.392 Y106.793 E0.71095
G1 X97.871 Y106.773 E0.7269
G1 X98.605 Y106.761 E0.75131
G1 X150.372 Y106.761 E2.47309
G1 X151.339 Y106.776 E2.50526
G1 X152.302 Y106.828 E2.53733
G1 X153.343 Y106.97 E2.57228
G1 X154.085 Y107.128 E2.59751
G1 X154.989 Y107.379 E2.62871
G1 X155.594 Y107.595 E2.65008
G1 X156.079 Y107.784 E2.66739
G1 X156.938 Y108.161 E2.69859
G1 X157.761 Y108.61 E2.72978
G1 X158.543 Y109.128 E2.76097
G1 X159.034 Y109.506 E2.78158
G1 X159.515 Y109.898 E2.80222
G1 X160.216 Y110.521 E2.83341
G1 X160.862 Y111.201 E2.86461
G1 X161.447 Y111.934 E2.8958
G1 X161.805 Y112.455 E2.91683
G1 X162.152 Y112.992 E2.93809
G1 X162.627 Y113.801 E2.9693
G1 X163.031 Y114.647 E3.00048
G1 X163.362 Y115.524 E3.03165
G1 X163.548 Y116.152 E3.05344
G1 X163.683 Y116.663 E3.07102
G1 X163.884 Y117.579 E3.10221
G1 X164.029 Y118.826 E3.14396
G1 X164.057 Y119.301 E3.15979
G1 X164.076 Y119.945 E3.18122
G1 X164.078 Y132.21 E3.58915
G1 X164.068 Y132.916 E3.61264
G1 X164.039 Y133.618 E3.63601
G1 X163.963 Y134.537 E3.66668
G1 X163.796 Y135.684 E3.70523
G1 X163.624 Y136.473 E3.73209
G1 X163.492 Y136.993 E3.74993
G1 X163.119 Y138.178 E3.79125
G1 X162.819 Y138.937 E3.8184
G1 X162.617 Y139.403 E3.83529
G1 X162.064 Y140.504 E3.87627
G1 X161.691 Y141.134 E3.90062
G1 X161.41 Y141.578 E3.91809
G1 X160.687 Y142.588 E3.95941
G1 X160.236 Y143.134 E3.98296
G1 X159.885 Y143.535 E4.00069
G1 X158.954 Y144.477 E4.04474
G1 X158.447 Y144.921 E4.06715
G1 X158.024 Y145.272 E4.08543
G1 X157.047 Y145.996 E4.12588
G1 X156.406 Y146.403 E4.15113
G1 X155.946 Y146.675 E4.16891
G1 X154.865 Y147.235 E4.2094
G1 X154.186 Y147.529 E4.23401
G1 X153.68 Y147.73 E4.25212
G1 X152.506 Y148.121 E4.29327
G1 X151.814 Y148.299 E4.31704
G1 X151.294 Y148.417 E4.33478
G1 X150.014 Y148.629 E4.37793
G1 X149.291 Y148.695 E4.40208
G1 X148.617 Y148.736 E4.42453
G1 X147.95 Y148.756 E4.44673
G1 X98.63 Y148.76 E6.08712
G1 X97.924 Y148.75 E6.1106
G1 X97.458 Y148.733 E6.12611
G1 X96.741 Y148.685 E6.15001
G1 X96.256 Y148.639 E6.16622
G1 X95.071 Y148.461 E6.20607
G1 X94.32 Y148.293 E6.23167
G1 X93.816 Y148.164 E6.24897
G1 X92.648 Y147.795 E6.28971
G1 X91.906 Y147.501 E6.31626
G1 X91.426 Y147.293 E6.33366
G1 X90.337 Y146.748 E6.37416
G1 X89.703 Y146.371 E6.39869
G1 X89.236 Y146.074 E6.4171
G1 X88.252 Y145.369 E6.45736
G1 X87.674 Y144.89 E6.48233
G1 X87.357 Y144.611 E6.49637
G1 X86.417 Y143.678 E6.54042
G1 X85.853 Y143.046 E6.5686
G1 X85.259 Y142.32 E6.5998
G1 X84.85 Y141.737 E6.62348
G1 X84.436 Y141.084 E6.6492
G1 X84.17 Y140.635 E6.66656
G1 X83.611 Y139.56 E6.70686
G1 X83.307 Y138.858 E6.7323
G1 X83.11 Y138.362 E6.75005
G1 X82.701 Y137.125 E6.79339
G1 X82.543 Y136.5 E6.81483
G1 X82.425 Y135.981 E6.83253
G1 X82.216 Y134.739 E6.87442
G1 X82.142 Y133.934 E6.90131
G1 X82.104 Y133.299 E6.92246
G1 X82.084 Y132.648 E6.94413
G1 X82.08 Y123.312 E7.25464
G1 X82.09 Y122.606 E7.27813
G1 X82.107 Y122.14 E7.29364
G1 X82.155 Y121.421 E7.3176
G1 X82.201 Y120.937 E7.33378
G1 X82.382 Y119.738 E7.37411
G1 F2700 E2.37411
G0 F6000 X82.479 Y123.474
G1 F2700 E7.37411
G1 F1200 X82.49 Y122.612 E7.40278
G1 X82.506 Y122.162 E7.41775
G1 X82.554 Y121.459 E7.44119
G1 X82.6 Y120.975 E7.45736
G1 X82.774 Y119.819 E7.49624
G1 X82.936 Y119.096 E7.52089
G1 X83.067 Y118.585 E7.53843
G1 X83.421 Y117.465 E7.5775
G1 X83.711 Y116.735 E7.60363
G1 X83.923 Y116.248 E7.62129
G1 X84.436 Y115.225 E7.65936
G1 X84.782 Y114.639 E7.68199
G1 X85.073 Y114.177 E7.70015
G1 X85.821 Y113.135 E7.74281
G1 X86.227 Y112.648 E7.7639
G1 X86.611 Y112.212 E7.78322
G1 X87.457 Y111.355 E7.82328
G1 X87.974 Y110.901 E7.84616
G1 X88.392 Y110.555 E7.86421
G1 X89.337 Y109.858 E7.90326
G1 X90 Y109.438 E7.92937
G1 X90.463 Y109.166 E7.94723
G1 X91.463 Y108.648 E7.98469
G1 X92.136 Y108.357 E8.00907
G1 X92.628 Y108.162 E8.02668
G1 X93.759 Y107.786 E8.06632
G1 X94.441 Y107.61 E8.08974
G1 X94.958 Y107.493 E8.10737
G1 X96.15 Y107.294 E8.14757
G1 X96.891 Y107.225 E8.17232
G1 X97.417 Y107.192 E8.18985
G1 X97.879 Y107.173 E8.20523
G1 X98.605 Y107.161 E8.22938
G1 X150.548 Y107.162 E9.95701
G1 X151.333 Y107.175 E9.98312
G1 X152.268 Y107.227 E10.01427
G1 X153.289 Y107.367 E10.04855
G1 X153.994 Y107.518 E10.07253
G1 X154.881 Y107.765 E10.10315
G1 X155.449 Y107.967 E10.1232
G1 X155.934 Y108.156 E10.14051
G1 X156.776 Y108.528 E10.17113
G1 X157.583 Y108.971 E10.20175
G1 X158.349 Y109.482 E10.23238
G1 X158.781 Y109.816 E10.25054
G1 X159.262 Y110.208 E10.27118
G1 X159.95 Y110.82 E10.3018
G1 X160.582 Y111.49 E10.33244
G1 X161.154 Y112.211 E10.36305
G1 X161.469 Y112.672 E10.38162
G1 X161.816 Y113.209 E10.40288
G1 X162.282 Y114.003 E10.4335
G1 X162.677 Y114.835 E10.46414
G1 X162.998 Y115.698 E10.49476
G1 X163.161 Y116.255 E10.51406
G1 X163.296 Y116.766 E10.53164
G1 X163.493 Y117.665 E10.56225
G1 X163.63 Y118.849 E10.6019
G1 X163.658 Y119.324 E10.61772
G1 X163.676 Y119.945 E10.63838
G1 X163.679 Y132.051 E11.04103
G1 X163.668 Y132.91 E11.0696
G1 X163.64 Y133.598 E11.09251
G1 X163.565 Y134.501 E11.12264
G1 X163.404 Y135.606 E11.15978
G1 X163.236 Y136.375 E11.18596
G1 X163.104 Y136.895 E11.20381
G1 X162.745 Y138.037 E11.24362
G1 X162.452 Y138.778 E11.27013
G1 X162.25 Y139.244 E11.28702
G1 X161.717 Y140.305 E11.32651
G1 X161.353 Y140.92 E11.35028
G1 X161.072 Y141.364 E11.36776
G1 X160.376 Y142.338 E11.40757
G1 X159.935 Y142.871 E11.43058
G1 X159.584 Y143.272 E11.44831
G1 X158.687 Y144.18 E11.49076
G1 X158.192 Y144.613 E11.51263
G1 X157.769 Y144.964 E11.53091
G1 X156.827 Y145.662 E11.56991
G1 X156.202 Y146.058 E11.59452
G1 X155.742 Y146.33 E11.61229
G1 X154.7 Y146.871 E11.65134
G1 X154.038 Y147.157 E11.67533
G1 X153.532 Y147.358 E11.69344
G1 X152.401 Y147.735 E11.73309
G1 X151.726 Y147.909 E11.75627
G1 X151.206 Y148.027 E11.77401
G1 X149.972 Y148.232 E11.81561
G1 X149.267 Y148.295 E11.83915
G1 X148.593 Y148.336 E11.86161
G1 X147.95 Y148.356 E11.88301
G1 X98.787 Y148.361 E13.51818
G1 X97.93 Y148.35 E13.54668
G1 X97.48 Y148.334 E13.56166
G1 X96.779 Y148.287 E13.58503
G1 X96.294 Y148.241 E13.60123
G1 X95.152 Y148.069 E13.63964
G1 X94.42 Y147.906 E13.66459
G1 X93.916 Y147.777 E13.68189
G1 X92.789 Y147.421 E13.7212
G1 X92.065 Y147.134 E13.7471
G1 X91.585 Y146.926 E13.7645
G1 X90.536 Y146.4 E13.80353
G1 X89.918 Y146.033 E13.82744
G1 X89.451 Y145.736 E13.84585
G1 X88.502 Y145.057 E13.88466
G1 X87.938 Y144.59 E13.90901
G1 X87.621 Y144.311 E13.92306
G1 X86.715 Y143.412 E13.96551
G1 X86.151 Y142.78 E13.99368
G1 X85.569 Y142.067 E14.02429
G1 X85.185 Y141.518 E14.04658
G1 X84.78 Y140.88 E14.07171
G1 X84.514 Y140.431 E14.08907
G1 X83.976 Y139.395 E14.1279
G1 X83.679 Y138.711 E14.1527
G1 X83.482 Y138.215 E14.17045
G1 X83.088 Y137.023 E14.2122
G1 X82.933 Y136.411 E14.2332
G1 X82.815 Y135.892 E14.25091
G1 X82.614 Y134.695 E14.29127
G1 X82.541 Y133.91 E14.3175
G1 X82.503 Y133.275 E14.33865
G1 X82.484 Y132.648 E14.35952
G1 X82.479 Y123.474 E14.66465
G0 F6000 X82.879 Y123.474
G1 F1200 X82.89 Y122.618 E14.69312
G1 X82.905 Y122.185 E14.70753
G1 X82.952 Y121.497 E14.73047
G1 X82.998 Y121.013 E14.74664
G1 X83.166 Y119.901 E14.78404
G1 X83.324 Y119.195 E14.8081
G1 X83.455 Y118.684 E14.82565
G1 X83.795 Y117.606 E14.86325
G1 X84.078 Y116.895 E14.8887
G1 X84.29 Y116.408 E14.90636
G1 X84.783 Y115.423 E14.943
G1 X85.12 Y114.852 E14.96505
G1 X85.411 Y114.39 E14.98321
G1 X86.131 Y113.387 E15.02428
G1 X86.528 Y112.912 E15.04487
G1 X86.912 Y112.476 E15.06419
G1 X87.725 Y111.652 E15.10269
G1 X88.229 Y111.21 E15.12499
G1 X88.647 Y110.864 E15.14304
G1 X89.556 Y110.192 E15.18063
G1 X90.202 Y109.783 E15.20606
G1 X90.665 Y109.511 E15.22392
G1 X91.628 Y109.013 E15.25998
G1 X92.284 Y108.729 E15.28376
G1 X92.776 Y108.534 E15.30136
G1 X93.864 Y108.172 E15.3395
G1 X94.53 Y108.001 E15.36237
G1 X95.047 Y107.884 E15.38
G1 X96.193 Y107.692 E15.41865
G1 X96.916 Y107.624 E15.4428
G1 X97.442 Y107.591 E15.46033
G1 X97.886 Y107.573 E15.47511
G1 X98.605 Y107.561 E15.49903
G1 X150.541 Y107.562 E17.22642
G1 X151.326 Y107.575 E17.25254
G1 X152.233 Y107.625 E17.28275
G1 X153.234 Y107.764 E17.31636
G1 X153.904 Y107.908 E17.33916
G1 X154.774 Y108.15 E17.36919
G1 X155.304 Y108.34 E17.38792
G1 X155.789 Y108.529 E17.40523
G1 X156.615 Y108.894 E17.43527
G1 X157.405 Y109.33 E17.46528
G1 X158.154 Y109.835 E17.49532
G1 X158.529 Y110.126 E17.51111
G1 X159.01 Y110.518 E17.53175
G1 X159.684 Y111.119 E17.56178
G1 X160.302 Y111.777 E17.59181
G1 X160.86 Y112.488 E17.62187
G1 X161.133 Y112.889 E17.638
G1 X161.48 Y113.426 E17.65927
G1 X161.936 Y114.206 E17.68932
G1 X162.321 Y115.022 E17.71933
G1 X162.633 Y115.87 E17.74938
G1 X162.775 Y116.357 E17.76625
G1 X162.91 Y116.868 E17.78383
G1 X163.101 Y117.75 E17.81385
G1 X163.23 Y118.873 E17.85144
G1 X163.258 Y119.348 E17.86727
G1 X163.276 Y119.945 E17.88714
G1 X163.279 Y132.051 E18.28978
G1 X163.268 Y132.904 E18.31816
G1 X163.24 Y133.577 E18.34056
G1 X163.167 Y134.464 E18.37016
G1 X163.012 Y135.527 E18.40589
G1 X162.848 Y136.277 E18.43143
G1 X162.716 Y136.797 E18.44927
G1 X162.371 Y137.895 E18.48755
G1 X162.085 Y138.619 E18.51344
G1 X161.883 Y139.085 E18.53033
G1 X161.37 Y140.106 E18.56834
G1 X161.015 Y140.706 E18.59152
G1 X160.734 Y141.15 E18.609
G1 X160.064 Y142.087 E18.64731
G1 X159.634 Y142.607 E18.66976
G1 X159.283 Y143.008 E18.68748
G1 X158.42 Y143.882 E18.72833
G1 X157.936 Y144.306 E18.74973
G1 X157.513 Y144.657 E18.76802
G1 X156.607 Y145.328 E18.80551
G1 X155.999 Y145.714 E18.82947
G1 X155.539 Y145.986 E18.84724
G1 X154.536 Y146.506 E18.88482
G1 X153.891 Y146.785 E18.90819
G1 X153.385 Y146.986 E18.9263
G1 X152.296 Y147.349 E18.96448
G1 X151.637 Y147.519 E18.98712
G1 X151.117 Y147.637 E19.00485
G1 X149.93 Y147.834 E19.04487
G1 X149.242 Y147.896 E19.06785
G1 X148.568 Y147.937 E19.09031
G1 X147.95 Y147.956 E19.11087
G1 X98.787 Y147.961 E20.74604
G1 X97.936 Y147.95 E20.77435
G1 X97.503 Y147.935 E20.78876
G1 X96.817 Y147.888 E20.81163
G1 X96.332 Y147.842 E20.82783
G1 X95.232 Y147.677 E20.86482
G1 X94.519 Y147.518 E20.88912
G1 X94.015 Y147.389 E20.90643
G1 X92.931 Y147.047 E20.94423
G1 X92.224 Y146.767 E20.96952
G1 X91.744 Y146.559 E20.98692
G1 X90.734 Y146.053 E21.02449
G1 X90.132 Y145.696 E21.04777
G1 X89.665 Y145.399 E21.06618
G1 X88.752 Y144.745 E21.10353
G1 X88.202 Y144.29 E21.12728
G1 X87.885 Y144.011 E21.14132
G1 X87.014 Y143.145 E21.18217
G1 X86.45 Y142.513 E21.21035
G1 X85.879 Y141.814 E21.24037
G1 X85.52 Y141.299 E21.26125
G1 X85.124 Y140.676 E21.2858
G1 X84.858 Y140.227 E21.30316
G1 X84.34 Y139.231 E21.3405
G1 X84.05 Y138.563 E21.36472
G1 X83.853 Y138.067 E21.38247
G1 X83.475 Y136.92 E21.42264
G1 X83.323 Y136.322 E21.44316
G1 X83.205 Y135.803 E21.46086
G1 X83.012 Y134.652 E21.49968
G1 X82.94 Y133.886 E21.52527
G1 X82.902 Y133.251 E21.54642
G1 X82.884 Y132.648 E21.56649
G1 X82.879 Y123.474 E21.87162
G1 F2700 E16.87162
;MESH:helenmelon.STL
G0 F6000 X96.452 Y128.276
G0 X98.602 Y130.267
;TYPE:WALL-INNER
G1 F2700 E21.87162
G1 F1200 X98.336 Y130.154 E21.88123
G1 X96.587 Y128.156 E21.96955
G1 X96.454 Y127.897 E21.97923
G1 X96.371 Y127.538 E21.99149
G1 X96.367 Y127.171 E22.00369
G1 X96.516 Y126.668 E22.02114
G1 X96.831 Y126.231 E22.03906
G1 X97.137 Y126.01 E22.05161
G1 X97.544 Y125.82 E22.06655
G1 X98.066 Y125.778 E22.08397
G1 X98.329 Y125.817 E22.09282
G1 X98.647 Y125.944 E22.1042
G1 X98.783 Y125.885 E22.10913
G1 X99.199 Y125.785 E22.12337
G1 X99.75 Y125.838 E22.14178
G1 X100.235 Y126.065 E22.15959
G1 X100.602 Y126.43 E22.1768
G1 X100.766 Y126.702 E22.18737
G1 X100.908 Y127.166 E22.20351
G1 X100.919 Y127.5 E22.21462
G1 X100.834 Y127.89 E22.2279
G1 X100.716 Y128.136 E22.23697
G1 X99.14 Y130.109 E22.32096
G1 X98.901 Y130.249 E22.33017
G1 X98.602 Y130.267 E22.34013
G0 F6000 X98.737 Y129.877
;TYPE:WALL-OUTER
G1 F1200 X98.59 Y129.836 E22.34521
G1 X96.855 Y127.855 E22.4328
G1 X96.765 Y127.469 E22.44598
G1 X96.776 Y127.201 E22.4549
G1 X96.881 Y126.845 E22.46724
G1 X97.117 Y126.519 E22.48063
G1 X97.307 Y126.372 E22.48862
G1 X97.645 Y126.217 E22.50099
G1 X98.017 Y126.178 E22.51343
G1 X98.247 Y126.209 E22.52115
G1 X98.675 Y126.392 E22.53663
G1 X98.85 Y126.28 E22.54354
G1 X99.226 Y126.191 E22.55639
G1 X99.642 Y126.232 E22.57029
G1 X100.004 Y126.398 E22.58354
G1 X100.288 Y126.678 E22.59681
G1 X100.4 Y126.863 E22.604
G1 X100.509 Y127.223 E22.61651
G1 X100.518 Y127.444 E22.62386
G1 X100.443 Y127.804 E22.6361
G1 X100.404 Y127.886 E22.63912
G1 X98.848 Y129.829 E22.72191
G1 X98.737 Y129.877 E22.72593
G1 F2700 E17.72593
G0 F6000 X99.018 Y130.102
G0 X98.567 Y130.444
G0 X97.682 Y136.926
G0 X97.395 Y137.104
;TYPE:WALL-INNER
G1 F2700 E22.72593
G1 F1200 X98.104 Y137.161 E22.74959
G1 X148.054 Y137.161 E24.41093
G1 X148.764 Y137.104 E24.43462
G1 X149.425 Y136.946 E24.45723
G1 X150.078 Y136.679 E24.48069
G1 X150.665 Y136.319 E24.50359
G1 X151.191 Y135.87 E24.5266
G1 X151.638 Y135.345 E24.54953
G1 X151.998 Y134.757 E24.57246
G1 X152.264 Y134.107 E24.59582
G1 X152.423 Y133.445 E24.61846
G1 X152.479 Y132.736 E24.64212
G1 X152.479 Y120.571 E25.04673
G1 X152.087 Y121.017 E25.06648
G1 X151.625 Y121.276 E25.08409
G1 X151.082 Y121.369 E25.10242
G1 X150.541 Y121.279 E25.12066
G1 X150.067 Y121.014 E25.13872
G1 X149.736 Y120.629 E25.15561
G1 X149.584 Y120.345 E25.16632
G1 X149.493 Y119.928 E25.18052
G1 X149.486 Y119.546 E25.19322
G1 X149.638 Y119.047 E25.21057
G1 X149.86 Y118.73 E25.22345
G1 X150.102 Y118.498 E25.2346
G1 X150.307 Y118.362 E25.24278
G1 X98.104 Y118.361 E26.97906
G1 X97.395 Y118.417 E27.00271
G1 X96.733 Y118.576 E27.02536
G1 X96.08 Y118.843 E27.04882
G1 X95.493 Y119.204 E27.07174
G1 X94.968 Y119.651 E27.09468
G1 X94.52 Y120.177 E27.11766
G1 X94.16 Y120.765 E27.14059
G1 X93.894 Y121.415 E27.16395
G1 X93.736 Y122.076 E27.18655
G1 X93.68 Y122.786 E27.21024
G1 X93.679 Y132.736 E27.54118
G1 X93.736 Y133.445 E27.56483
G1 X93.895 Y134.107 E27.58748
G1 X94.16 Y134.757 E27.61083
G1 X94.52 Y135.345 E27.63376
G1 X94.968 Y135.87 E27.65671
G1 X95.493 Y136.319 E27.67969
G1 X96.08 Y136.678 E27.70257
G1 X96.733 Y136.945 E27.72604
G1 X97.395 Y137.104 E27.74868
G0 F6000 X97.332 Y137.5
;TYPE:WALL-OUTER
