;FLAVOR:Marlin
;TIME:199
;Filament used: 0.119464m
;Layer height: 0.2
;MINX:93.836
;MINY:100.685
;MINZ:0.2
;MAXX:135.027
;MAXY:132.182
;MAXZ:2
;Generated with Cura_SteamEngine main
M140 S50
M105
M190 S50
M104 S200
M105
M109 S200
M82 ;absolute extrusion mode
; Ender 3 Custom Start G-code
G92 E0 ; Reset Extruder
G28 ; Home all axes
G1 Z2.0 F3000 ; Move Z Axis up little to prevent scratching of Heat Bed
G1 X0.1 Y20 Z0.3 F5000.0 ; Move to start position
G1 X0.1 Y200.0 Z0.3 F1500.0 E15 ; Draw the first line
G1 X0.4 Y200.0 Z0.3 F5000.0 ; Move to side a little
G1 X0.4 Y20 Z0.3 F1500.0 E30 ; Draw the second line
G92 E0 ; Reset Extruder
G1 Z2.0 F3000 ; Move Z Axis up little to prevent scratching of Heat Bed
G1 X5 Y20 Z0.3 F5000.0 ; Move over to prevent blob squish
G92 E0
G92 E0
G1 F2700 E-5
;LAYER_COUNT:10
;LAYER:0
M107
G0 F6000 X97.43 Y106.514 Z0.2
G0 X93.836 Y114.874
;TYPE:SKIRT
G1 F2700 E0
G1 F1200 X93.857 Y113.937 E0.03117
G1 X93.958 Y113.004 E0.06239
G1 X94.137 Y112.084 E0.09356
G1 X94.395 Y111.182 E0.12476
G1 X94.728 Y110.305 E0.15596
G1 X95.135 Y109.46 E0.18716
G1 X95.612 Y108.653 E0.21834
G1 X96.156 Y107.889 E0.24953
G1 X96.764 Y107.174 E0.28075
G1 X97.43 Y106.514 E0.31193
G1 X98.15 Y105.913 E0.34313
G1 X98.918 Y105.375 E0.37432
G1 X99.73 Y104.905 E0.40552
G1 X100.578 Y104.506 E0.43669
G1 X101.458 Y104.18 E0.4679
G1 X102.362 Y103.93 E0.4991
G1 X103.328 Y103.753 E0.53176
G1 X105.732 Y103.421 E0.61248
G1 X108.275 Y102.999 E0.69822
G1 X110.719 Y102.524 E0.78103
G1 X117.661 Y101.076 E1.01689
G1 X118.347 Y100.943 E1.04013
G1 X119.087 Y100.826 E1.06505
G1 X119.611 Y100.761 E1.08261
G1 X120.546 Y100.685 E1.11381
G1 X121.616 Y100.696 E1.1494
G1 X122.122 Y100.726 E1.16626
G1 X123.055 Y100.822 E1.19745
G1 X123.917 Y100.982 E1.22661
G1 X124.351 Y101.081 E1.24142
G1 X125.256 Y101.329 E1.27263
G1 X125.938 Y101.572 E1.29671
G1 X126.443 Y101.771 E1.31476
G1 X127.3 Y102.152 E1.34596
G1 X128.196 Y102.65 E1.38005
G1 X128.618 Y102.911 E1.39656
G1 X129.394 Y103.438 E1.42776
G1 X130.104 Y104.013 E1.45814
G1 X130.449 Y104.317 E1.47344
G1 X131.126 Y104.966 E1.50463
G1 X131.624 Y105.523 E1.52948
G1 X131.931 Y105.891 E1.54542
G1 X132.5 Y106.637 E1.57663
G1 X132.929 Y107.299 E1.60286
G1 X133.175 Y107.711 E1.61882
G1 X133.621 Y108.536 E1.65002
G1 X133.893 Y109.141 E1.67208
G1 X134.136 Y109.75 E1.69389
G1 X134.239 Y110.03 E1.70381
G1 X134.525 Y110.924 E1.73503
G1 X134.685 Y111.593 E1.75791
G1 X134.784 Y112.07 E1.77411
G1 X134.936 Y112.995 E1.80529
G1 X135.005 Y113.851 E1.83385
G1 X135.027 Y114.383 E1.85156
G1 X135.025 Y115.32 E1.88273
G1 X134.929 Y116.366 E1.91766
G1 X134.864 Y116.829 E1.93321
G1 X134.694 Y117.752 E1.96443
G1 X134.5 Y118.486 E1.98968
G1 X134.349 Y118.985 E2.00702
G1 X134.039 Y119.87 E2.03821
G1 X133.61 Y120.815 E2.07273
G1 X133.403 Y121.219 E2.08782
G1 X132.94 Y122.035 E2.11903
G1 X132.556 Y122.607 E2.14194
G1 X132.271 Y123.005 E2.15822
G1 X131.693 Y123.744 E2.18943
G1 X131.151 Y124.334 E2.21608
G1 X130.806 Y124.683 E2.2324
G1 X130.119 Y125.321 E2.26358
G1 X129.35 Y125.92 E2.296
G1 X128.909 Y126.233 E2.31399
G1 X128.121 Y126.743 E2.34521
G1 X127.205 Y127.226 E2.37965
G1 X126.782 Y127.424 E2.39518
G1 X125.917 Y127.785 E2.42636
G1 X125.213 Y128.017 E2.45101
G1 X124.749 Y128.153 E2.46709
G1 X124.077 Y128.327 E2.49018
G1 X123.304 Y128.5 E2.51653
G1 X116.601 Y129.899 E2.74428
G1 X114.062 Y130.466 E2.8308
G1 X111.615 Y131.086 E2.91476
G1 X109.883 Y131.581 E2.97468
G1 X109.063 Y131.803 E3.00293
G1 X108.148 Y132.008 E3.03412
G1 X107.219 Y132.135 E3.0653
G1 X106.282 Y132.182 E3.09651
G1 X105.345 Y132.149 E3.12769
G1 X104.414 Y132.036 E3.15888
G1 X103.496 Y131.844 E3.19008
G1 X102.598 Y131.575 E3.22126
G1 X101.725 Y131.23 E3.25248
G1 X100.886 Y130.812 E3.28365
G1 X100.085 Y130.324 E3.31485
G1 X99.328 Y129.77 E3.34605
G1 X98.622 Y129.153 E3.37724
G1 X97.97 Y128.478 E3.40845
G1 X97.379 Y127.751 E3.43961
G1 X96.851 Y126.975 E3.47083
G1 X96.392 Y126.158 E3.502
G1 X96.003 Y125.304 E3.53321
G1 X95.689 Y124.42 E3.56441
G1 X95.474 Y123.612 E3.59222
G1 X95.253 Y122.631 E3.62567
G1 X94.195 Y117.564 E3.79783
G1 X94.034 Y116.738 E3.82582
G1 X93.895 Y115.81 E3.85703
G1 X93.836 Y114.874 E3.88822
G0 F6000 X94.236 Y114.832
G1 F1200 X94.26 Y113.912 E3.91883
G1 X94.364 Y112.997 E3.94946
G1 X94.546 Y112.095 E3.98007
G1 X94.807 Y111.212 E4.01069
G1 X95.143 Y110.355 E4.04131
G1 X95.552 Y109.53 E4.07194
G1 X96.031 Y108.744 E4.10255
G1 X96.577 Y108.002 E4.13319
G1 X97.185 Y107.311 E4.1638
G1 X97.85 Y106.675 E4.19441
G1 X98.569 Y106.099 E4.22505
G1 X99.334 Y105.587 E4.25567
G1 X100.141 Y105.144 E4.28629
G1 X100.984 Y104.773 E4.31692
G1 X101.855 Y104.476 E4.34753
G1 X102.749 Y104.256 E4.37815
G1 X103.383 Y104.149 E4.39953
G1 X105.817 Y103.813 E4.48126
G1 X108.339 Y103.394 E4.56629
G1 X110.812 Y102.913 E4.65008
G1 X117.737 Y101.469 E4.88536
G1 X118.423 Y101.336 E4.9086
G1 X119.136 Y101.223 E4.93261
G1 X119.66 Y101.158 E4.95018
G1 X120.578 Y101.084 E4.98081
G1 X121.592 Y101.096 E5.01454
G1 X122.098 Y101.126 E5.0314
G1 X123.014 Y101.22 E5.06202
G1 X123.828 Y101.372 E5.08956
G1 X124.262 Y101.471 E5.10437
G1 X125.15 Y101.715 E5.135
G1 X125.791 Y101.944 E5.15764
G1 X126.296 Y102.143 E5.17569
G1 X127.137 Y102.517 E5.2063
G1 X127.986 Y102.99 E5.23863
G1 X128.408 Y103.251 E5.25513
G1 X129.169 Y103.769 E5.28575
G1 X129.84 Y104.313 E5.31448
G1 X130.185 Y104.617 E5.32978
G1 X130.849 Y105.255 E5.3604
G1 X131.317 Y105.78 E5.38379
G1 X131.624 Y106.148 E5.39973
G1 X132.182 Y106.88 E5.43035
G1 X132.585 Y107.504 E5.45505
G1 X132.831 Y107.916 E5.47101
G1 X133.268 Y108.726 E5.50163
G1 X133.523 Y109.294 E5.52233
G1 X133.76 Y109.888 E5.5436
G1 X133.863 Y110.168 E5.55353
G1 X134.143 Y111.045 E5.58415
G1 X134.294 Y111.674 E5.60566
G1 X134.393 Y112.151 E5.62187
G1 X134.541 Y113.06 E5.6525
G1 X134.605 Y113.867 E5.67942
G1 X134.627 Y114.399 E5.69713
G1 X134.625 Y115.32 E5.72776
G1 X134.533 Y116.311 E5.76087
G1 X134.468 Y116.774 E5.77642
G1 X134.301 Y117.679 E5.80703
G1 X134.117 Y118.37 E5.83081
G1 X133.966 Y118.869 E5.84815
G1 X133.661 Y119.738 E5.87878
G1 X133.254 Y120.633 E5.91148
G1 X133.047 Y121.037 E5.92658
G1 X132.592 Y121.837 E5.95719
G1 X132.231 Y122.374 E5.97871
G1 X131.946 Y122.772 E5.99499
G1 X131.378 Y123.497 E6.02563
G1 X130.866 Y124.053 E6.05077
G1 X130.521 Y124.402 E6.06709
G1 X129.846 Y125.028 E6.09771
G1 X129.118 Y125.594 E6.12838
G1 X128.677 Y125.907 E6.14636
G1 X127.904 Y126.407 E6.17698
G1 X127.036 Y126.863 E6.2096
G1 X126.613 Y127.061 E6.22513
G1 X125.763 Y127.415 E6.25575
G1 X125.1 Y127.633 E6.27897
G1 X124.636 Y127.769 E6.29505
G1 X123.989 Y127.937 E6.31728
G1 X123.391 Y128.072 E6.33767
G1 X116.511 Y129.509 E6.57144
G1 X113.974 Y130.075 E6.6579
G1 X111.543 Y130.691 E6.74131
G1 X109.773 Y131.197 E6.80254
G1 X108.959 Y131.417 E6.83058
G1 X108.061 Y131.618 E6.86119
G1 X107.148 Y131.74 E6.89182
G1 X106.229 Y131.782 E6.92242
G1 X105.309 Y131.744 E6.95305
G1 X104.396 Y131.627 E6.98366
G1 X103.496 Y131.431 E7.0143
G1 X102.617 Y131.157 E7.04492
G1 X101.765 Y130.809 E7.07553
G1 X100.946 Y130.387 E7.10617
G1 X100.167 Y129.897 E7.13678
G1 X99.434 Y129.34 E7.1674
G1 X98.752 Y128.722 E7.19801
G1 X98.125 Y128.047 E7.22866
G1 X97.56 Y127.32 E7.25928
G1 X97.06 Y126.547 E7.2899
G1 X96.629 Y125.734 E7.32051
G1 X96.27 Y124.886 E7.35113
G1 X95.986 Y124.01 E7.38176
G1 X95.864 Y123.524 E7.39843
G1 X95.645 Y122.55 E7.43163
G1 X94.587 Y117.483 E7.6038
G1 X94.427 Y116.662 E7.63162
G1 X94.291 Y115.751 E7.66225
G1 X94.236 Y114.832 E7.69287
G0 F6000 X94.635 Y114.791
G1 F1200 X94.662 Y113.888 E7.72292
G1 X94.77 Y112.991 E7.75297
G1 X94.956 Y112.108 E7.78298
G1 X95.219 Y111.244 E7.81302
G1 X95.558 Y110.407 E7.84306
G1 X95.97 Y109.603 E7.8731
G1 X96.451 Y108.839 E7.90313
G1 X96.998 Y108.12 E7.93318
G1 X97.606 Y107.452 E7.96322
G1 X98.271 Y106.841 E7.99326
G1 X98.987 Y106.291 E8.02329
G1 X99.749 Y105.807 E8.05331
G1 X100.551 Y105.392 E8.08335
G1 X101.387 Y105.049 E8.1134
G1 X102.25 Y104.782 E8.14345
G1 X103.438 Y104.545 E8.18374
G1 X105.896 Y104.205 E8.26627
G1 X108.374 Y103.794 E8.34982
G1 X110.891 Y103.305 E8.4351
G1 X117.814 Y101.861 E8.67031
G1 X118.5 Y101.728 E8.69355
G1 X119.185 Y101.62 E8.71662
G1 X119.709 Y101.555 E8.73418
G1 X120.61 Y101.483 E8.76424
G1 X121.569 Y101.495 E8.79614
G1 X122.075 Y101.525 E8.813
G1 X122.973 Y101.618 E8.84303
G1 X123.739 Y101.762 E8.86895
G1 X124.173 Y101.861 E8.88376
G1 X125.044 Y102.101 E8.91381
G1 X125.645 Y102.316 E8.93504
G1 X126.15 Y102.515 E8.95309
G1 X126.974 Y102.883 E8.98311
G1 X127.775 Y103.33 E9.01361
G1 X128.197 Y103.591 E9.03012
G1 X128.944 Y104.1 E9.06018
G1 X129.575 Y104.613 E9.08723
G1 X129.92 Y104.917 E9.10252
G1 X130.571 Y105.544 E9.13259
G1 X131.009 Y106.036 E9.1545
G1 X131.316 Y106.404 E9.17044
G1 X131.864 Y107.122 E9.20048
G1 X132.242 Y107.709 E9.2237
G1 X132.488 Y108.121 E9.23966
G1 X132.916 Y108.916 E9.26969
G1 X133.154 Y109.447 E9.28904
G1 X133.385 Y110.027 E9.30981
G1 X133.488 Y110.307 E9.31973
G1 X133.762 Y111.167 E9.34975
G1 X133.902 Y111.755 E9.36985
G1 X134.001 Y112.232 E9.38606
G1 X134.145 Y113.124 E9.41611
G1 X134.205 Y113.884 E9.44147
G1 X134.227 Y114.416 E9.45918
G1 X134.225 Y115.319 E9.48921
G1 X134.137 Y116.255 E9.52048
G1 X134.072 Y116.718 E9.53603
G1 X133.907 Y117.606 E9.56607
G1 X133.734 Y118.254 E9.58838
G1 X133.583 Y118.753 E9.60572
G1 X133.283 Y119.605 E9.63576
G1 X132.898 Y120.45 E9.66664
G1 X132.691 Y120.854 E9.68174
G1 X132.244 Y121.639 E9.71179
G1 X131.906 Y122.141 E9.73192
G1 X131.621 Y122.539 E9.7482
G1 X131.063 Y123.25 E9.77826
G1 X130.582 Y123.772 E9.80187
G1 X130.237 Y124.121 E9.81819
G1 X129.574 Y124.734 E9.84822
G1 X128.887 Y125.268 E9.87716
G1 X128.446 Y125.581 E9.89515
G1 X127.687 Y126.07 E9.92518
G1 X126.866 Y126.501 E9.95602
G1 X126.443 Y126.699 E9.97155
G1 X125.609 Y127.045 E10.00159
G1 X124.988 Y127.249 E10.02333
G1 X124.524 Y127.385 E10.03941
G1 X123.901 Y127.547 E10.06082
G1 X123.141 Y127.717 E10.08672
G1 X116.406 Y129.122 E10.31555
G1 X113.861 Y129.691 E10.40229
G1 X111.431 Y130.306 E10.48566
G1 X109.512 Y130.854 E10.55203
G1 X108.855 Y131.031 E10.57467
G1 X107.974 Y131.227 E10.60468
G1 X107.078 Y131.344 E10.63474
G1 X106.176 Y131.382 E10.66477
G1 X105.274 Y131.34 E10.6948
G1 X104.379 Y131.218 E10.72484
G1 X103.499 Y131.017 E10.75486
G1 X102.639 Y130.74 E10.78492
G1 X101.808 Y130.387 E10.81494
G1 X101.011 Y129.962 E10.84499
G1 X100.254 Y129.469 E10.87503
G1 X99.545 Y128.91 E10.90506
G1 X98.887 Y128.291 E10.93511
G1 X98.287 Y127.616 E10.96515
G1 X97.749 Y126.891 E10.99518
G1 X97.277 Y126.121 E11.02521
G1 X96.875 Y125.312 E11.05526
G1 X96.547 Y124.471 E11.08528
G1 X96.254 Y123.436 E11.12106
G1 X96.036 Y122.468 E11.15406
G1 X94.978 Y117.401 E11.32623
G1 X94.82 Y116.586 E11.35384
G1 X94.688 Y115.692 E11.3839
G1 X94.635 Y114.791 E11.41392
G1 F2700 E6.41392
;MESH:kief spatula.STL
G0 F6000 X104.295 Y115.365
G0 X106.597 Y120.2
;TYPE:WALL-INNER
G1 F2700 E11.41392
G1 F1200 X106.85 Y120.083 E11.42319
G1 X121.513 Y117.022 E11.92139
G1 X121.918 Y116.903 E11.93543
G1 X122.272 Y116.729 E11.94855
G1 X122.593 Y116.501 E11.96165
G1 X122.875 Y116.219 E11.97491
G1 X123.105 Y115.899 E11.98802
G1 X123.281 Y115.541 E12.00129
G1 X123.393 Y115.163 E12.0144
G1 X123.442 Y114.771 E12.02754
G1 X123.435 Y114.575 E12.03406
G1 X123.426 Y114.375 E12.04072
G1 X123.344 Y113.986 E12.05394
G1 X123.202 Y113.617 E12.06709
G1 X122.999 Y113.278 E12.08024
G1 X122.744 Y112.974 E12.09343
G1 X122.444 Y112.721 E12.10649
G1 X122.104 Y112.517 E12.11967
G1 X121.735 Y112.373 E12.13285
G1 X121.344 Y112.291 E12.14614
G1 X120.952 Y112.274 E12.15919
G1 X120.534 Y112.326 E12.1732
G1 X105.874 Y115.384 E12.67129
G1 X105.59 Y115.379 E12.68073
G1 X106.597 Y120.2 E12.84454
G0 F6000 X106.327 Y120.864
;TYPE:WALL-OUTER
G1 F1200 X106.894 Y120.483 E12.86726
G1 X121.61 Y117.41 E13.36727
G1 X122.064 Y117.277 E13.38301
G1 X122.478 Y117.074 E13.39835
G1 X122.852 Y116.808 E13.41361
G1 X123.181 Y116.479 E13.42909
G1 X123.449 Y116.105 E13.44439
G1 X123.655 Y115.687 E13.45989
G1 X123.786 Y115.245 E13.47522
G1 X123.843 Y114.787 E13.49057
G1 X123.835 Y114.559 E13.49816
G1 X123.824 Y114.325 E13.50595
G1 X123.729 Y113.872 E13.52135
G1 X123.563 Y113.441 E13.53671
G1 X123.326 Y113.045 E13.55206
G1 X123.028 Y112.69 E13.56747
G1 X122.677 Y112.394 E13.58274
G1 X122.28 Y112.157 E13.59812
G1 X121.85 Y111.989 E13.61348
G1 X121.394 Y111.893 E13.62898
G1 X120.936 Y111.873 E13.64422
G1 X120.468 Y111.931 E13.65991
G1 X105.753 Y115 E14.15986
G1 X105.078 Y114.887 E14.18263
G1 X106.327 Y120.864 E14.38572
G0 F6000 X106.499 Y120.441
G0 X106.61 Y119.766
G0 X106.862 Y119.714
;TYPE:SKIN
G1 F1200 X121.424 Y116.671 E14.88051
G1 X121.79 Y116.564 E14.89319
G1 X122.089 Y116.417 E14.90428
G1 X122.357 Y116.226 E14.91522
G1 X122.601 Y115.983 E14.92668
G1 X122.792 Y115.714 E14.93765
G1 X122.945 Y115.407 E14.94906
G1 X123.039 Y115.088 E14.96012
G1 X123.08 Y114.754 E14.97131
G1 X123.074 Y114.59 E14.97677
G1 X123.066 Y114.42 E14.98243
G1 X122.996 Y114.086 E14.99378
G1 X122.877 Y113.773 E15.00492
G1 X122.706 Y113.489 E15.01594
G1 X122.487 Y113.228 E15.02727
G1 X122.234 Y113.015 E15.03827
G1 X121.946 Y112.842 E15.04945
G1 X121.633 Y112.721 E15.06061
G1 X121.297 Y112.65 E15.07203
G1 X120.968 Y112.636 E15.08298
G1 X120.593 Y112.683 E15.09555
G1 X106.03 Y115.719 E15.59034
G1 X106.862 Y119.714 E15.72606
G0 F6000 X107.496 Y119.375
G1 F1200 X106.864 Y118.743 E15.75579
G0 F6000 X106.715 Y118.028
G1 F1200 X107.964 Y119.278 E15.81456
G0 F6000 X108.431 Y119.18
G1 F1200 X106.566 Y117.314 E15.90231
G0 F6000 X106.418 Y116.6
G1 F1200 X108.9 Y119.082 E16.01905
G0 F6000 X109.368 Y118.984
G1 F1200 X106.268 Y115.885 E16.16484
G0 F6000 X106.727 Y115.778
G1 F1200 X109.836 Y118.887 E16.31108
G0 F6000 X110.303 Y118.788
G1 F1200 X107.195 Y115.68 E16.45727
G0 F6000 X107.663 Y115.582
G1 F1200 X110.771 Y118.691 E16.60349
G0 F6000 X111.239 Y118.593
G1 F1200 X108.131 Y115.485 E16.74968
G0 F6000 X108.599 Y115.387
G1 F1200 X111.707 Y118.495 E16.89587
G0 F6000 X112.175 Y118.397
G1 F1200 X109.067 Y115.29 E17.04204
G0 F6000 X109.535 Y115.192
G1 F1200 X112.643 Y118.3 E17.18823
G0 F6000 X113.111 Y118.202
G1 F1200 X110.003 Y115.095 E17.33439
G0 F6000 X110.471 Y114.997
G1 F1200 X113.579 Y118.104 E17.48056
G0 F6000 X114.047 Y118.006
G1 F1200 X110.94 Y114.899 E17.62671
G0 F6000 X111.408 Y114.802
G1 F1200 X114.515 Y117.909 E17.77285
G0 F6000 X114.983 Y117.811
G1 F1200 X111.876 Y114.704 E17.91899
G0 F6000 X112.344 Y114.607
G1 F1200 X115.45 Y117.713 E18.06509
G0 F6000 X115.918 Y117.615
G1 F1200 X112.812 Y114.509 E18.21119
G0 F6000 X113.279 Y114.411
G1 F1200 X116.386 Y117.518 E18.35733
G0 F6000 X116.855 Y117.42
G1 F1200 X113.748 Y114.313 E18.50347
G0 F6000 X114.216 Y114.216
G1 F1200 X117.322 Y117.322 E18.64957
G0 F6000 X117.79 Y117.224
G1 F1200 X114.684 Y114.118 E18.79567
G0 F6000 X115.152 Y114.02
G1 F1200 X118.258 Y117.127 E18.94179
G0 F6000 X118.726 Y117.029
G1 F1200 X115.62 Y113.923 E19.08788
G0 F6000 X116.088 Y113.825
G1 F1200 X119.194 Y116.931 E19.23398
G0 F6000 X119.662 Y116.833
G1 F1200 X116.556 Y113.728 E19.38005
G0 F6000 X117.024 Y113.63
G1 F1200 X120.13 Y116.736 E19.52615
G0 F6000 X120.598 Y116.638
G1 F1200 X117.492 Y113.533 E19.67222
G0 F6000 X117.96 Y113.435
G1 F1200 X121.065 Y116.54 E19.81827
G0 F6000 X121.524 Y116.432
G1 F1200 X118.429 Y113.337 E19.96385
G0 F6000 X118.897 Y113.24
G1 F1200 X121.928 Y116.271 E20.10642
G0 F6000 X122.26 Y116.038
G1 F1200 X119.365 Y113.142 E20.24262
G0 F6000 X119.833 Y113.045
G1 F1200 X122.528 Y115.739 E20.36936
G0 F6000 X122.734 Y115.38
G1 F1200 X120.301 Y112.947 E20.4838
G0 F6000 X120.78 Y112.861
G1 F1200 X122.854 Y114.935 E20.58135
G0 F6000 X122.849 Y114.363
