;FLAVOR:Marlin
;TIME:2717
;Filament used: 1.71148m
;Layer height: 0.2
;MINX:86.029
;MINY:84.905
;MINZ:0.2
;MAXX:148.971
;MAXY:147.57
;MAXZ:7
;Generated with Cura_SteamEngine main
M140 S55
M105
M190 S55
M104 S190
M105
M109 S190
M82 ;absolute extrusion mode
; Ender 3 Custom Start G-code
G92 E0 ; Reset Extruder
G28 ; Home all axes
G1 Z2.0 F3000 ; Move Z Axis up little to prevent scratching of Heat Bed
G1 X0.1 Y20 Z0.3 F5000.0 ; Move to start position
G1 X0.1 Y200.0 Z0.3 F1500.0 E15 ; Draw the first line
G1 X0.4 Y200.0 Z0.3 F5000.0 ; Move to side a little
G1 X0.4 Y20 Z0.3 F1500.0 E30 ; Draw the second line
G92 E0 ; Reset Extruder
G1 Z2.0 F3000 ; Move Z Axis up little to prevent scratching of Heat Bed
G1 X5 Y20 Z0.3 F5000.0 ; Move over to prevent blob squish
G92 E0
G92 E0
G1 F2700 E-5
;LAYER_COUNT:35
;LAYER:0
M107
G0 F6000 X94.97 Y94.398 Z0.2
G0 X87.611 Y106.515
;TYPE:SKIRT
G1 F2700 E0
G1 F1200 X87.854 Y105.81 E0.0248
G1 X88.166 Y104.971 E0.05457
G1 X88.41 Y104.361 E0.07643
G1 X88.621 Y103.86 E0.09451
G1 X88.984 Y103.056 E0.12385
G1 X89.3 Y102.398 E0.14813
G1 X89.667 Y101.681 E0.17492
G1 X90.05 Y100.979 E0.20151
G1 X90.466 Y100.258 E0.2292
G1 X90.962 Y99.455 E0.26059
G1 X91.454 Y98.707 E0.29037
G1 X91.916 Y98.044 E0.31725
G1 X92.187 Y97.671 E0.33258
G1 X92.66 Y97.049 E0.35857
G1 X93.373 Y96.165 E0.39634
G1 X93.612 Y95.883 E0.40864
G1 X94.214 Y95.204 E0.43882
G1 X94.97 Y94.398 E0.47558
G1 X95.442 Y93.926 E0.49778
G1 X96.086 Y93.31 E0.52742
G1 X96.443 Y92.983 E0.54352
G1 X97.236 Y92.293 E0.57848
G1 X97.844 Y91.794 E0.60464
G1 X98.299 Y91.436 E0.6239
G1 X99.066 Y90.864 E0.65572
G1 X99.786 Y90.359 E0.68497
G1 X100.189 Y90.089 E0.70111
G1 X100.858 Y89.661 E0.72752
G1 X101.76 Y89.119 E0.76252
G1 X102.215 Y88.861 E0.77992
G1 X102.87 Y88.508 E0.80467
G1 X103.635 Y88.119 E0.83321
G1 X104.322 Y87.792 E0.85852
G1 X105.311 Y87.357 E0.89445
G1 X106.012 Y87.072 E0.91962
G1 X106.839 Y86.761 E0.94901
G1 X107.501 Y86.532 E0.97231
G1 X108.283 Y86.282 E0.99961
G1 X109.09 Y86.045 E1.02759
G1 X109.53 Y85.926 E1.04275
G1 X110.24 Y85.75 E1.06708
G1 X111.13 Y85.553 E1.09739
G1 X112.161 Y85.357 E1.1323
G1 X112.839 Y85.249 E1.15513
G1 X113.463 Y85.162 E1.17609
G1 X114.131 Y85.082 E1.19847
G1 X115.019 Y85 E1.22813
G1 X116.018 Y84.937 E1.26142
G1 X117.068 Y84.905 E1.29636
G1 X117.932 Y84.905 E1.3251
G1 X118.982 Y84.937 E1.36004
G1 X119.7 Y84.979 E1.38396
G1 X120.58 Y85.053 E1.41333
G1 X121.538 Y85.162 E1.4454
G1 X122.162 Y85.249 E1.46635
G1 X122.846 Y85.359 E1.4894
G1 X123.587 Y85.496 E1.51446
G1 X124.467 Y85.682 E1.54437
G1 X125.47 Y85.926 E1.57871
G1 X125.91 Y86.045 E1.59387
G1 X126.976 Y86.363 E1.63087
G1 X127.749 Y86.617 E1.65793
G1 X128.436 Y86.862 E1.68219
G1 X128.987 Y87.072 E1.7018
G1 X129.673 Y87.35 E1.72642
G1 X130.422 Y87.675 E1.75358
G1 X131.095 Y87.988 E1.77826
G1 X131.903 Y88.39 E1.80828
G1 X132.535 Y88.724 E1.83205
G1 X133.248 Y89.124 E1.85925
G1 X134.142 Y89.661 E1.89393
G1 X134.8 Y90.082 E1.91991
G1 X135.442 Y90.516 E1.94569
G1 X135.941 Y90.869 E1.96602
G1 X136.476 Y91.264 E1.98814
G1 X137.156 Y91.794 E2.01681
G1 X137.764 Y92.293 E2.04297
G1 X138.546 Y92.973 E2.07744
G1 X138.904 Y93.3 E2.09357
G1 X139.766 Y94.13 E2.13337
G1 X140.219 Y94.594 E2.15493
G1 X140.793 Y95.209 E2.18291
G1 X141.391 Y95.886 E2.21296
G1 X141.787 Y96.358 E2.23345
G1 X142.365 Y97.079 E2.26418
G1 X142.663 Y97.47 E2.28054
G1 X143.076 Y98.033 E2.30376
G1 X143.705 Y98.945 E2.34061
G1 X144.174 Y99.67 E2.36933
G1 X144.529 Y100.251 E2.39197
G1 X144.81 Y100.732 E2.4105
G1 X145.342 Y101.697 E2.44715
G1 X145.7 Y102.398 E2.47333
G1 X146.02 Y103.064 E2.49791
G1 X146.376 Y103.854 E2.52673
G1 X146.587 Y104.354 E2.54478
G1 X146.834 Y104.971 E2.56688
G1 X147.142 Y105.797 E2.5962
G1 X147.476 Y106.785 E2.63089
G1 X147.688 Y107.477 E2.65496
G1 X147.929 Y108.337 E2.68467
G1 X148.063 Y108.861 E2.70266
G1 X148.168 Y109.309 E2.71796
G1 X148.388 Y110.349 E2.75332
G1 X148.481 Y110.845 E2.7701
G1 X148.628 Y111.741 E2.8003
G1 X148.688 Y112.16 E2.81438
G1 X148.784 Y112.946 E2.84072
G1 X148.837 Y113.467 E2.85813
G1 X148.902 Y114.285 E2.88543
G1 X148.94 Y114.963 E2.90801
G1 X148.968 Y115.92 E2.93986
G1 X148.971 Y116.549 E2.96078
G1 X148.949 Y117.535 E2.99358
G1 X148.905 Y118.422 E3.02312
G1 X148.838 Y119.263 E3.05118
G1 X148.755 Y120.054 E3.07763
G1 X148.647 Y120.883 E3.10544
G1 X148.53 Y121.629 E3.13055
G1 X148.405 Y122.318 E3.15384
G1 X148.264 Y123.015 E3.17749
G1 X148.152 Y123.507 E3.19428
G1 X147.926 Y124.409 E3.22521
G1 X147.693 Y125.251 E3.25426
G1 X147.478 Y125.954 E3.27871
G1 X147.149 Y126.926 E3.31284
G1 X146.932 Y127.517 E3.33378
G1 X146.579 Y128.411 E3.36575
G1 X146.235 Y129.212 E3.39475
G1 X146.042 Y129.636 E3.41024
G1 X145.701 Y130.345 E3.43641
G1 X145.224 Y131.268 E3.47096
G1 X144.812 Y132.01 E3.49919
G1 X144.393 Y132.72 E3.52661
G1 X144.045 Y133.28 E3.54854
G1 X143.548 Y134.037 E3.57866
G1 X143.076 Y134.713 E3.60608
G1 X142.646 Y135.297 E3.63021
G1 X142.183 Y135.897 E3.65541
G1 X141.644 Y136.562 E3.68388
G1 X141.199 Y137.081 E3.70662
G1 X140.623 Y137.722 E3.73528
G1 X140.017 Y138.362 E3.7646
G1 X139.556 Y138.822 E3.78626
G1 X138.925 Y139.425 E3.81529
G1 X138.351 Y139.946 E3.84107
G1 X137.768 Y140.45 E3.8667
G1 X137.123 Y140.976 E3.89439
G1 X136.364 Y141.563 E3.9263
G1 X136.004 Y141.83 E3.94121
G1 X135.168 Y142.418 E3.9752
G1 X134.586 Y142.803 E3.99841
G1 X133.894 Y143.238 E4.0256
G1 X133.248 Y143.622 E4.05059
G1 X132.794 Y143.88 E4.06796
G1 X132.169 Y144.218 E4.09159
G1 X131.262 Y144.676 E4.12539
G1 X130.755 Y144.918 E4.14407
G1 X129.666 Y145.398 E4.18366
G1 X128.922 Y145.7 E4.21036
G1 X128.26 Y145.949 E4.23389
G1 X127.751 Y146.129 E4.25184
G1 X127.036 Y146.364 E4.27688
G1 X126.317 Y146.58 E4.30184
G1 X125.86 Y146.705 E4.3176
G1 X124.846 Y146.959 E4.35237
G1 X124.104 Y147.118 E4.37761
G1 X123.689 Y147.192 E4.39163
G1 X123.075 Y147.284 E4.41228
G1 X122.478 Y147.356 E4.43228
G1 X121.693 Y147.422 E4.45848
G1 X120.974 Y147.447 E4.48241
G1 X118.245 Y147.462 E4.57318
G1 X115.267 Y147.567 E4.67229
G1 X114.569 Y147.57 E4.6955
G1 X113.791 Y147.548 E4.72139
G1 X112.856 Y147.481 E4.75257
G1 X112.269 Y147.398 E4.77229
G1 X111.689 Y147.3 E4.79185
G1 X111.202 Y147.206 E4.80835
G1 X110.218 Y146.991 E4.84185
G1 X109.806 Y146.891 E4.85595
G1 X109.084 Y146.699 E4.8808
G1 X108.279 Y146.462 E4.90871
G1 X107.533 Y146.224 E4.93475
G1 X106.741 Y145.949 E4.96264
G1 X106.065 Y145.694 E4.98667
G1 X105.36 Y145.409 E5.01196
G1 X104.245 Y144.918 E5.05248
G1 X103.738 Y144.676 E5.07117
G1 X102.831 Y144.218 E5.10496
G1 X102.215 Y143.885 E5.12825
G1 X101.76 Y143.627 E5.14565
G1 X100.868 Y143.091 E5.18026
G1 X100.204 Y142.667 E5.20646
G1 X99.51 Y142.195 E5.23438
G1 X98.726 Y141.63 E5.26652
G1 X98.374 Y141.366 E5.28116
G1 X97.825 Y140.936 E5.30435
G1 X97.23 Y140.448 E5.32994
G1 X96.448 Y139.767 E5.36443
G1 X95.885 Y139.248 E5.3899
G1 X95.234 Y138.616 E5.42008
G1 X94.78 Y138.152 E5.44167
G1 X94.395 Y137.743 E5.46035
G1 X93.609 Y136.86 E5.49967
G1 X93.214 Y136.39 E5.52009
G1 X92.832 Y135.918 E5.54029
G1 X92.195 Y135.085 E5.57517
G1 X91.763 Y134.486 E5.59973
G1 X91.278 Y133.776 E5.62833
G1 X90.826 Y133.076 E5.65604
G1 X90.468 Y132.49 E5.67888
G1 X90.178 Y131.993 E5.69802
G1 X89.786 Y131.287 E5.72488
G1 X89.424 Y130.595 E5.75085
G1 X89.077 Y129.887 E5.77708
G1 X88.757 Y129.192 E5.80253
G1 X88.318 Y128.159 E5.83986
G1 X88.07 Y127.523 E5.86256
G1 X87.853 Y126.933 E5.88347
G1 X87.522 Y125.955 E5.91781
G1 X87.306 Y125.247 E5.94243
G1 X87.068 Y124.387 E5.97211
G1 X86.844 Y123.485 E6.00302
G1 X86.744 Y123.045 E6.01803
G1 X86.601 Y122.348 E6.04169
G1 X86.469 Y121.624 E6.06617
G1 X86.354 Y120.891 E6.09085
G1 X86.216 Y119.797 E6.12753
G1 X86.137 Y118.981 E6.15479
G1 X86.077 Y118.142 E6.18277
G1 X86.06 Y117.799 E6.19419
G1 X86.029 Y116.549 E6.23578
G1 X86.032 Y115.922 E6.25663
G1 X86.049 Y115.246 E6.27912
G1 X86.081 Y114.551 E6.30226
G1 X86.138 Y113.755 E6.32881
G1 X86.216 Y112.948 E6.35577
G1 X86.354 Y111.854 E6.39245
G1 X86.471 Y111.11 E6.4175
G1 X86.612 Y110.353 E6.44311
G1 X86.832 Y109.312 E6.4785
G1 X86.937 Y108.861 E6.4939
G1 X87.15 Y108.045 E6.52195
G1 X87.312 Y107.477 E6.54159
G1 X87.611 Y106.515 E6.5751
G1 F2700 E1.5751
G0 F6000 X86.829 Y116.199
G1 F2700 E6.5751
G1 F1200 X86.849 Y115.267 E6.60611
G1 X86.88 Y114.592 E6.62858
G1 X86.936 Y113.815 E6.65449
G1 X87.012 Y113.029 E6.68075
G1 X87.106 Y112.258 E6.70659
G1 X87.221 Y111.48 E6.73275
G1 X87.394 Y110.518 E6.76525
G1 X87.614 Y109.477 E6.80064
G1 X87.712 Y109.059 E6.81492
G1 X87.919 Y108.264 E6.84225
G1 X88.081 Y107.696 E6.86189
G1 X88.369 Y106.772 E6.89408
G1 X88.605 Y106.086 E6.91821
G1 X88.82 Y105.501 E6.93894
G1 X89.064 Y104.876 E6.96126
G1 X89.359 Y104.171 E6.98667
G1 X89.711 Y103.39 E7.01517
G1 X90.02 Y102.747 E7.03889
G1 X90.377 Y102.05 E7.06494
G1 X90.751 Y101.365 E7.0909
G1 X91.157 Y100.662 E7.1179
G1 X91.633 Y99.891 E7.14804
G1 X91.946 Y99.409 E7.16715
G1 X92.426 Y98.708 E7.19541
G1 X92.834 Y98.142 E7.21862
G1 X93.447 Y97.342 E7.25214
G1 X93.828 Y96.87 E7.27231
G1 X94.223 Y96.4 E7.29273
G1 X94.811 Y95.736 E7.32223
G1 X95.539 Y94.96 E7.35762
G1 X95.996 Y94.502 E7.37914
G1 X96.626 Y93.9 E7.40812
G1 X96.983 Y93.573 E7.42422
G1 X97.554 Y93.072 E7.44949
G1 X98.339 Y92.423 E7.48337
G1 X99.002 Y91.905 E7.51135
G1 X99.528 Y91.517 E7.53309
G1 X100.025 Y91.166 E7.55333
G1 X100.635 Y90.754 E7.57781
G1 X101.287 Y90.336 E7.60357
G1 X101.938 Y89.942 E7.62888
G1 X102.61 Y89.557 E7.65464
G1 X103.457 Y89.104 E7.68659
G1 X103.995 Y88.833 E7.70662
G1 X104.662 Y88.516 E7.73118
G1 X105.409 Y88.185 E7.75836
G1 X106.297 Y87.82 E7.79029
G1 X107.104 Y87.516 E7.81897
G1 X107.748 Y87.293 E7.84164
G1 X108.265 Y87.125 E7.85972
G1 X109.299 Y86.818 E7.8956
G1 X109.986 Y86.635 E7.91924
G1 X110.686 Y86.468 E7.94318
G1 X111.3 Y86.335 E7.96407
G1 X112.043 Y86.191 E7.98925
G1 X112.705 Y86.079 E8.01158
G1 X113.815 Y85.924 E8.04885
G1 X114.491 Y85.85 E8.07147
G1 X115.35 Y85.777 E8.10015
G1 X116.049 Y85.736 E8.12343
G1 X117.068 Y85.705 E8.15734
G1 X117.932 Y85.705 E8.18608
G1 X118.951 Y85.736 E8.21999
G1 X119.65 Y85.777 E8.24328
G1 X120.771 Y85.876 E8.28071
G1 X121.181 Y85.923 E8.29443
G1 X122.304 Y86.08 E8.33215
G1 X122.952 Y86.19 E8.35401
G1 X123.685 Y86.332 E8.37884
G1 X124.592 Y86.531 E8.40972
G1 X125.035 Y86.64 E8.4249
G1 X125.949 Y86.888 E8.4564
G1 X126.493 Y87.05 E8.47528
G1 X127.247 Y87.292 E8.50161
G1 X128.151 Y87.61 E8.53349
G1 X128.94 Y87.914 E8.56161
G1 X129.369 Y88.09 E8.57703
G1 X130.338 Y88.516 E8.61224
G1 X131.005 Y88.833 E8.6368
G1 X131.543 Y89.104 E8.65684
G1 X132.397 Y89.561 E8.68905
G1 X133.057 Y89.939 E8.71435
G1 X133.713 Y90.336 E8.73985
G1 X134.157 Y90.618 E8.75735
G1 X134.98 Y91.169 E8.79029
G1 X135.687 Y91.673 E8.81917
G1 X135.998 Y91.905 E8.83207
G1 X136.661 Y92.423 E8.86006
G1 X137.446 Y93.072 E8.89393
G1 X137.824 Y93.401 E8.9106
G1 X138.556 Y94.071 E8.9436
G1 X139.196 Y94.691 E8.97324
G1 X139.637 Y95.142 E8.99422
G1 X140.007 Y95.535 E9.01217
G1 X140.612 Y96.209 E9.0423
G1 X141.165 Y96.861 E9.07073
G1 X141.728 Y97.564 E9.10069
G1 X142.158 Y98.132 E9.12438
G1 X142.585 Y98.724 E9.14866
G1 X142.897 Y99.177 E9.16696
G1 X143.493 Y100.09 E9.20322
G1 X143.838 Y100.655 E9.22524
G1 X144.119 Y101.136 E9.24377
G1 X144.631 Y102.065 E9.27905
G1 X144.98 Y102.747 E9.30453
G1 X145.292 Y103.397 E9.32851
G1 X145.638 Y104.165 E9.35652
G1 X145.936 Y104.876 E9.38217
G1 X146.09 Y105.265 E9.39608
G1 X146.391 Y106.074 E9.42479
G1 X146.636 Y106.786 E9.44983
G1 X146.919 Y107.696 E9.48153
G1 X147.081 Y108.264 E9.50118
G1 X147.288 Y109.059 E9.5285
G1 X147.385 Y109.475 E9.54271
G1 X147.605 Y110.515 E9.57806
G1 X147.691 Y110.975 E9.59363
G1 X147.895 Y112.259 E9.63687
G1 X147.962 Y112.796 E9.65487
G1 X148.041 Y113.548 E9.68002
G1 X148.104 Y114.345 E9.70661
G1 X148.141 Y115.004 E9.72856
G1 X148.168 Y115.94 E9.75971
G1 X148.168 Y116.809 E9.78861
G1 X148.15 Y117.514 E9.81207
G1 X148.107 Y118.362 E9.84031
G1 X148.042 Y119.182 E9.86767
G1 X147.961 Y119.954 E9.89348
G1 X147.856 Y120.762 E9.92058
G1 X147.742 Y121.49 E9.94509
G1 X147.667 Y121.914 E9.95941
G1 X147.479 Y122.856 E9.99136
G1 X147.376 Y123.313 E10.00694
G1 X147.15 Y124.215 E10.03787
G1 X146.923 Y125.033 E10.06611
G1 X146.631 Y125.974 E10.09888
G1 X146.398 Y126.651 E10.12269
G1 X146.181 Y127.242 E10.14363
G1 X145.944 Y127.85 E10.16533
G1 X145.611 Y128.644 E10.19397
G1 X145.208 Y129.53 E10.22634
G1 X144.856 Y130.246 E10.25288
G1 X144.522 Y130.884 E10.27683
G1 X144.122 Y131.606 E10.30429
G1 X143.832 Y132.101 E10.32337
G1 X143.493 Y132.655 E10.34497
G1 X143.066 Y133.319 E10.37123
G1 X142.57 Y134.044 E10.40044
G1 X142.011 Y134.811 E10.43201
G1 X141.56 Y135.395 E10.45655
G1 X141.179 Y135.868 E10.47675
G1 X140.603 Y136.548 E10.50639
G1 X140.039 Y137.175 E10.53444
G1 X139.449 Y137.799 E10.563
G1 X139.002 Y138.245 E10.58401
G1 X138.56 Y138.67 E10.6044
G1 X138.022 Y139.167 E10.62876
G1 X137.447 Y139.673 E10.65424
G1 X136.633 Y140.344 E10.68932
G1 X135.874 Y140.931 E10.72124
G1 X135.541 Y141.178 E10.73503
G1 X134.968 Y141.585 E10.7584
G1 X134.157 Y142.128 E10.79086
G1 X133.483 Y142.552 E10.81735
G1 X132.853 Y142.926 E10.84172
G1 X132.399 Y143.184 E10.85908
G1 X131.792 Y143.512 E10.88203
G1 X130.905 Y143.96 E10.91508
G1 X130.178 Y144.302 E10.94181
G1 X129.36 Y144.659 E10.97149
G1 X128.638 Y144.953 E10.99742
G1 X128.217 Y145.113 E11.0124
G1 X127.213 Y145.466 E11.0478
G1 X126.565 Y145.672 E11.07041
G1 X126.09 Y145.813 E11.08689
G1 X125.665 Y145.929 E11.10154
G1 X124.651 Y146.183 E11.13631
G1 X123.964 Y146.331 E11.15969
G1 X123.549 Y146.405 E11.17371
G1 X122.979 Y146.49 E11.19287
G1 X122.382 Y146.562 E11.21287
G1 X121.654 Y146.623 E11.23717
G1 X120.97 Y146.647 E11.25994
G1 X118.246 Y146.662 E11.35054
G1 X115.239 Y146.768 E11.45061
G1 X114.592 Y146.77 E11.47213
G1 X113.814 Y146.748 E11.49802
G1 X112.913 Y146.682 E11.52807
G1 X112.403 Y146.609 E11.5452
G1 X111.823 Y146.511 E11.56477
G1 X111.37 Y146.424 E11.58011
G1 X110.407 Y146.213 E11.6129
G1 X109.732 Y146.046 E11.63603
G1 X109.051 Y145.858 E11.65952
G1 X108.507 Y145.696 E11.6784
G1 X107.516 Y145.374 E11.71306
G1 X106.772 Y145.108 E11.73934
G1 X106.115 Y144.854 E11.76277
G1 X105.422 Y144.566 E11.78773
G1 X104.816 Y144.299 E11.80975
G1 X104.314 Y144.066 E11.82816
G1 X103.455 Y143.64 E11.86005
G1 X102.61 Y143.189 E11.89191
G1 X101.938 Y142.804 E11.91767
G1 X101.296 Y142.416 E11.94262
G1 X100.851 Y142.134 E11.96014
G1 X99.977 Y141.546 E11.99518
G1 X99.193 Y140.981 E12.02732
G1 X98.868 Y140.736 E12.04085
G1 X98.098 Y140.128 E12.07349
G1 X97.554 Y139.674 E12.09705
G1 X97.176 Y139.345 E12.11372
G1 X96.624 Y138.844 E12.13851
G1 X95.999 Y138.247 E12.16726
G1 X95.526 Y137.773 E12.18953
G1 X94.783 Y136.982 E12.22563
G1 X94.381 Y136.53 E12.24575
G1 X93.836 Y135.887 E12.27378
G1 X93.454 Y135.415 E12.29398
G1 X92.971 Y134.788 E12.3203
G1 X92.421 Y134.032 E12.3514
G1 X92.102 Y133.57 E12.37007
G1 X91.64 Y132.867 E12.39805
G1 X91.159 Y132.087 E12.42853
G1 X90.869 Y131.59 E12.44767
G1 X90.364 Y130.671 E12.48254
G1 X90.022 Y130.003 E12.5075
G1 X89.679 Y129.288 E12.53388
G1 X89.391 Y128.646 E12.55728
G1 X89.16 Y128.103 E12.57691
G1 X88.91 Y127.48 E12.59924
G1 X88.604 Y126.657 E12.62844
G1 X88.369 Y125.975 E12.65243
G1 X88.075 Y125.029 E12.68538
G1 X87.929 Y124.513 E12.70322
G1 X87.621 Y123.292 E12.7451
G1 X87.528 Y122.884 E12.75902
G1 X87.385 Y122.187 E12.78268
G1 X87.257 Y121.485 E12.80642
G1 X87.105 Y120.486 E12.84003
G1 X87.038 Y119.949 E12.85803
G1 X86.958 Y119.184 E12.88361
G1 X86.893 Y118.364 E12.91097
G1 X86.85 Y117.514 E12.93928
G1 X86.832 Y116.809 E12.96273
G1 X86.829 Y116.199 E12.98302
G0 F6000 X86.429 Y116.199
G1 F1200 X86.449 Y115.257 E13.01436
