;FLAVOR:Marlin
;TIME:2683
;Filament used: 1.94036m
;Layer height: 0.2
;MINX:105.595
;MINY:102.417
;MINZ:0.2
;MAXX:135.119
;MAXY:132.014
;MAXZ:30.2
;Generated with Cura_SteamEngine main
M140 S50
M105
M190 S50
M104 S200
M105
M109 S200
M82 ;absolute extrusion mode
; Ender 3 Custom Start G-code
G92 E0 ; Reset Extruder
G28 ; Home all axes
G1 Z2.0 F3000 ; Move Z Axis up little to prevent scratching of Heat Bed
G1 X0.1 Y20 Z0.3 F5000.0 ; Move to start position
G1 X0.1 Y200.0 Z0.3 F1500.0 E15 ; Draw the first line
G1 X0.4 Y200.0 Z0.3 F5000.0 ; Move to side a little
G1 X0.4 Y20 Z0.3 F1500.0 E30 ; Draw the second line
G92 E0 ; Reset Extruder
G1 Z2.0 F3000 ; Move Z Axis up little to prevent scratching of Heat Bed
G1 X5 Y20 Z0.3 F5000.0 ; Move over to prevent blob squish
G92 E0
G92 E0
G1 F2700 E-5
;LAYER_COUNT:151
;LAYER:0
M107
G0 F6000 X110.297 Y109.894 Z0.2
G0 X107.223 Y117.704
;TYPE:SKIRT
G1 F2700 E0
G1 F1200 X107.261 Y116.75 E0.03176
G1 X107.379 Y115.802 E0.06353
G1 X107.576 Y114.868 E0.09528
G1 X107.85 Y113.953 E0.12705
G1 X108.199 Y113.065 E0.15878
G1 X108.622 Y112.209 E0.19054
G1 X109.115 Y111.391 E0.2223
G1 X109.675 Y110.618 E0.25405
G1 X110.297 Y109.894 E0.2858
G1 X110.978 Y109.224 E0.31757
G1 X111.925 Y108.456 E0.35813
G1 X112.835 Y107.798 E0.39548
G1 X114.31 Y106.77 E0.45527
G1 X114.97 Y106.323 E0.48179
G1 X115.783 Y105.822 E0.51355
G1 X116.635 Y105.391 E0.54531
G1 X117.52 Y105.032 E0.57707
G1 X118.432 Y104.749 E0.60883
G1 X119.364 Y104.544 E0.64057
G1 X120.311 Y104.417 E0.67235
G1 X121.264 Y104.369 E0.70409
G1 X122.218 Y104.402 E0.73584
G1 X123.167 Y104.514 E0.76762
G1 X124.102 Y104.706 E0.79937
G1 X125.018 Y104.975 E0.83112
G1 X125.908 Y105.319 E0.86285
G1 X126.767 Y105.737 E0.89463
G1 X127.587 Y106.225 E0.92637
G1 X128.546 Y106.926 E0.96587
G1 X128.841 Y107.166 E0.97852
G1 X129.292 Y107.552 E0.99827
G1 X129.667 Y107.891 E1.01508
G1 X130.632 Y108.876 E1.06094
G1 X130.98 Y109.277 E1.0786
G1 X131.575 Y110.024 E1.11037
G1 X132.105 Y110.818 E1.14212
G1 X132.568 Y111.653 E1.17388
G1 X132.958 Y112.524 E1.20562
G1 X133.279 Y113.441 E1.23793
G1 X133.4 Y113.84 E1.2518
G1 X133.639 Y114.764 E1.28354
G1 X133.789 Y115.623 E1.31254
G1 X133.843 Y116.023 E1.32597
G1 X133.931 Y116.974 E1.35773
G1 X133.941 Y117.854 E1.38701
G1 X133.931 Y118.227 E1.39942
G1 X133.865 Y119.179 E1.43116
G1 X133.662 Y120.403 E1.47242
G1 X133.546 Y120.923 E1.49014
G1 X133.299 Y121.845 E1.52189
G1 X132.976 Y122.744 E1.55366
G1 X132.579 Y123.612 E1.58541
G1 X132.187 Y124.319 E1.6123
G1 X131.983 Y124.658 E1.62546
G1 X131.457 Y125.455 E1.65722
G1 X130.866 Y126.205 E1.68898
G1 X130.442 Y126.671 E1.70993
G1 X130.16 Y126.965 E1.72348
G1 X129.471 Y127.626 E1.75524
G1 X128.574 Y128.34 E1.79337
G1 X128.274 Y128.555 E1.80564
G1 X127.475 Y129.078 E1.83741
G1 X126.692 Y129.505 E1.86707
G1 X126.276 Y129.711 E1.88251
G1 X125.403 Y130.099 E1.91428
G1 X124.111 Y130.522 E1.9595
G1 X123.749 Y130.617 E1.97195
G1 X122.816 Y130.82 E2.00371
G1 X121.869 Y130.945 E2.03548
G1 X120.916 Y130.99 E2.06721
G1 X120.027 Y130.96 E2.09679
G1 X119.615 Y130.93 E2.11053
G1 X118.667 Y130.821 E2.14227
G1 X117.559 Y130.589 E2.17992
G1 X117.123 Y130.475 E2.19491
G1 X116.21 Y130.195 E2.22667
G1 X115.167 Y129.768 E2.26416
G1 X114.749 Y129.572 E2.27951
G1 X113.902 Y129.13 E2.31129
G1 X113.174 Y128.674 E2.33986
G1 X112.817 Y128.431 E2.35423
G1 X112.051 Y127.861 E2.38598
G1 X111.336 Y127.229 E2.41772
G1 X110.675 Y126.54 E2.44948
G1 X110.075 Y125.797 E2.48124
G1 X109.423 Y124.815 E2.52045
G1 X109.198 Y124.435 E2.53514
G1 X108.696 Y123.49 E2.57073
G1 X108.571 Y123.225 E2.58047
G1 X108.274 Y122.547 E2.60509
G1 X108.008 Y121.86 E2.62959
G1 X107.865 Y121.452 E2.64397
G1 X107.587 Y120.538 E2.67575
G1 X107.386 Y119.605 E2.70749
G1 X107.265 Y118.658 E2.73924
G1 X107.223 Y117.704 E2.77101
G0 F6000 X107.623 Y117.637
G1 F1200 X107.667 Y116.7 E2.8022
G1 X107.79 Y115.77 E2.83341
G1 X107.992 Y114.854 E2.8646
G1 X108.272 Y113.959 E2.8958
G1 X108.627 Y113.091 E2.92699
G1 X109.054 Y112.256 E2.95818
G1 X109.551 Y111.46 E2.98939
G1 X110.114 Y110.71 E3.02058
G1 X110.738 Y110.011 E3.05175
G1 X111.42 Y109.367 E3.08295
G1 X112.16 Y108.78 E3.11436
G1 X113.063 Y108.127 E3.15143
G1 X114.67 Y107.008 E3.21656
G1 X115.194 Y106.654 E3.23759
G1 X115.993 Y106.163 E3.26878
G1 X116.831 Y105.741 E3.29999
G1 X117.701 Y105.392 E3.33116
G1 X118.599 Y105.119 E3.36238
G1 X119.516 Y104.923 E3.39357
G1 X120.446 Y104.806 E3.42475
G1 X121.384 Y104.769 E3.45597
G1 X122.32 Y104.812 E3.48713
G1 X123.25 Y104.934 E3.51833
G1 X124.166 Y105.135 E3.54952
G1 X125.062 Y105.413 E3.58072
G1 X125.931 Y105.767 E3.61193
G1 X126.766 Y106.194 E3.64313
G1 X127.562 Y106.69 E3.67432
G1 X128.294 Y107.236 E3.70469
G1 X128.589 Y107.476 E3.71734
G1 X129.024 Y107.849 E3.7364
G1 X129.399 Y108.188 E3.75321
G1 X130.33 Y109.138 E3.79745
G1 X130.678 Y109.539 E3.81511
G1 X131.262 Y110.273 E3.84631
G1 X131.781 Y111.054 E3.8775
G1 X132.232 Y111.876 E3.90868
G1 X132.611 Y112.734 E3.93988
G1 X132.897 Y113.557 E3.96886
G1 X133.018 Y113.956 E3.98273
G1 X133.251 Y114.864 E4.01391
G1 X133.392 Y115.676 E4.04132
G1 X133.446 Y116.076 E4.05474
G1 X133.532 Y117.01 E4.08594
G1 X133.541 Y117.843 E4.11365
G1 X133.531 Y118.216 E4.12606
G1 X133.466 Y119.151 E4.15723
G1 X133.271 Y120.316 E4.19652
G1 X133.155 Y120.836 E4.21424
G1 X132.912 Y121.742 E4.24544
G1 X132.593 Y122.624 E4.27663
G1 X132.199 Y123.475 E4.30782
G1 X131.844 Y124.113 E4.33211
G1 X131.64 Y124.452 E4.34527
G1 X131.123 Y125.234 E4.37645
G1 X130.541 Y125.969 E4.40763
G1 X130.153 Y126.394 E4.42677
G1 X129.871 Y126.688 E4.44032
G1 X129.194 Y127.337 E4.47151
G1 X128.341 Y128.015 E4.50775
G1 X128.041 Y128.23 E4.52003
G1 X127.256 Y128.743 E4.55122
G1 X126.514 Y129.147 E4.57932
G1 X126.098 Y129.353 E4.59476
G1 X125.241 Y129.733 E4.62594
G1 X124.009 Y130.135 E4.66904
G1 X123.647 Y130.23 E4.68149
G1 X122.731 Y130.429 E4.71266
G1 X121.801 Y130.549 E4.74385
G1 X120.864 Y130.59 E4.77505
G1 X120.056 Y130.561 E4.80194
G1 X119.644 Y130.531 E4.81568
G1 X118.713 Y130.423 E4.84685
G1 X117.66 Y130.202 E4.88264
G1 X117.224 Y130.088 E4.89763
G1 X116.328 Y129.813 E4.9288
G1 X115.337 Y129.405 E4.96444
G1 X114.919 Y129.209 E4.9798
G1 X114.088 Y128.775 E5.01098
G1 X113.399 Y128.343 E5.03803
G1 X113.042 Y128.1 E5.05239
G1 X112.29 Y127.54 E5.08358
G1 X111.589 Y126.918 E5.11475
G1 X110.943 Y126.238 E5.14594
G1 X110.357 Y125.505 E5.17716
G1 X109.767 Y124.611 E5.21278
G1 X109.542 Y124.231 E5.22747
G1 X109.058 Y123.32 E5.26178
G1 X108.933 Y123.055 E5.27153
G1 X108.642 Y122.391 E5.29564
G1 X108.385 Y121.727 E5.31932
G1 X108.242 Y121.319 E5.3337
G1 X107.97 Y120.422 E5.36488
G1 X107.775 Y119.504 E5.39609
G1 X107.659 Y118.574 E5.42726
G1 X107.623 Y117.637 E5.45845
G0 F6000 X108.024 Y117.571
G1 F1200 X108.073 Y116.651 E5.48909
G1 X108.202 Y115.74 E5.51969
G1 X108.41 Y114.843 E5.55032
G1 X108.695 Y113.967 E5.58096
G1 X109.055 Y113.12 E5.61157
G1 X109.486 Y112.307 E5.64217
G1 X109.987 Y111.534 E5.67281
G1 X110.553 Y110.808 E5.70343
G1 X111.18 Y110.134 E5.73405
G1 X111.863 Y109.516 E5.76468
G1 X112.395 Y109.103 E5.78708
G1 X113.125 Y108.573 E5.81709
G1 X114.767 Y107.427 E5.88369
G1 X115.418 Y106.986 E5.90984
G1 X116.203 Y106.504 E5.94048
G1 X117.026 Y106.092 E5.97109
G1 X117.882 Y105.753 E6.00171
G1 X118.764 Y105.49 E6.03232
G1 X119.666 Y105.304 E6.06296
G1 X120.58 Y105.197 E6.09356
G1 X121.501 Y105.17 E6.12421
G1 X122.42 Y105.223 E6.15483
G1 X123.331 Y105.355 E6.18544
G1 X124.227 Y105.566 E6.21606
G1 X125.101 Y105.854 E6.24667
G1 X125.948 Y106.217 E6.27731
G1 X126.759 Y106.652 E6.30792
G1 X127.53 Y107.155 E6.33854
G1 X128.042 Y107.546 E6.35997
G1 X128.337 Y107.786 E6.37262
G1 X128.755 Y108.146 E6.39097
G1 X129.13 Y108.485 E6.40778
G1 X130.028 Y109.4 E6.45042
G1 X130.376 Y109.801 E6.46808
G1 X130.948 Y110.522 E6.49869
G1 X131.456 Y111.29 E6.52932
G1 X131.896 Y112.099 E6.55995
G1 X132.263 Y112.943 E6.59056
G1 X132.514 Y113.673 E6.61623
G1 X132.635 Y114.072 E6.6301
G1 X132.863 Y114.964 E6.66072
G1 X132.996 Y115.73 E6.68658
G1 X133.05 Y116.13 E6.7
G1 X133.133 Y117.047 E6.73063
G1 X133.141 Y117.832 E6.75674
G1 X133.131 Y118.205 E6.76915
G1 X133.067 Y119.123 E6.79976
G1 X132.881 Y120.229 E6.83706
G1 X132.765 Y120.749 E6.85478
G1 X132.525 Y121.638 E6.88541
G1 X132.21 Y122.503 E6.91602
G1 X131.821 Y123.337 E6.94663
G1 X131.501 Y123.906 E6.96835
G1 X131.297 Y124.245 E6.9815
G1 X130.789 Y125.013 E7.01213
G1 X130.216 Y125.733 E7.04274
G1 X129.865 Y126.118 E7.06006
G1 X129.583 Y126.412 E7.07361
G1 X128.917 Y127.048 E7.10424
G1 X128.108 Y127.69 E7.13859
G1 X127.808 Y127.905 E7.15087
G1 X127.037 Y128.408 E7.18149
G1 X126.337 Y128.788 E7.20798
G1 X125.921 Y128.994 E7.22342
G1 X125.079 Y129.366 E7.25404
G1 X123.908 Y129.748 E7.295
G1 X123.546 Y129.843 E7.30745
G1 X122.646 Y130.038 E7.33808
G1 X121.733 Y130.154 E7.36869
G1 X120.813 Y130.19 E7.39931
G1 X120.085 Y130.162 E7.42354
G1 X119.673 Y130.132 E7.43728
G1 X118.759 Y130.025 E7.46789
G1 X117.762 Y129.815 E7.50178
G1 X117.326 Y129.701 E7.51677
G1 X116.446 Y129.43 E7.54739
G1 X115.507 Y129.043 E7.58117
G1 X115.089 Y128.847 E7.59653
G1 X114.273 Y128.421 E7.62714
G1 X113.624 Y128.013 E7.65264
G1 X113.267 Y127.77 E7.667
G1 X112.53 Y127.219 E7.69761
G1 X111.842 Y126.607 E7.72824
G1 X111.211 Y125.937 E7.75885
G1 X110.64 Y125.214 E7.78949
G1 X110.111 Y124.408 E7.82156
G1 X109.886 Y124.028 E7.83624
G1 X109.42 Y123.149 E7.86933
G1 X109.126 Y122.507 E7.89282
G1 X109.01 Y122.234 E7.90269
G1 X108.763 Y121.595 E7.92547
G1 X108.62 Y121.187 E7.93985
G1 X108.353 Y120.306 E7.97047
G1 X108.164 Y119.405 E8.00109
G1 X108.054 Y118.491 E8.03171
G1 X108.024 Y117.571 E8.06232
G0 F6000 X108.425 Y117.506
G1 F1200 X108.48 Y116.605 E8.09235
G1 X108.615 Y115.712 E8.12239
G1 X108.828 Y114.834 E8.15243
G1 X109.119 Y113.979 E8.18247
G1 X109.483 Y113.153 E8.2125
G1 X109.92 Y112.362 E8.24255
G1 X110.424 Y111.613 E8.27258
G1 X110.993 Y110.912 E8.30261
G1 X111.622 Y110.263 E8.33267
G1 X112.63 Y109.427 E8.37623
G1 X113.36 Y108.897 E8.40623
G1 X115.118 Y107.671 E8.47752
G1 X115.642 Y107.317 E8.49855
G1 X116.412 Y106.845 E8.52859
G1 X117.221 Y106.443 E8.55863
G1 X118.062 Y106.114 E8.58867
G1 X118.929 Y105.861 E8.61871
G1 X119.815 Y105.686 E8.64875
G1 X120.713 Y105.589 E8.67879
G1 X121.616 Y105.572 E8.70883
G1 X122.516 Y105.636 E8.73884
G1 X123.408 Y105.778 E8.76888
G1 X124.284 Y105.999 E8.79893
G1 X125.136 Y106.297 E8.82895
G1 X125.959 Y106.669 E8.85899
G1 X126.746 Y107.112 E8.88903
G1 X127.789 Y107.857 E8.93166
G1 X128.084 Y108.097 E8.94431
G1 X128.487 Y108.442 E8.96195
G1 X128.862 Y108.781 E8.97876
G1 X129.726 Y109.663 E9.01983
G1 X130.074 Y110.064 E9.03749
G1 X130.635 Y110.771 E9.06751
G1 X131.131 Y111.526 E9.09755
G1 X131.559 Y112.321 E9.12758
G1 X131.914 Y113.151 E9.15761
G1 X132.131 Y113.789 E9.18002
G1 X132.252 Y114.188 E9.19389
G1 X132.476 Y115.063 E9.22393
G1 X132.599 Y115.783 E9.24822
G1 X132.653 Y116.183 E9.26165
G1 X132.734 Y117.083 E9.2917
G1 X132.741 Y117.821 E9.31625
G1 X132.731 Y118.194 E9.32866
G1 X132.667 Y119.095 E9.3587
G1 X132.49 Y120.142 E9.39402
G1 X132.374 Y120.662 E9.41174
G1 X132.139 Y121.534 E9.44178
G1 X131.827 Y122.381 E9.4718
G1 X131.442 Y123.198 E9.50184
G1 X131.159 Y123.7 E9.52101
G1 X130.955 Y124.039 E9.53417
G1 X130.455 Y124.792 E9.56423
G1 X129.891 Y125.497 E9.59426
G1 X129.576 Y125.841 E9.60977
G1 X129.294 Y126.135 E9.62332
G1 X128.641 Y126.758 E9.65334
G1 X127.875 Y127.365 E9.68585
G1 X127.575 Y127.58 E9.69812
G1 X126.818 Y128.073 E9.72817
G1 X126.159 Y128.43 E9.7531
G1 X125.743 Y128.636 E9.76854
G1 X124.917 Y129 E9.79856
G1 X123.806 Y129.361 E9.83741
G1 X123.444 Y129.456 E9.84986
G1 X122.561 Y129.646 E9.8799
G1 X121.665 Y129.758 E9.90994
G1 X120.763 Y129.79 E9.93995
G1 X120.114 Y129.763 E9.96156
G1 X119.702 Y129.733 E9.9753
G1 X118.805 Y129.628 E10.00534
G1 X117.863 Y129.428 E10.03737
G1 X117.427 Y129.314 E10.05236
G1 X116.564 Y129.047 E10.0824
G1 X115.677 Y128.681 E10.11432
G1 X115.259 Y128.485 E10.12967
G1 X114.459 Y128.066 E10.15971
G1 X113.85 Y127.682 E10.18365
G1 X113.493 Y127.439 E10.19802
G1 X112.769 Y126.898 E10.22808
G1 X112.097 Y126.296 E10.25809
G1 X111.48 Y125.636 E10.28814
G1 X110.924 Y124.924 E10.31818
G1 X110.455 Y124.204 E10.34676
G1 X110.23 Y123.824 E10.36145
G1 X109.782 Y122.979 E10.39326
G1 X109.494 Y122.351 E10.41624
G1 X109.378 Y122.078 E10.4261
G1 X109.14 Y121.463 E10.44804
G1 X108.997 Y121.055 E10.46242
G1 X108.736 Y120.19 E10.49247
G1 X108.553 Y119.306 E10.52249
G1 X108.449 Y118.409 E10.55253
G1 X108.425 Y117.506 E10.58257
G1 F2700 E5.58257
;MESH:Champignon_Mariov3.STL
G0 F6000 X118.176 Y118.422
G0 X121.02 Y118.934
;TYPE:WALL-INNER
G1 F2700 E10.58257
G1 F1200 X121.299 Y118.801 E10.59285
G1 X121.549 Y118.622 E10.60308
G1 X121.843 Y118.311 E10.61731
G1 X121.943 Y117.897 E10.63148
G1 X121.951 Y117.648 E10.63977
G1 X121.953 Y117.581 E10.64199
G1 X121.886 Y117.091 E10.65844
G1 X121.622 Y116.785 E10.67189
G1 X121.323 Y116.51 E10.6854
G1 X119.326 Y117.903 E10.76638
G1 X119.527 Y118.347 E10.78259
G1 X119.662 Y118.585 E10.79169
G1 X119.892 Y118.739 E10.8009
G1 X120.187 Y118.885 E10.81185
G1 X120.501 Y118.974 E10.8227
G1 X120.77 Y119 E10.83169
G1 X121.02 Y118.934 E10.84029
G0 F6000 X120.427 Y119.369
;TYPE:WALL-OUTER
G1 F1200 X120.803 Y119.405 E10.85285
G1 X121.158 Y119.312 E10.86506
G1 X121.503 Y119.147 E10.87778
G1 X121.813 Y118.925 E10.89046
G1 X122.077 Y118.646 E10.90323
G1 X122.233 Y118.4 E10.91292
G1 X122.342 Y117.951 E10.92829
G1 X122.351 Y117.66 E10.93797
G1 X122.354 Y117.56 E10.9413
G1 X122.301 Y117.176 E10.95419
G1 X122.211 Y116.855 E10.96528
G1 X121.91 Y116.507 E10.98059
G1 X121.589 Y116.21 E10.99513
G1 X121.342 Y116.008 E11.00574
G1 X118.85 Y117.747 E11.10681
G1 X118.992 Y118.135 E11.12056
G1 X119.17 Y118.529 E11.13494
G1 X119.36 Y118.865 E11.14777
G1 X119.691 Y119.087 E11.16103
G1 X120.043 Y119.26 E11.17408
G1 X120.427 Y119.369 E11.18735
G0 F6000 X120.697 Y118.655
;TYPE:SKIN
G1 F1200 X121.115 Y118.488 E11.20232
G1 X121.308 Y118.351 E11.2102
G1 X121.513 Y118.134 E11.22012
G1 X121.584 Y117.845 E11.23002
G1 X121.59 Y117.633 E11.23708
G1 X121.591 Y117.598 E11.23824
G1 X121.544 Y117.246 E11.25005
G1 X121.301 Y116.963 E11.26246
G1 X119.778 Y118.029 E11.32429
G1 X119.927 Y118.356 E11.33624
G1 X120.316 Y118.545 E11.35063
G1 X120.697 Y118.655 E11.36382
G0 F6000 X120.223 Y117.96
G1 F1200 X120.686 Y118.423 E11.38559
G0 F6000 X121.081 Y118.253
G1 F1200 X120.556 Y117.728 E11.41029
G0 F6000 X120.889 Y117.495
G1 F1200 X121.35 Y117.956 E11.43197
G0 F6000 X121.362 Y117.403
G1 F1200 X121.222 Y117.263 E11.43856
G1 F2700 E6.43856
;MESH:NONMESH
G0 F300 X121.222 Y117.263 Z0.4
G0 F6000 X120.958 Y116.886
G0 X119.539 Y117.962
G0 X119.737 Y118.375
G0 X120.466 Y119.154
G0 X120.226 Y120.245
;TIME_ELAPSED:23.800637
;LAYER:1
M106 S76.5
;TYPE:WALL-INNER
;MESH:Champignon_Mariov3.STL
G1 F2700 E11.43856
G1 F600 X120.667 Y120.235 E11.45323
G1 X121.101 Y120.163 E11.46786
G1 X121.544 Y120.022 E11.48332
G1 X121.936 Y119.819 E11.49801
G1 X122.3 Y119.554 E11.51298
G1 X122.623 Y119.237 E11.52803
G1 X122.888 Y118.877 E11.5429
G1 X123.095 Y118.481 E11.55776
G1 X123.244 Y118.065 E11.57246
G1 X123.332 Y117.631 E11.58719
G1 X123.34 Y117.508 E11.59129
G1 X123.356 Y117.277 E11.59899
G1 X123.276 Y116.845 E11.6136
G1 X123.138 Y116.422 E11.6284
G1 X122.89 Y115.894 E11.6478
G1 X122.477 Y115.515 E11.66645
G1 X122.174 Y115.28 E11.6792
G1 X121.929 Y115.121 E11.68892
G1 X121.617 Y115.008 E11.69995
G1 X121.304 Y114.919 E11.71078
G1 X121.032 Y114.857 E11.72005
G1 X120.782 Y114.822 E11.72845
G1 X120.436 Y114.802 E11.73998
G1 X118.037 Y116.474 E11.83724
G1 X117.956 Y116.705 E11.84538
G1 X117.876 Y117.11 E11.85911
