;FLAVOR:Marlin
;TIME:8724
;Filament used: 6.76552m
;Layer height: 0.2
;MINX:60.952
;MINY:60.949
;MINZ:0.2
;MAXX:174.051
;MAXY:174.05
;MAXZ:6.6
;Generated with Cura_SteamEngine main
M140 S55
M105
M190 S55
M104 S190
M105
M109 S190
M82 ;absolute extrusion mode
; Ender 3 Custom Start G-code
G92 E0 ; Reset Extruder
G28 ; Home all axes
G1 Z2.0 F3000 ; Move Z Axis up little to prevent scratching of Heat Bed
G1 X0.1 Y20 Z0.3 F5000.0 ; Move to start position
G1 X0.1 Y200.0 Z0.3 F1500.0 E15 ; Draw the first line
G1 X0.4 Y200.0 Z0.3 F5000.0 ; Move to side a little
G1 X0.4 Y20 Z0.3 F1500.0 E30 ; Draw the second line
G92 E0 ; Reset Extruder
G1 Z2.0 F3000 ; Move Z Axis up little to prevent scratching of Heat Bed
G1 X5 Y20 Z0.3 F5000.0 ; Move over to prevent blob squish
G92 E0
G92 E0
G1 F2700 E-5
;LAYER_COUNT:33
;LAYER:0
M107
G0 F6000 X77.705 Y77.323 Z0.2
G0 X72.533 Y83.211
;TYPE:SKIRT
G1 F2700 E0
G1 F1200 X73.175 Y82.379 E0.03495
G1 X74.112 Y81.231 E0.08424
G1 X74.969 Y80.226 E0.12817
G1 X75.888 Y79.209 E0.17376
G1 X76.729 Y78.311 E0.21468
G1 X77.705 Y77.323 E0.26087
G1 X78.591 Y76.46 E0.30201
G1 X79.575 Y75.554 E0.3465
G1 X80.386 Y74.828 E0.3827
G1 X81.503 Y73.885 E0.43132
G1 X82.241 Y73.283 E0.463
G1 X83.503 Y72.31 E0.516
G1 X84.564 Y71.527 E0.55986
G1 X85.633 Y70.783 E0.60317
G1 X86.652 Y70.102 E0.64394
G1 X87.725 Y69.423 E0.68617
G1 X88.85 Y68.742 E0.72991
G1 X89.892 Y68.148 E0.7698
G1 X91.149 Y67.461 E0.81745
G1 X92.407 Y66.821 E0.86439
G1 X93.303 Y66.384 E0.89755
G1 X94.755 Y65.725 E0.95058
G1 X95.964 Y65.207 E0.99433
G1 X96.948 Y64.816 E1.02955
G1 X98.261 Y64.321 E1.07622
G1 X99.465 Y63.903 E1.11861
G1 X100.711 Y63.498 E1.16219
G1 X101.863 Y63.155 E1.20216
G1 X102.995 Y62.838 E1.24126
G1 X104.318 Y62.507 E1.28662
G1 X105.733 Y62.185 E1.33489
G1 X106.964 Y61.94 E1.37663
G1 X108.266 Y61.706 E1.42063
G1 X109.68 Y61.494 E1.46819
G1 X111.079 Y61.311 E1.51512
G1 X112.124 Y61.204 E1.55005
G1 X113.145 Y61.114 E1.58414
G1 X114.709 Y61.019 E1.63626
G1 X116.108 Y60.963 E1.68283
G1 X117.24 Y60.949 E1.72048
G1 X118.563 Y60.957 E1.76448
G1 X120.064 Y61.008 E1.81444
G1 X120.997 Y61.054 E1.84551
G1 X122.554 Y61.175 E1.89745
G1 X123.917 Y61.311 E1.94301
G1 X125.033 Y61.452 E1.98042
G1 X126.327 Y61.639 E2.02391
G1 X127.475 Y61.837 E2.06265
G1 X128.932 Y62.114 E2.11198
G1 X130.115 Y62.375 E2.15227
G1 X131.195 Y62.629 E2.18917
G1 X132.546 Y62.987 E2.23566
G1 X133.974 Y63.398 E2.28508
G1 X135.032 Y63.735 E2.32202
G1 X136.063 Y64.079 E2.35816
G1 X137.38 Y64.559 E2.40479
G1 X138.762 Y65.096 E2.4541
G1 X140.111 Y65.667 E2.50282
G1 X141.114 Y66.111 E2.5393
G1 X142.244 Y66.648 E2.58092
G1 X143.542 Y67.299 E2.62921
G1 X144.587 Y67.859 E2.66865
G1 X145.887 Y68.586 E2.71819
G1 X146.896 Y69.188 E2.75727
G1 X147.702 Y69.686 E2.78878
G1 X149.131 Y70.622 E2.84559
G1 X149.894 Y71.142 E2.8763
G1 X151.27 Y72.14 E2.93284
G1 X152.291 Y72.914 E2.97545
G1 X153.136 Y73.59 E3.01145
G1 X154.304 Y74.561 E3.06197
G1 X155.333 Y75.468 E3.10759
G1 X156.288 Y76.342 E3.15064
G1 X157.022 Y77.049 E3.18454
G1 X157.816 Y77.839 E3.22179
G1 X158.919 Y78.999 E3.27503
G1 X159.819 Y79.985 E3.31944
G1 X160.675 Y80.979 E3.36307
G1 X161.48 Y81.947 E3.40494
G1 X162.271 Y82.955 E3.44756
G1 X162.99 Y83.901 E3.48708
G1 X163.882 Y85.146 E3.53802
G1 X164.433 Y85.945 E3.5703
G1 X165.255 Y87.211 E3.6205
G1 X165.94 Y88.313 E3.66366
G1 X166.526 Y89.316 E3.70229
G1 X167.169 Y90.46 E3.74594
G1 X167.83 Y91.715 E3.79312
G1 X168.331 Y92.709 E3.83014
G1 X168.96 Y94.05 E3.87941
G1 X169.491 Y95.247 E3.92296
G1 X169.952 Y96.367 E3.96324
G1 X170.47 Y97.687 E4.01041
G1 X170.848 Y98.738 E4.04756
G1 X171.313 Y100.11 E4.09574
G1 X171.698 Y101.363 E4.13934
G1 X172.069 Y102.651 E4.18392
G1 X172.362 Y103.779 E4.22268
G1 X172.597 Y104.747 E4.25581
G1 X172.919 Y106.253 E4.30703
G1 X173.165 Y107.528 E4.35022
G1 X173.381 Y108.844 E4.39458
G1 X173.596 Y110.329 E4.44448
G1 X173.726 Y111.457 E4.48225
G1 X173.863 Y112.874 E4.5296
G1 X173.941 Y113.98 E4.56648
G1 X174.012 Y115.365 E4.6126
G1 X174.04 Y116.48 E4.6497
G1 X174.051 Y117.944 E4.69839
G1 X174.024 Y119.23 E4.74117
G1 X173.987 Y120.246 E4.77499
G1 X173.884 Y121.831 E4.82782
G1 X173.773 Y123.126 E4.87105
G1 X173.655 Y124.172 E4.90606
G1 X173.469 Y125.594 E4.95376
G1 X173.226 Y127.107 E5.00472
G1 X173.003 Y128.347 E5.04663
G1 X172.784 Y129.403 E5.0825
G1 X172.44 Y130.913 E5.13401
G1 X172.159 Y132 E5.17135
G1 X171.792 Y133.331 E5.21727
G1 X171.488 Y134.328 E5.25194
G1 X171.049 Y135.684 E5.29934
G1 X170.58 Y137.003 E5.34591
G1 X170.28 Y137.81 E5.37454
G1 X169.562 Y139.574 E5.43789
G1 X169.055 Y140.746 E5.48036
G1 X168.584 Y141.758 E5.51748
G1 X167.979 Y142.998 E5.56337
G1 X167.504 Y143.91 E5.59757
G1 X166.773 Y145.258 E5.64858
G1 X166.213 Y146.222 E5.68566
G1 X165.373 Y147.605 E5.73948
G1 X164.735 Y148.593 E5.77859
G1 X163.966 Y149.736 E5.82441
G1 X163.221 Y150.778 E5.86702
G1 X162.468 Y151.792 E5.90902
G1 X161.588 Y152.911 E5.95637
G1 X161.003 Y153.633 E5.98728
G1 X159.993 Y154.81 E6.03886
G1 X159.314 Y155.573 E6.07284
G1 X158.255 Y156.703 E6.12434
G1 X157.62 Y157.359 E6.15471
G1 X156.484 Y158.464 E6.20742
G1 X155.681 Y159.216 E6.24401
G1 X154.681 Y160.105 E6.28851
G1 X153.558 Y161.064 E6.33763
G1 X152.654 Y161.793 E6.37626
G1 X151.464 Y162.717 E6.42637
G1 X150.46 Y163.45 E6.46771
G1 X149.676 Y164.005 E6.49966
G1 X148.254 Y164.954 E6.55652
G1 X147.401 Y165.501 E6.59023
G1 X146.097 Y166.286 E6.64085
G1 X144.952 Y166.941 E6.68472
G1 X143.804 Y167.557 E6.72806
G1 X142.62 Y168.167 E6.77235
G1 X141.737 Y168.592 E6.80495
G1 X140.363 Y169.223 E6.85524
G1 X139.199 Y169.718 E6.89731
G1 X137.85 Y170.264 E6.94571
G1 X136.732 Y170.678 E6.98536
G1 X135.414 Y171.139 E7.0318
G1 X134.209 Y171.524 E7.07388
G1 X133.305 Y171.799 E7.10531
G1 X131.775 Y172.217 E7.15806
G1 X130.504 Y172.536 E7.20164
G1 X129.31 Y172.802 E7.24233
G1 X128.083 Y173.051 E7.28397
G1 X126.564 Y173.315 E7.33525
G1 X125.475 Y173.485 E7.37191
G1 X124.189 Y173.651 E7.41504
G1 X122.876 Y173.794 E7.45897
G1 X121.59 Y173.898 E7.50188
G1 X120.232 Y173.984 E7.54714
G1 X119.041 Y174.027 E7.58677
G1 X117.812 Y174.05 E7.62766
G1 X116.423 Y174.039 E7.67386
G1 X115.492 Y174.016 E7.70483
G1 X113.714 Y173.921 E7.76405
G1 X112.387 Y173.821 E7.80832
G1 X111.302 Y173.709 E7.84459
G1 X110.245 Y173.584 E7.88
G1 X108.683 Y173.356 E7.9325
G1 X107.74 Y173.202 E7.96428
G1 X106.075 Y172.881 E8.02068
G1 X105.085 Y172.673 E8.05432
G1 X103.56 Y172.305 E8.1065
G1 X102.388 Y171.994 E8.14683
G1 X101.168 Y171.636 E8.18912
G1 X99.708 Y171.18 E8.23999
G1 X98.798 Y170.867 E8.272
G1 X97.472 Y170.385 E8.31892
G1 X96.056 Y169.823 E8.36959
G1 X95.073 Y169.415 E8.40499
G1 X93.953 Y168.914 E8.4458
G1 X92.656 Y168.301 E8.49352
G1 X91.497 Y167.714 E8.53673
G1 X90.357 Y167.11 E8.57964
G1 X89.13 Y166.415 E8.62654
G1 X87.996 Y165.745 E8.67035
G1 X87.22 Y165.259 E8.7008
G1 X85.91 Y164.405 E8.75281
G1 X84.845 Y163.666 E8.79593
G1 X83.834 Y162.937 E8.83738
G1 X82.882 Y162.213 E8.87716
G1 X81.761 Y161.327 E8.92469
G1 X80.963 Y160.66 E8.95928
G1 X80.066 Y159.887 E8.99866
G1 X78.879 Y158.805 E9.05208
G1 X78.169 Y158.134 E9.08458
G1 X76.863 Y156.823 E9.14612
G1 X76.049 Y155.969 E9.18536
G1 X75.15 Y154.974 E9.22996
G1 X74.316 Y154.012 E9.27231
G1 X73.411 Y152.907 E9.31982
G1 X72.609 Y151.892 E9.36284
G1 X71.929 Y150.983 E9.4006
G1 X71.147 Y149.896 E9.44514
G1 X70.558 Y149.03 E9.47997
G1 X69.946 Y148.103 E9.51692
G1 X69.149 Y146.821 E9.56712
G1 X68.426 Y145.601 E9.61429
G1 X67.746 Y144.376 E9.66089
G1 X67.324 Y143.587 E9.69065
G1 X66.598 Y142.13 E9.74479
G1 X66.042 Y140.953 E9.78809
G1 X65.528 Y139.782 E9.83062
G1 X65.132 Y138.844 E9.86449
G1 X64.519 Y137.27 E9.92067
G1 X64.082 Y136.067 E9.96324
G1 X63.683 Y134.865 E10.00536
G1 X63.396 Y133.956 E10.03707
G1 X62.937 Y132.352 E10.09256
G1 X62.692 Y131.437 E10.12406
G1 X62.331 Y129.915 E10.17609
G1 X62.049 Y128.605 E10.22066
G1 X61.822 Y127.385 E10.26193
G1 X61.602 Y126.071 E10.30624
G1 X61.432 Y124.848 E10.34731
G1 X61.293 Y123.726 E10.38492
G1 X61.154 Y122.274 E10.43343
G1 X61.05 Y120.886 E10.47973
G1 X60.99 Y119.596 E10.52268
G1 X60.957 Y118.551 E10.55745
G1 X60.952 Y116.971 E10.61
G1 X60.969 Y115.91 E10.6453
G1 X61.033 Y114.443 E10.69414
G1 X61.114 Y113.165 E10.73673
G1 X61.242 Y111.779 E10.78302
G1 X61.388 Y110.455 E10.82733
G1 X61.537 Y109.381 E10.86339
G1 X61.725 Y108.16 E10.90448
G1 X62.016 Y106.568 E10.95831
G1 X62.211 Y105.611 E10.99079
G1 X62.531 Y104.226 E11.03807
G1 X62.799 Y103.15 E11.07495
G1 X63.242 Y101.565 E11.12969
G1 X63.597 Y100.394 E11.17039
G1 X64.059 Y99.009 E11.21895
G1 X64.405 Y98.028 E11.25354
G1 X64.913 Y96.704 E11.30071
G1 X65.424 Y95.449 E11.34578
G1 X65.985 Y94.176 E11.39205
G1 X66.503 Y93.055 E11.43312
G1 X66.891 Y92.267 E11.46234
G1 X67.43 Y91.211 E11.50177
G1 X68.081 Y90.015 E11.54706
G1 X68.674 Y88.969 E11.58705
G1 X69.43 Y87.719 E11.63564
G1 X70.269 Y86.398 E11.68769
G1 X70.983 Y85.344 E11.73003
G1 X71.59 Y84.479 E11.76518
G1 X72.533 Y83.211 E11.81774
G1 F2700 E6.81774
G0 F6000 X68.508 Y90.07
G1 F2700 E11.81774
G1 F1200 X69.021 Y89.167 E11.85228
G1 X69.859 Y87.786 E11.906
G1 X70.6 Y86.622 E11.9519
G1 X71.31 Y85.574 E11.994
G1 X72.103 Y84.452 E12.0397
G1 X72.751 Y83.585 E12.0757
G1 X73.492 Y82.623 E12.11609
G1 X74.418 Y81.489 E12.16478
G1 X75.266 Y80.494 E12.20826
G1 X76.181 Y79.481 E12.25367
G1 X76.794 Y78.821 E12.28363
G1 X77.986 Y77.608 E12.34019
G1 X78.862 Y76.754 E12.38088
G1 X79.725 Y75.958 E12.41993
G1 X80.653 Y75.126 E12.46138
G1 X81.756 Y74.195 E12.50939
G1 X82.74 Y73.398 E12.55151
G1 X83.741 Y72.631 E12.59345
G1 X84.533 Y72.042 E12.62628
G1 X85.713 Y71.213 E12.67424
G1 X86.866 Y70.44 E12.72041
G1 X87.777 Y69.862 E12.7563
G1 X89.048 Y69.089 E12.80577
G1 X90.09 Y68.495 E12.84567
G1 X91.331 Y67.817 E12.8927
G1 X92.582 Y67.181 E12.93938
G1 X93.764 Y66.61 E12.98304
G1 X94.914 Y66.092 E13.02499
G1 X96.112 Y65.579 E13.06833
G1 X97.247 Y65.129 E13.10894
G1 X98.116 Y64.799 E13.13986
G1 X99.59 Y64.283 E13.1918
G1 X100.539 Y63.971 E13.22503
G1 X102.156 Y63.487 E13.28117
G1 X103.103 Y63.223 E13.31387
G1 X104.562 Y62.86 E13.36387
G1 X105.507 Y62.642 E13.39613
G1 X107.037 Y62.333 E13.44804
G1 X108.326 Y62.102 E13.4916
G1 X109.564 Y61.915 E13.53324
G1 X111.12 Y61.709 E13.58545
G1 X112 Y61.618 E13.61487
G1 X113.18 Y61.513 E13.65427
G1 X114.891 Y61.411 E13.71128
G1 X116.114 Y61.363 E13.75199
G1 X117.24 Y61.349 E13.78944
G1 X118.55 Y61.357 E13.83302
G1 X120.044 Y61.408 E13.88274
G1 X121.295 Y61.474 E13.9244
G1 X122.339 Y61.557 E13.95924
G1 X123.564 Y61.674 E14.00016
G1 X124.977 Y61.848 E14.04752
G1 X126.259 Y62.033 E14.0906
G1 X127.407 Y62.231 E14.12934
G1 X128.846 Y62.505 E14.17806
G1 X130.179 Y62.8 E14.22347
G1 X131.424 Y63.099 E14.26606
G1 X132.442 Y63.373 E14.30112
G1 X133.853 Y63.779 E14.34996
G1 X134.762 Y64.068 E14.38168
G1 X135.936 Y64.459 E14.42284
G1 X137.389 Y64.99 E14.47429
G1 X138.606 Y65.465 E14.51774
G1 X139.949 Y66.033 E14.56624
G1 X140.952 Y66.477 E14.60272
G1 X142.216 Y67.08 E14.6493
G1 X143.353 Y67.652 E14.69164
G1 X144.54 Y68.289 E14.73644
G1 X145.411 Y68.773 E14.76958
G1 X146.686 Y69.528 E14.81887
G1 X147.492 Y70.026 E14.85038
G1 X148.906 Y70.953 E14.90662
G1 X149.944 Y71.667 E14.94852
G1 X150.9 Y72.364 E14.98787
G1 X152.041 Y73.227 E15.03545
G1 X153.019 Y74.011 E15.07714
G1 X154.039 Y74.861 E15.1213
G1 X155.064 Y75.764 E15.16674
G1 X155.785 Y76.419 E15.19913
G1 X156.875 Y77.465 E15.24938
G1 X157.749 Y78.343 E15.29059
G1 X158.625 Y79.27 E15.33301
G1 X159.516 Y80.246 E15.37696
G1 X160.369 Y81.236 E15.42042
G1 X161.165 Y82.194 E15.46185
G1 X162.06 Y83.337 E15.51014
G1 X162.863 Y84.403 E15.55452
G1 X163.461 Y85.243 E15.58882
G1 X164.103 Y86.172 E15.62638
G1 X164.916 Y87.424 E15.67603
G1 X165.594 Y88.515 E15.71875
G1 X166.274 Y89.682 E15.76368
G1 X166.965 Y90.922 E15.81089
G1 X167.473 Y91.895 E15.8474
G1 X167.974 Y92.889 E15.88442
G1 X168.532 Y94.075 E15.92801
G1 X168.991 Y95.096 E15.96525
G1 X169.582 Y96.519 E16.0165
G1 X169.974 Y97.507 E16.05185
G1 X170.526 Y99.028 E16.10567
G1 X170.831 Y99.919 E16.13699
G1 X171.266 Y101.313 E16.18556
G1 X171.682 Y102.752 E16.23538
G1 X171.973 Y103.873 E16.2739
G1 X172.208 Y104.841 E16.30703
G1 X172.498 Y106.191 E16.35296
G1 X172.77 Y107.593 E16.40046
G1 X172.986 Y108.909 E16.44481
G1 X173.198 Y110.374 E16.49405
G1 X173.346 Y111.671 E16.53746
G1 X173.464 Y112.902 E16.5786
G1 X173.541 Y114.002 E16.61527
G1 X173.612 Y115.375 E16.661
G1 X173.64 Y116.49 E16.69809
G1 X173.651 Y117.936 E16.74619
G1 X173.624 Y119.216 E16.78877
G1 X173.587 Y120.232 E16.82259
G1 X173.497 Y121.643 E16.86961
G1 X173.375 Y123.081 E16.91761
G1 X173.257 Y124.127 E16.95262
G1 X173.074 Y125.531 E16.99972
G1 X172.832 Y127.038 E17.05048
G1 X172.611 Y128.265 E17.09195
G1 X172.354 Y129.498 E17.13384
G1 X172.053 Y130.813 E17.17871
G1 X171.809 Y131.76 E17.21123
G1 X171.409 Y133.215 E17.26142
G1 X171.06 Y134.356 E17.30111
G1 X170.672 Y135.55 E17.34286
G1 X170.205 Y136.864 E17.38925
G1 X169.905 Y137.671 E17.41788
G1 X169.257 Y139.267 E17.47517
G1 X168.692 Y140.578 E17.52265
G1 X168.221 Y141.59 E17.55978
G1 X167.624 Y142.814 E17.60508
G1 X167.149 Y143.726 E17.63928
G1 X166.579 Y144.784 E17.67925
G1 X165.969 Y145.848 E17.72004
G1 X165.037 Y147.388 E17.77991
G1 X164.403 Y148.371 E17.81882
G1 X163.829 Y149.231 E17.8532
G1 X162.987 Y150.419 E17.90164
G1 X162.153 Y151.545 E17.94824
G1 X161.277 Y152.659 E17.99538
G1 X160.692 Y153.381 E18.02628
G1 X159.695 Y154.544 E18.07723
G1 X159.016 Y155.307 E18.1112
G1 X158.067 Y156.32 E18.15737
G1 X157.089 Y157.324 E18.20399
G1 X156.211 Y158.172 E18.24459
G1 X155.408 Y158.924 E18.28118
G1 X154.299 Y159.908 E18.33049
G1 X153.554 Y160.547 E18.36314
G1 X152.276 Y161.582 E18.41783
G1 X151.228 Y162.394 E18.46193
G1 X150.229 Y163.124 E18.50308
G1 X149.445 Y163.679 E18.53503
G1 X148.038 Y164.617 E18.59127
G1 X146.907 Y165.336 E18.63585
G1 X145.897 Y165.939 E18.67497
G1 X144.762 Y166.589 E18.71847
G1 X143.748 Y167.134 E18.75676
G1 X142.738 Y167.66 E18.79464
G1 X141.416 Y168.301 E18.8435
G1 X140.206 Y168.855 E18.88777
G1 X139.042 Y169.35 E18.92984
G1 X137.71 Y169.889 E18.97763
G1 X136.598 Y170.301 E19.01707
G1 X135.592 Y170.657 E19.05256
G1 X134.244 Y171.094 E19.0997
G1 X132.876 Y171.506 E19.14721
G1 X131.677 Y171.83 E19.18852
G1 X130.417 Y172.146 E19.23173
G1 X129.228 Y172.411 E19.27225
G1 X128.342 Y172.595 E19.30234
G1 X126.502 Y172.92 E19.36449
G1 X125.105 Y173.134 E19.4115
G1 X124.281 Y173.238 E19.43912
G1 X122.843 Y173.396 E19.48724
G1 X121.557 Y173.5 E19.53015
G1 X120.217 Y173.584 E19.5748
G1 X119.026 Y173.627 E19.61444
G1 X117.805 Y173.65 E19.65506
G1 X116.433 Y173.639 E19.70069
G1 X115.177 Y173.603 E19.74249
G1 X113.743 Y173.522 E19.79026
G1 X112.427 Y173.423 E19.83415
G1 X111.349 Y173.312 E19.8702
G1 X110.292 Y173.187 E19.9056
G1 X108.904 Y172.986 E19.95224
G1 X107.478 Y172.749 E20.00032
G1 X106.158 Y172.49 E20.04506
G1 X105.168 Y172.282 E20.07871
G1 X103.826 Y171.96 E20.12461
G1 X102.5 Y171.61 E20.17022
G1 X101.28 Y171.252 E20.21251
G1 X99.838 Y170.802 E20.26276
G1 X98.928 Y170.489 E20.29476
G1 X97.929 Y170.13 E20.33007
G1 X96.372 Y169.519 E20.3857
G1 X95.227 Y169.045 E20.42692
G1 X93.981 Y168.486 E20.47234
G1 X92.837 Y167.944 E20.51444
G1 X91.682 Y167.36 E20.55749
G1 X90.852 Y166.925 E20.58866
G1 X89.474 Y166.151 E20.64122
G1 X88.209 Y165.406 E20.69005
G1 X87.295 Y164.832 E20.72595
G1 X86.406 Y164.256 E20.76118
G1 X85.078 Y163.341 E20.81482
G1 X84.076 Y162.618 E20.85592
G1 X83.124 Y161.894 E20.8957
G1 X82.018 Y161.02 E20.94258
G1 X81.093 Y160.245 E20.98272
G1 X80.089 Y159.372 E21.02697
G1 X79.154 Y158.514 E21.06918
G1 X78.444 Y157.843 E21.10167
G1 X77.151 Y156.546 E21.16258
