;FLAVOR:Marlin
;TIME:2075
;Filament used: 1.13968m
;Layer height: 0.2
;MINX:73.228
;MINY:81.458
;MINZ:0.2
;MAXX:161.772
;MAXY:153.537
;MAXZ:3
;Generated with Cura_SteamEngine main
M140 S55
M105
M190 S55
M104 S190
M105
M109 S190
M82 ;absolute extrusion mode
; Ender 3 Custom Start G-code
G92 E0 ; Reset Extruder
G28 ; Home all axes
G1 Z2.0 F3000 ; Move Z Axis up little to prevent scratching of Heat Bed
G1 X0.1 Y20 Z0.3 F5000.0 ; Move to start position
G1 X0.1 Y200.0 Z0.3 F1500.0 E15 ; Draw the first line
G1 X0.4 Y200.0 Z0.3 F5000.0 ; Move to side a little
G1 X0.4 Y20 Z0.3 F1500.0 E30 ; Draw the second line
G92 E0 ; Reset Extruder
G1 Z2.0 F3000 ; Move Z Axis up little to prevent scratching of Heat Bed
G1 X5 Y20 Z0.3 F5000.0 ; Move over to prevent blob squish
G92 E0
G92 E0
G1 F2700 E-5
;LAYER_COUNT:15
;LAYER:0
M107
G0 F6000 X95.607 Y88.534 Z0.2
G0 X92.484 Y92.861
;TYPE:SKIRT
G1 F2700 E0
G1 F1200 X93.848 Y90.767 E0.08312
G1 X94.442 Y89.941 E0.11696
G1 X94.994 Y89.244 E0.14653
G1 X95.607 Y88.534 E0.17773
G1 X96.499 Y87.686 E0.21866
G1 X97.016 Y87.253 E0.24109
G1 X97.326 Y87.005 E0.2543
G1 X98.083 Y86.451 E0.2855
G1 X98.884 Y85.964 E0.31668
G1 X99.724 Y85.546 E0.34788
G1 X100.298 Y85.31 E0.36853
G1 X101.184 Y84.974 E0.40004
G1 X103.611 Y84.014 E0.48685
G1 X106.008 Y82.985 E0.57361
G1 X107.072 Y82.505 E0.61243
G1 X107.942 Y82.156 E0.64361
G1 X108.839 Y81.883 E0.6748
G1 X110.169 Y81.625 E0.71986
G1 X110.933 Y81.537 E0.74544
G1 X111.441 Y81.495 E0.76239
G1 X112.378 Y81.458 E0.79358
G1 X113.244 Y81.495 E0.82241
G1 X113.929 Y81.556 E0.84528
G1 X114.348 Y81.604 E0.85931
G1 X115.274 Y81.751 E0.89049
G1 X116.185 Y81.976 E0.9217
G1 X117.09 Y82.284 E0.9535
G1 X118.396 Y82.793 E1.00012
G1 X120.875 Y83.709 E1.08802
G1 X123.239 Y84.507 E1.17101
G1 X125.67 Y85.251 E1.25556
G1 X128.049 Y85.907 E1.33764
G1 X130.536 Y86.518 E1.42282
G1 X133.01 Y87.051 E1.50699
G1 X135.445 Y87.504 E1.58937
G1 X137.937 Y87.896 E1.67327
G1 X140.425 Y88.215 E1.7567
G1 X142.998 Y88.472 E1.84271
G1 X143.963 Y88.548 E1.8749
G1 X144.894 Y88.662 E1.9061
G1 X146.127 Y88.94 E1.94814
G1 X146.905 Y89.163 E1.97506
G1 X147.795 Y89.459 E2.00625
G1 X148.884 Y89.944 E2.0459
G1 X149.49 Y90.26 E2.06863
G1 X149.856 Y90.462 E2.08254
G1 X150.657 Y90.95 E2.11373
G1 X151.414 Y91.504 E2.14493
G1 X152.12 Y92.121 E2.17612
G1 X152.56 Y92.563 E2.19686
G1 X153.17 Y93.212 E2.22649
G1 X154.951 Y95.053 E2.31168
G1 X156.784 Y96.843 E2.3969
G1 X157.739 Y97.741 E2.4405
G1 X158.394 Y98.412 E2.47168
G1 X158.99 Y99.136 E2.50287
G1 X159.521 Y99.909 E2.53407
G1 X159.768 Y100.322 E2.55007
G1 X160.086 Y100.898 E2.57196
G1 X160.324 Y101.358 E2.58918
G1 X160.719 Y102.209 E2.62039
G1 X161.011 Y103.001 E2.64846
G1 X161.216 Y103.651 E2.67113
G1 X161.342 Y104.088 E2.68626
G1 X161.564 Y104.999 E2.71744
G1 X161.706 Y105.926 E2.74864
G1 X161.77 Y106.862 E2.77984
G1 X161.768 Y107.461 E2.79976
G1 X161.742 Y108.322 E2.82841
G1 X161.699 Y111.002 E2.91756
G1 X161.731 Y113.547 E3.00221
G1 X161.772 Y114.919 E3.04787
G1 X161.751 Y115.856 E3.07904
G1 X161.65 Y116.789 E3.11025
G1 X161.392 Y118.013 E3.15186
G1 X161.196 Y118.696 E3.17549
G1 X161.033 Y119.206 E3.1933
G1 X160.71 Y120.086 E3.22448
G1 X160.359 Y120.846 E3.25232
G1 X160.04 Y121.459 E3.27531
G1 X159.829 Y121.841 E3.28982
G1 X159.341 Y122.641 E3.32099
G1 X158.786 Y123.398 E3.35221
G1 X158.169 Y124.104 E3.38339
G1 X157.746 Y124.525 E3.40324
G1 X157.085 Y125.148 E3.43345
G1 X155.153 Y127.02 E3.52293
G1 X153.372 Y128.847 E3.60779
G1 X152.646 Y129.623 E3.64314
G1 X152.231 Y130.052 E3.66299
G1 X150.471 Y131.922 E3.7484
G1 X148.777 Y133.83 E3.83326
G1 X147.164 Y135.75 E3.91667
G1 X145.598 Y137.727 E4.00055
G1 X144.094 Y139.739 E4.0841
G1 X142.633 Y141.813 E4.16848
G1 X141.376 Y143.705 E4.24403
G1 X141.053 Y144.205 E4.26383
G1 X140.433 Y145.07 E4.29922
G1 X139.882 Y145.765 E4.32872
G1 X139.268 Y146.474 E4.35992
G1 X138.244 Y147.431 E4.40653
G1 X137.667 Y147.905 E4.43137
G1 X136.918 Y148.469 E4.46256
G1 X136.123 Y148.967 E4.49376
G1 X135.289 Y149.395 E4.52494
G1 X134.587 Y149.69 E4.55026
G1 X133.636 Y150.051 E4.58409
G1 X131.251 Y150.995 E4.66941
G1 X128.894 Y152.007 E4.75472
G1 X127.86 Y152.474 E4.79246
G1 X126.989 Y152.824 E4.82368
G1 X126.093 Y153.098 E4.85484
G1 X125.176 Y153.295 E4.88604
G1 X124.587 Y153.379 E4.90583
G1 X123.797 Y153.47 E4.93228
G1 X122.861 Y153.537 E4.96349
G1 X121.646 Y153.506 E5.00391
G1 X120.954 Y153.444 E5.02702
G1 X120.535 Y153.396 E5.04105
G1 X119.609 Y153.249 E5.07223
G1 X118.698 Y153.024 E5.10344
G1 X117.841 Y152.735 E5.13352
G1 X116.671 Y152.286 E5.1752
G1 X114.747 Y151.565 E5.24354
G1 X112.385 Y150.751 E5.32664
G1 X109.976 Y149.994 E5.41062
G1 X107.548 Y149.308 E5.49454
G1 X105.118 Y148.694 E5.5779
G1 X102.645 Y148.144 E5.66216
G1 X100.193 Y147.671 E5.74522
G1 X97.691 Y147.261 E5.82955
G1 X95.201 Y146.925 E5.91312
G1 X92.701 Y146.659 E5.99674
G1 X91.001 Y146.519 E6.05347
G1 X90.07 Y146.402 E6.08468
G1 X88.868 Y146.129 E6.12568
G1 X88.091 Y145.906 E6.15256
G1 X87.202 Y145.609 E6.18374
G1 X86.116 Y145.126 E6.22327
G1 X85.501 Y144.805 E6.24634
G1 X85.134 Y144.602 E6.26029
G1 X84.333 Y144.113 E6.29151
G1 X83.577 Y143.558 E6.3227
G1 X82.871 Y142.941 E6.35388
G1 X82.445 Y142.512 E6.37399
G1 X81.844 Y141.873 E6.40317
G1 X80.046 Y140.015 E6.48916
G1 X78.252 Y138.263 E6.57257
G1 X77.639 Y137.692 E6.60043
G1 X77.176 Y137.248 E6.62177
G1 X76.528 Y136.57 E6.65296
G1 X75.94 Y135.839 E6.68416
G1 X75.25 Y134.78 E6.7262
G1 X74.9 Y134.146 E6.75029
G1 X74.664 Y133.687 E6.76745
G1 X74.271 Y132.835 E6.79866
G1 X73.997 Y132.092 E6.825
G1 X73.785 Y131.425 E6.84828
G1 X73.659 Y130.989 E6.86337
G1 X73.438 Y130.078 E6.89455
G1 X73.294 Y129.151 E6.92575
G1 X73.231 Y128.215 E6.95696
G1 X73.232 Y127.609 E6.97711
G1 X73.259 Y126.713 E7.00693
G1 X73.301 Y124.056 E7.09531
G1 X73.269 Y121.523 E7.17956
G1 X73.228 Y120.156 E7.22505
G1 X73.249 Y119.218 E7.25626
G1 X73.35 Y118.286 E7.28744
G1 X73.603 Y117.076 E7.32855
G1 X73.821 Y116.32 E7.35472
G1 X73.978 Y115.833 E7.37174
G1 X74.303 Y114.953 E7.40294
G1 X74.656 Y114.194 E7.43078
G1 X74.804 Y113.905 E7.44158
G1 X75.173 Y113.228 E7.46723
G1 X75.661 Y112.427 E7.49842
G1 X76.216 Y111.671 E7.52961
G1 X76.834 Y110.965 E7.56082
G1 X77.249 Y110.552 E7.5803
G1 X77.906 Y109.932 E7.61034
G1 X79.76 Y108.139 E7.69613
G1 X81.545 Y106.312 E7.78108
G1 X84.085 Y103.601 E7.90464
G1 X85.773 Y101.699 E7.98922
G1 X87.392 Y99.768 E8.07303
G1 X88.949 Y97.8 E8.1565
G1 X90.436 Y95.807 E8.2392
G1 X92.484 Y92.861 E8.35854
G1 F2700 E3.35854
G0 F6000 X89.276 Y98.032
G1 F2700 E8.35854
G1 F1200 X90.763 Y96.039 E8.44124
G1 X92.809 Y93.095 E8.56049
G1 X94.183 Y90.985 E8.64423
G1 X94.755 Y90.189 E8.67683
G1 X95.307 Y89.492 E8.70641
G1 X95.91 Y88.796 E8.73703
G1 X96.758 Y87.991 E8.77592
G1 X97.029 Y87.761 E8.78775
G1 X97.576 Y87.318 E8.81116
G1 X98.319 Y86.774 E8.84178
G1 X99.107 Y86.298 E8.8724
G1 X99.933 Y85.891 E8.90303
G1 X100.44 Y85.684 E8.92125
G1 X101.325 Y85.349 E8.95272
G1 X103.766 Y84.382 E9.04005
G1 X106.126 Y83.37 E9.12545
G1 X107.236 Y82.869 E9.16596
G1 X108.091 Y82.528 E9.19657
G1 X108.972 Y82.261 E9.22719
G1 X110.221 Y82.021 E9.26949
G1 X110.966 Y81.936 E9.29443
G1 X111.474 Y81.894 E9.31139
G1 X112.394 Y81.858 E9.34201
G1 X113.211 Y81.893 E9.36921
G1 X113.883 Y81.954 E9.39165
G1 X114.302 Y82.002 E9.40568
G1 X115.212 Y82.146 E9.43632
G1 X116.105 Y82.369 E9.46693
G1 X116.945 Y82.657 E9.49647
G1 X118.289 Y83.181 E9.54445
G1 X120.713 Y84.076 E9.63039
G1 X123.131 Y84.893 E9.71528
G1 X125.519 Y85.624 E9.79834
G1 X127.986 Y86.304 E9.88346
G1 X130.429 Y86.904 E9.96713
G1 X132.924 Y87.442 E10.05202
G1 X135.387 Y87.9 E10.13534
G1 X137.89 Y88.294 E10.21962
G1 X140.371 Y88.611 E10.30281
G1 X142.976 Y88.872 E10.38988
G1 X143.931 Y88.947 E10.42174
G1 X144.845 Y89.059 E10.45237
G1 X146.017 Y89.324 E10.49233
G1 X146.795 Y89.547 E10.51925
G1 X147.668 Y89.839 E10.54987
G1 X148.702 Y90.3 E10.58752
G1 X149.003 Y90.454 E10.59877
G1 X149.663 Y90.813 E10.62376
G1 X150.449 Y91.292 E10.65437
G1 X151.19 Y91.838 E10.68499
G1 X151.882 Y92.446 E10.71563
G1 X152.268 Y92.837 E10.7339
G1 X152.84 Y93.446 E10.76169
G1 X154.667 Y95.335 E10.8491
G1 X156.514 Y97.137 E10.93492
G1 X157.465 Y98.032 E10.97836
G1 X158.107 Y98.691 E11.00896
G1 X158.69 Y99.404 E11.03959
G1 X159.421 Y100.52 E11.08396
G1 X159.731 Y101.082 E11.10531
G1 X159.969 Y101.542 E11.12253
G1 X160.356 Y102.377 E11.15314
G1 X160.631 Y103.125 E11.17965
G1 X160.832 Y103.761 E11.20184
G1 X160.958 Y104.198 E11.21696
G1 X161.174 Y105.093 E11.24759
G1 X161.312 Y106.003 E11.2782
G1 X161.371 Y106.922 E11.30883
G1 X161.368 Y107.449 E11.32636
G1 X161.342 Y108.316 E11.3552
G1 X161.299 Y111.002 E11.44455
G1 X161.33 Y113.526 E11.52851
G1 X161.372 Y114.927 E11.57513
G1 X161.35 Y115.847 E11.60573
G1 X161.249 Y116.762 E11.63635
G1 X161.006 Y117.908 E11.67532
G1 X160.815 Y118.574 E11.69836
G1 X160.652 Y119.084 E11.71617
G1 X160.334 Y119.948 E11.74679
G1 X160.002 Y120.664 E11.77304
G1 X159.69 Y121.265 E11.79556
G1 X159.479 Y121.647 E11.81008
G1 X158.999 Y122.433 E11.84071
G1 X158.453 Y123.174 E11.87132
G1 X157.844 Y123.865 E11.90196
G1 X157.472 Y124.234 E11.91938
G1 X156.732 Y124.932 E11.95322
G1 X154.888 Y126.718 E12.0386
G1 X153.119 Y128.532 E12.12287
G1 X152.491 Y129.206 E12.15351
G1 X151.935 Y129.784 E12.18019
G1 X150.164 Y131.665 E12.26612
G1 X148.469 Y133.573 E12.351
G1 X146.845 Y135.507 E12.435
G1 X145.297 Y137.462 E12.51794
G1 X143.763 Y139.515 E12.60318
G1 X142.317 Y141.566 E12.68664
G1 X141.014 Y143.528 E12.76498
G1 X140.717 Y143.988 E12.78319
G1 X140.119 Y144.821 E12.8173
G1 X139.568 Y145.516 E12.8468
G1 X138.966 Y146.212 E12.8774
G1 X137.991 Y147.122 E12.92176
G1 X137.414 Y147.596 E12.9466
G1 X136.677 Y148.149 E12.97724
G1 X135.896 Y148.636 E13.00786
G1 X135.076 Y149.053 E13.03845
G1 X134.445 Y149.316 E13.06119
G1 X133.495 Y149.676 E13.09498
G1 X131.112 Y150.62 E13.18023
G1 X128.729 Y151.643 E13.26648
G1 X127.695 Y152.11 E13.30422
G1 X126.84 Y152.452 E13.33485
G1 X125.959 Y152.719 E13.36547
G1 X125.058 Y152.909 E13.39609
G1 X124.541 Y152.981 E13.41345
G1 X123.751 Y153.072 E13.4399
G1 X122.833 Y153.138 E13.47052
G1 X121.679 Y153.107 E13.50891
G1 X121 Y153.046 E13.53159
G1 X120.581 Y152.998 E13.54561
G1 X119.671 Y152.854 E13.57626
G1 X118.778 Y152.631 E13.60687
G1 X117.985 Y152.362 E13.63472
G1 X116.824 Y151.916 E13.67609
G1 X114.902 Y151.195 E13.74436
G1 X112.499 Y150.367 E13.8289
G1 X110.099 Y149.613 E13.91257
G1 X107.682 Y148.93 E13.99611
G1 X105.198 Y148.303 E14.08132
G1 X102.709 Y147.749 E14.16613
G1 X100.255 Y147.275 E14.24926
G1 X97.773 Y146.868 E14.33291
G1 X95.265 Y146.53 E14.41708
G1 X92.694 Y146.257 E14.50307
G1 X91.033 Y146.12 E14.55851
G1 X90.12 Y146.005 E14.58911
G1 X88.979 Y145.745 E14.62804
G1 X88.202 Y145.522 E14.65492
G1 X87.329 Y145.23 E14.68554
G1 X86.298 Y144.77 E14.72309
G1 X85.694 Y144.455 E14.74575
G1 X85.327 Y144.252 E14.7597
G1 X84.542 Y143.771 E14.79032
G1 X83.801 Y143.225 E14.82093
G1 X83.11 Y142.616 E14.85156
G1 X82.736 Y142.238 E14.86925
G1 X82.14 Y141.604 E14.89819
G1 X80.33 Y139.733 E14.98478
G1 X78.501 Y137.947 E15.0698
G1 X77.453 Y136.96 E15.11768
G1 X76.817 Y136.293 E15.14834
G1 X76.242 Y135.575 E15.17893
G1 X75.597 Y134.581 E15.21834
G1 X75.256 Y133.963 E15.24182
G1 X75.02 Y133.504 E15.25898
G1 X74.635 Y132.668 E15.2896
G1 X74.377 Y131.967 E15.31444
G1 X74.17 Y131.314 E15.33722
G1 X74.044 Y130.878 E15.35232
G1 X73.827 Y129.983 E15.38295
G1 X73.688 Y129.073 E15.41357
G1 X73.629 Y128.154 E15.4442
G1 X73.632 Y127.621 E15.46192
G1 X73.658 Y126.732 E15.49151
G1 X73.701 Y124.057 E15.58049
G1 X73.67 Y121.544 E15.66408
G1 X73.628 Y120.148 E15.71053
G1 X73.65 Y119.227 E15.74117
G1 X73.751 Y118.312 E15.77179
G1 X73.99 Y117.18 E15.81027
G1 X74.201 Y116.443 E15.83577
G1 X74.358 Y115.956 E15.85278
G1 X74.679 Y115.092 E15.88344
G1 X75.012 Y114.376 E15.9097
G1 X75.16 Y114.087 E15.9205
G1 X75.523 Y113.421 E15.94573
G1 X76.003 Y112.636 E15.97634
G1 X76.55 Y111.895 E16.00697
G1 X77.159 Y111.205 E16.03758
G1 X77.523 Y110.843 E16.05465
G1 X78.174 Y110.229 E16.08442
G1 X80.042 Y108.423 E16.17084
G1 X81.863 Y106.558 E16.25753
G1 X84.376 Y103.877 E16.37975
G1 X86.062 Y101.976 E16.46426
G1 X87.714 Y100.006 E16.54977
G1 X89.276 Y98.032 E16.6335
G1 F2700 E11.6335
G0 F6000 X86.385 Y102.214
G1 F2700 E16.6335
G1 F1200 X88.001 Y100.287 E16.71714
G1 X89.599 Y98.267 E16.80281
G1 X91.088 Y96.272 E16.88561
G1 X93.131 Y93.333 E17.00466
G1 X94.518 Y91.203 E17.0892
G1 X95.069 Y90.437 E17.12058
G1 X95.621 Y89.74 E17.15015
G1 X96.212 Y89.058 E17.18017
G1 X97.017 Y88.296 E17.21704
G1 X97.516 Y87.878 E17.23869
G1 X97.826 Y87.63 E17.25189
G1 X98.556 Y87.098 E17.28193
G1 X99.329 Y86.632 E17.31195
G1 X100.141 Y86.236 E17.342
G1 X100.581 Y86.058 E17.35779
G1 X101.488 Y85.714 E17.39005
G1 X103.905 Y84.757 E17.47651
G1 X106.316 Y83.723 E17.56377
G1 X107.4 Y83.234 E17.60332
G1 X108.239 Y82.899 E17.63337
G1 X109.105 Y82.64 E17.66343
G1 X110.273 Y82.418 E17.70298
G1 X110.999 Y82.335 E17.72728
G1 X111.507 Y82.293 E17.74423
G1 X112.409 Y82.258 E17.77426
G1 X113.179 Y82.292 E17.79989
G1 X113.838 Y82.351 E17.8219
G1 X114.257 Y82.399 E17.83592
G1 X115.149 Y82.542 E17.86597
G1 X116.024 Y82.762 E17.89598
G1 X116.8 Y83.029 E17.92327
G1 X118.183 Y83.568 E17.97264
G1 X120.583 Y84.455 E18.05775
G1 X123.001 Y85.271 E18.14262
G1 X125.424 Y86.013 E18.22691
G1 X127.865 Y86.686 E18.31112
G1 X130.346 Y87.295 E18.39609
G1 X132.838 Y87.832 E18.48088
G1 X135.323 Y88.295 E18.56495
G1 X137.848 Y88.692 E18.64997
G1 X140.316 Y89.008 E18.73272
G1 X142.95 Y89.271 E18.82077
G1 X143.9 Y89.346 E18.85246
G1 X144.796 Y89.457 E18.88249
G1 X145.906 Y89.709 E18.92035
G1 X146.684 Y89.932 E18.94727
G1 X147.541 Y90.219 E18.97733
G1 X148.52 Y90.656 E19.01299
G1 X148.821 Y90.81 E19.02423
G1 X149.47 Y91.163 E19.0488
G1 X150.24 Y91.634 E19.07882
G1 X150.966 Y92.171 E19.10886
G1 X151.642 Y92.77 E19.1389
G1 X151.977 Y93.111 E19.1548
G1 X152.578 Y93.751 E19.184
G1 X154.383 Y95.616 E19.27032
G1 X156.244 Y97.433 E19.35683
G1 X157.191 Y98.324 E19.40008
G1 X157.821 Y98.971 E19.43011
G1 X158.391 Y99.671 E19.46014
G1 X159.073 Y100.717 E19.50167
G1 X159.375 Y101.266 E19.52251
G1 X159.613 Y101.726 E19.53974
G1 X159.992 Y102.546 E19.56978
G1 X160.251 Y103.249 E19.5947
G1 X160.448 Y103.872 E19.61643
G1 X160.574 Y104.309 E19.63156
G1 X160.785 Y105.187 E19.66159
G1 X160.918 Y106.08 E19.69162
G1 X160.972 Y106.982 E19.72168
G1 X160.969 Y107.437 E19.73681
G1 X160.941 Y108.393 E19.76862
G1 X160.899 Y111.002 E19.85541
G1 X160.93 Y113.545 E19.93999
G1 X160.962 Y114.438 E19.96971
G1 X160.972 Y114.935 E19.98625
G1 X160.95 Y115.838 E20.01629
G1 X160.849 Y116.735 E20.04631
G1 X160.62 Y117.804 E20.08268
G1 X160.434 Y118.452 E20.1051
G1 X160.271 Y118.962 E20.12291
G1 X159.958 Y119.809 E20.15294
G1 X159.646 Y120.483 E20.17764
G1 X159.34 Y121.072 E20.19972
G1 X159.129 Y121.454 E20.21423
G1 X158.657 Y122.224 E20.24427
G1 X158.12 Y122.95 E20.27431
G1 X157.52 Y123.625 E20.30434
G1 X157.197 Y123.943 E20.31942
G1 X156.498 Y124.602 E20.35137
G1 X154.606 Y126.435 E20.43899
G1 X152.801 Y128.286 E20.52498
G1 X152.071 Y129.067 E20.56054
G1 X151.638 Y129.515 E20.58126
G1 X149.874 Y131.389 E20.66686
G1 X148.181 Y133.295 E20.75165
G1 X146.542 Y135.247 E20.83642
G1 X144.961 Y137.242 E20.92109
G1 X143.448 Y139.268 E21.00519
G1 X141.978 Y141.353 E21.09004
G1 X140.704 Y143.271 E21.16662
G1 X140.381 Y143.771 E21.18642
G1 X139.806 Y144.573 E21.21924
G1 X139.255 Y145.268 E21.24874
G1 X138.663 Y145.95 E21.27878
G1 X137.737 Y146.813 E21.32088
G1 X137.16 Y147.287 E21.34572
G1 X136.437 Y147.828 E21.37575
G1 X135.669 Y148.304 E21.4058
G1 X134.863 Y148.71 E21.43582
